(This file generated 22.06.21 15:41)
(Settings from pcb-machine.h)
(  Tool Size)
(0.2000 )
(Z Axis Settings)
(  High     Up        Down     Drill)
(12.7000 	2.5400 	-0.1778 	-0.8128 )
(spindle on time = 3.0000)
(milling depth = -0.2540)
(text depth = -0.1270)
(tool change at 12.7000 15.2400 25.4000 )
(feed rate xy = F508.00 )
(feed rate z  = F254.00 )
(Settings from pcb-defaults.h)
(isolate min = 0.2000)
(isolate max = 0.5080)
(isolate step = 0.1270)
(Generated top outlines, bottom outlines, bottom drill, )
(Unit of measure: mm)
(Metric Mode)
G21
(Absolute Coordinates)
G90
G00 X0.0000 Y0.0000 
M03
G04 P3.000000
G00 Z2.5400 
G00 X-55.3148 Y17.5690 
G01 Z-0.1778 F254.00 
G01 X-55.3673 Y17.5340 F508.00 
G01 X-55.5143 Y17.4731 
G01 X-55.6704 Y17.4420 
G01 X-55.8296 Y17.4420 
G01 X-55.9857 Y17.4731 
G01 X-56.1327 Y17.5340 
G01 X-56.2651 Y17.6224 
G01 X-56.3776 Y17.7349 
G01 X-56.4660 Y17.8673 
G01 X-56.5269 Y18.0143 
G01 X-56.5580 Y18.1704 
G01 X-56.5580 Y18.3296 
G01 X-56.5269 Y18.4857 
G01 X-56.4660 Y18.6327 
G01 X-56.3776 Y18.7651 
G01 X-56.2651 Y18.8776 
G01 X-56.1327 Y18.9660 
G01 X-55.9857 Y19.0269 
G01 X-55.8296 Y19.0580 
G01 X-55.6704 Y19.0580 
G01 X-55.5143 Y19.0269 
G01 X-55.3673 Y18.9660 
G01 X-55.3148 Y18.9310 
G01 X-38.6852 Y18.9310 
G01 X-38.6327 Y18.9660 
G01 X-38.4857 Y19.0269 
G01 X-38.3296 Y19.0580 
G01 X-38.1704 Y19.0580 
G01 X-38.0143 Y19.0269 
G01 X-37.8673 Y18.9660 
G01 X-37.7349 Y18.8776 
G01 X-37.6224 Y18.7651 
G01 X-37.5340 Y18.6327 
G01 X-37.4731 Y18.4857 
G01 X-37.4420 Y18.3296 
G01 X-37.4420 Y18.1704 
G01 X-37.4731 Y18.0143 
G01 X-37.5340 Y17.8673 
G01 X-37.6224 Y17.7349 
G01 X-37.7349 Y17.6224 
G01 X-37.8673 Y17.5340 
G01 X-38.0143 Y17.4731 
G01 X-38.1704 Y17.4420 
G01 X-38.3296 Y17.4420 
G01 X-38.4857 Y17.4731 
G01 X-38.6327 Y17.5340 
G01 X-38.6852 Y17.5690 
G01 X-55.3148 Y17.5690 
G00 Z2.5400 
G00 X-44.9650 Y58.1104 
G01 Z-0.1778 F254.00 
G01 X-44.7795 Y58.0735 F508.00 
G01 X-44.6047 Y58.0011 
G01 X-44.4474 Y57.8960 
G01 X-44.3136 Y57.7622 
G01 X-44.2085 Y57.6049 
G01 X-44.1361 Y57.4301 
G01 X-44.0992 Y57.2446 
G01 X-44.0992 Y57.0554 
G01 X-44.1361 Y56.8699 
G01 X-44.2085 Y56.6951 
G01 X-44.3136 Y56.5378 
G01 X-44.4474 Y56.4040 
G01 X-44.6047 Y56.2989 
G01 X-44.7795 Y56.2265 
G01 X-44.9650 Y56.1896 
G01 X-46.4750 Y56.1896 
G01 X-46.6605 Y56.2265 
G01 X-46.8353 Y56.2989 
G01 X-46.9926 Y56.4040 
G01 X-47.1264 Y56.5378 
G01 X-47.2315 Y56.6951 
G01 X-47.3039 Y56.8699 
G01 X-47.3408 Y57.0554 
G01 X-47.3408 Y57.2446 
G01 X-47.3039 Y57.4301 
G01 X-47.2315 Y57.6049 
G01 X-47.1660 Y57.7029 
G01 X-48.0321 Y58.5690 
G01 X-79.4679 Y58.5690 
G01 X-79.9710 Y58.0659 
G01 X-80.0659 Y57.9710 
G01 X-80.1774 Y57.8965 
G01 X-80.3014 Y57.8452 
G01 X-80.3531 Y57.8349 
G01 X-80.3979 Y57.7469 
G01 X-80.5150 Y57.5858 
G01 X-80.6558 Y57.4450 
G01 X-80.8169 Y57.3279 
G01 X-80.9943 Y57.2375 
G01 X-81.1837 Y57.1760 
G01 X-81.3804 Y57.1448 
G01 X-81.5796 Y57.1448 
G01 X-81.7763 Y57.1760 
G01 X-81.9657 Y57.2375 
G01 X-82.1431 Y57.3279 
G01 X-82.3042 Y57.4450 
G01 X-82.4450 Y57.5858 
G01 X-82.5621 Y57.7469 
G01 X-82.6525 Y57.9243 
G01 X-82.7140 Y58.1137 
G01 X-82.7452 Y58.3104 
G01 X-82.7452 Y58.5096 
G01 X-82.7140 Y58.7063 
G01 X-82.6525 Y58.8957 
G01 X-82.5621 Y59.0731 
G01 X-82.4450 Y59.2342 
G01 X-82.3042 Y59.3750 
G01 X-82.1431 Y59.4921 
G01 X-81.9657 Y59.5825 
G01 X-81.7763 Y59.6440 
G01 X-81.5796 Y59.6752 
G01 X-81.3804 Y59.6752 
G01 X-81.1837 Y59.6440 
G01 X-80.9943 Y59.5825 
G01 X-80.8169 Y59.4921 
G01 X-80.6558 Y59.3750 
G01 X-80.6219 Y59.3412 
G01 X-80.1841 Y59.7790 
G01 X-80.0726 Y59.8535 
G01 X-79.9486 Y59.9048 
G01 X-79.8171 Y59.9310 
G01 X-47.6829 Y59.9310 
G01 X-47.5514 Y59.9048 
G01 X-47.4274 Y59.8535 
G01 X-47.3159 Y59.7790 
G01 X-47.2210 Y59.6841 
G01 X-45.6473 Y58.1104 
G01 X-44.9650 Y58.1104 
G00 Z2.5400 
G00 X-46.4750 Y55.5704 
G01 Z-0.1778 F254.00 
G01 X-44.9650 Y55.5704 F508.00 
G01 X-44.7795 Y55.5335 
G01 X-44.6047 Y55.4611 
G01 X-44.4474 Y55.3560 
G01 X-44.3136 Y55.2222 
G01 X-44.2085 Y55.0649 
G01 X-44.1361 Y54.8901 
G01 X-44.0992 Y54.7046 
G01 X-44.0992 Y54.5154 
G01 X-44.1361 Y54.3299 
G01 X-44.2085 Y54.1551 
G01 X-44.3136 Y53.9978 
G01 X-44.4474 Y53.8640 
G01 X-44.6047 Y53.7589 
G01 X-44.7795 Y53.6865 
G01 X-44.9650 Y53.6496 
G01 X-46.4750 Y53.6496 
G01 X-46.6605 Y53.6865 
G01 X-46.8353 Y53.7589 
G01 X-46.9926 Y53.8640 
G01 X-47.1264 Y53.9978 
G01 X-47.2315 Y54.1551 
G01 X-47.3039 Y54.3299 
G01 X-47.3408 Y54.5154 
G01 X-47.3408 Y54.7046 
G01 X-47.3039 Y54.8901 
G01 X-47.2315 Y55.0649 
G01 X-47.1264 Y55.2222 
G01 X-46.9926 Y55.3560 
G01 X-46.8353 Y55.4611 
G01 X-46.6605 Y55.5335 
G01 X-46.4750 Y55.5704 
G00 Z2.5400 
G00 X-46.4750 Y42.8704 
G01 Z-0.1778 F254.00 
G01 X-44.9650 Y42.8704 F508.00 
G01 X-44.7795 Y42.8335 
G01 X-44.6047 Y42.7611 
G01 X-44.4474 Y42.6560 
G01 X-44.3136 Y42.5222 
G01 X-44.2085 Y42.3649 
G01 X-44.1361 Y42.1901 
G01 X-44.0992 Y42.0046 
G01 X-44.0992 Y41.8154 
G01 X-44.1361 Y41.6299 
G01 X-44.2085 Y41.4551 
G01 X-44.3136 Y41.2978 
G01 X-44.4474 Y41.1640 
G01 X-44.6047 Y41.0589 
G01 X-44.7795 Y40.9865 
G01 X-44.9650 Y40.9496 
G01 X-46.4750 Y40.9496 
G01 X-46.6605 Y40.9865 
G01 X-46.8353 Y41.0589 
G01 X-46.9926 Y41.1640 
G01 X-47.1264 Y41.2978 
G01 X-47.2315 Y41.4551 
G01 X-47.3039 Y41.6299 
G01 X-47.3408 Y41.8154 
G01 X-47.3408 Y42.0046 
G01 X-47.3039 Y42.1901 
G01 X-47.2315 Y42.3649 
G01 X-47.1264 Y42.5222 
G01 X-46.9926 Y42.6560 
G01 X-46.8353 Y42.7611 
G01 X-46.6605 Y42.8335 
G01 X-46.4750 Y42.8704 
G00 Z2.5400 
G00 X-46.4750 Y40.3304 
G01 Z-0.1778 F254.00 
G01 X-44.9650 Y40.3304 F508.00 
G01 X-44.7795 Y40.2935 
G01 X-44.6047 Y40.2211 
G01 X-44.4474 Y40.1160 
G01 X-44.3136 Y39.9822 
G01 X-44.2085 Y39.8249 
G01 X-44.1361 Y39.6501 
G01 X-44.0992 Y39.4646 
G01 X-44.0992 Y39.2754 
G01 X-44.1361 Y39.0899 
G01 X-44.2085 Y38.9151 
G01 X-44.3136 Y38.7578 
G01 X-44.4474 Y38.6240 
G01 X-44.6047 Y38.5189 
G01 X-44.7795 Y38.4465 
G01 X-44.9650 Y38.4096 
G01 X-46.4750 Y38.4096 
G01 X-46.6605 Y38.4465 
G01 X-46.8353 Y38.5189 
G01 X-46.9926 Y38.6240 
G01 X-47.1264 Y38.7578 
G01 X-47.2315 Y38.9151 
G01 X-47.3039 Y39.0899 
G01 X-47.3408 Y39.2754 
G01 X-47.3408 Y39.4646 
G01 X-47.3039 Y39.6501 
G01 X-47.2315 Y39.8249 
G01 X-47.1264 Y39.9822 
G01 X-46.9926 Y40.1160 
G01 X-46.8353 Y40.2211 
G01 X-46.6605 Y40.2935 
G01 X-46.4750 Y40.3304 
G00 Z2.5400 
G00 X-46.4750 Y53.0304 
G01 Z-0.1778 F254.00 
G01 X-44.9650 Y53.0304 F508.00 
G01 X-44.7795 Y52.9935 
G01 X-44.6047 Y52.9211 
G01 X-44.4474 Y52.8160 
G01 X-44.3136 Y52.6822 
G01 X-44.2085 Y52.5249 
G01 X-44.1361 Y52.3501 
G01 X-44.0992 Y52.1646 
G01 X-44.0992 Y51.9754 
G01 X-44.1361 Y51.7899 
G01 X-44.2085 Y51.6151 
G01 X-44.3136 Y51.4578 
G01 X-44.4474 Y51.3240 
G01 X-44.6047 Y51.2189 
G01 X-44.7795 Y51.1465 
G01 X-44.9650 Y51.1096 
G01 X-46.4750 Y51.1096 
G01 X-46.6605 Y51.1465 
G01 X-46.8353 Y51.2189 
G01 X-46.9926 Y51.3240 
G01 X-47.1264 Y51.4578 
G01 X-47.2315 Y51.6151 
G01 X-47.3039 Y51.7899 
G01 X-47.3408 Y51.9754 
G01 X-47.3408 Y52.1646 
G01 X-47.3039 Y52.3501 
G01 X-47.2315 Y52.5249 
G01 X-47.1264 Y52.6822 
G01 X-46.9926 Y52.8160 
G01 X-46.8353 Y52.9211 
G01 X-46.6605 Y52.9935 
G01 X-46.4750 Y53.0304 
G00 Z2.5400 
G00 X-46.4750 Y50.4904 
G01 Z-0.1778 F254.00 
G01 X-44.9650 Y50.4904 F508.00 
G01 X-44.7795 Y50.4535 
G01 X-44.6047 Y50.3811 
G01 X-44.4474 Y50.2760 
G01 X-44.3136 Y50.1422 
G01 X-44.2085 Y49.9849 
G01 X-44.1361 Y49.8101 
G01 X-44.0992 Y49.6246 
G01 X-44.0992 Y49.4354 
G01 X-44.1361 Y49.2499 
G01 X-44.2085 Y49.0751 
G01 X-44.3136 Y48.9178 
G01 X-44.4474 Y48.7840 
G01 X-44.6047 Y48.6789 
G01 X-44.7795 Y48.6065 
G01 X-44.9650 Y48.5696 
G01 X-46.4750 Y48.5696 
G01 X-46.6605 Y48.6065 
G01 X-46.8353 Y48.6789 
G01 X-46.9926 Y48.7840 
G01 X-47.1264 Y48.9178 
G01 X-47.2315 Y49.0751 
G01 X-47.3039 Y49.2499 
G01 X-47.3408 Y49.4354 
G01 X-47.3408 Y49.6246 
G01 X-47.3039 Y49.8101 
G01 X-47.2315 Y49.9849 
G01 X-47.1264 Y50.1422 
G01 X-46.9926 Y50.2760 
G01 X-46.8353 Y50.3811 
G01 X-46.6605 Y50.4535 
G01 X-46.4750 Y50.4904 
G00 Z2.5400 
G00 X-46.4750 Y45.4104 
G01 Z-0.1778 F254.00 
G01 X-44.9650 Y45.4104 F508.00 
G01 X-44.7795 Y45.3735 
G01 X-44.6047 Y45.3011 
G01 X-44.4474 Y45.1960 
G01 X-44.3136 Y45.0622 
G01 X-44.2085 Y44.9049 
G01 X-44.1361 Y44.7301 
G01 X-44.0992 Y44.5446 
G01 X-44.0992 Y44.3554 
G01 X-44.1361 Y44.1699 
G01 X-44.2085 Y43.9951 
G01 X-44.3136 Y43.8378 
G01 X-44.4474 Y43.7040 
G01 X-44.6047 Y43.5989 
G01 X-44.7795 Y43.5265 
G01 X-44.9650 Y43.4896 
G01 X-46.4750 Y43.4896 
G01 X-46.6605 Y43.5265 
G01 X-46.8353 Y43.5989 
G01 X-46.9926 Y43.7040 
G01 X-47.1264 Y43.8378 
G01 X-47.2315 Y43.9951 
G01 X-47.3039 Y44.1699 
G01 X-47.3408 Y44.3554 
G01 X-47.3408 Y44.5446 
G01 X-47.3039 Y44.7301 
G01 X-47.2315 Y44.9049 
G01 X-47.1264 Y45.0622 
G01 X-46.9926 Y45.1960 
G01 X-46.8353 Y45.3011 
G01 X-46.6605 Y45.3735 
G01 X-46.4750 Y45.4104 
G00 Z2.5400 
G00 X-54.0950 Y40.3304 
G01 Z-0.1778 F254.00 
G01 X-52.5850 Y40.3304 F508.00 
G01 X-52.3995 Y40.2935 
G01 X-52.2247 Y40.2211 
G01 X-52.0674 Y40.1160 
G01 X-51.9336 Y39.9822 
G01 X-51.8285 Y39.8249 
G01 X-51.7561 Y39.6501 
G01 X-51.7192 Y39.4646 
G01 X-51.7192 Y39.2754 
G01 X-51.7561 Y39.0899 
G01 X-51.8285 Y38.9151 
G01 X-51.9336 Y38.7578 
G01 X-52.0674 Y38.6240 
G01 X-52.2247 Y38.5189 
G01 X-52.3995 Y38.4465 
G01 X-52.5850 Y38.4096 
G01 X-54.0950 Y38.4096 
G01 X-54.2805 Y38.4465 
G01 X-54.4553 Y38.5189 
G01 X-54.6126 Y38.6240 
G01 X-54.7464 Y38.7578 
G01 X-54.8515 Y38.9151 
G01 X-54.9239 Y39.0899 
G01 X-54.9608 Y39.2754 
G01 X-54.9608 Y39.4646 
G01 X-54.9239 Y39.6501 
G01 X-54.8515 Y39.8249 
G01 X-54.7464 Y39.9822 
G01 X-54.6126 Y40.1160 
G01 X-54.4553 Y40.2211 
G01 X-54.2805 Y40.2935 
G01 X-54.0950 Y40.3304 
G00 Z2.5400 
G00 X-54.0950 Y42.8704 
G01 Z-0.1778 F254.00 
G01 X-52.5850 Y42.8704 F508.00 
G01 X-52.3995 Y42.8335 
G01 X-52.2247 Y42.7611 
G01 X-52.0674 Y42.6560 
G01 X-51.9336 Y42.5222 
G01 X-51.8285 Y42.3649 
G01 X-51.7561 Y42.1901 
G01 X-51.7192 Y42.0046 
G01 X-51.7192 Y41.8154 
G01 X-51.7561 Y41.6299 
G01 X-51.8285 Y41.4551 
G01 X-51.9336 Y41.2978 
G01 X-52.0674 Y41.1640 
G01 X-52.2247 Y41.0589 
G01 X-52.3995 Y40.9865 
G01 X-52.5850 Y40.9496 
G01 X-54.0950 Y40.9496 
G01 X-54.2805 Y40.9865 
G01 X-54.4553 Y41.0589 
G01 X-54.6126 Y41.1640 
G01 X-54.7464 Y41.2978 
G01 X-54.8515 Y41.4551 
G01 X-54.9239 Y41.6299 
G01 X-54.9608 Y41.8154 
G01 X-54.9608 Y42.0046 
G01 X-54.9239 Y42.1901 
G01 X-54.8515 Y42.3649 
G01 X-54.7464 Y42.5222 
G01 X-54.6126 Y42.6560 
G01 X-54.4553 Y42.7611 
G01 X-54.2805 Y42.8335 
G01 X-54.0950 Y42.8704 
G00 Z2.5400 
G00 X-54.0950 Y45.4104 
G01 Z-0.1778 F254.00 
G01 X-52.5850 Y45.4104 F508.00 
G01 X-52.3995 Y45.3735 
G01 X-52.2247 Y45.3011 
G01 X-52.0674 Y45.1960 
G01 X-51.9336 Y45.0622 
G01 X-51.8285 Y44.9049 
G01 X-51.7561 Y44.7301 
G01 X-51.7192 Y44.5446 
G01 X-51.7192 Y44.3554 
G01 X-51.7561 Y44.1699 
G01 X-51.8285 Y43.9951 
G01 X-51.9336 Y43.8378 
G01 X-52.0674 Y43.7040 
G01 X-52.2247 Y43.5989 
G01 X-52.3995 Y43.5265 
G01 X-52.5850 Y43.4896 
G01 X-53.2973 Y43.4896 
G01 X-53.3159 Y43.4710 
G01 X-53.4274 Y43.3965 
G01 X-53.5514 Y43.3452 
G01 X-53.6829 Y43.3190 
G01 X-54.7179 Y43.3190 
G01 X-56.0690 Y41.9679 
G01 X-56.0690 Y36.6852 
G01 X-56.0340 Y36.6327 
G01 X-55.9731 Y36.4857 
G01 X-55.9420 Y36.3296 
G01 X-55.9420 Y36.1704 
G01 X-55.9731 Y36.0143 
G01 X-56.0340 Y35.8673 
G01 X-56.1224 Y35.7349 
G01 X-56.2349 Y35.6224 
G01 X-56.3673 Y35.5340 
G01 X-56.5143 Y35.4731 
G01 X-56.6704 Y35.4420 
G01 X-56.8296 Y35.4420 
G01 X-56.9857 Y35.4731 
G01 X-57.1327 Y35.5340 
G01 X-57.2651 Y35.6224 
G01 X-57.3776 Y35.7349 
G01 X-57.4660 Y35.8673 
G01 X-57.5269 Y36.0143 
G01 X-57.5580 Y36.1704 
G01 X-57.5580 Y36.3296 
G01 X-57.5269 Y36.4857 
G01 X-57.4660 Y36.6327 
G01 X-57.4310 Y36.6852 
G01 X-57.4310 Y42.3171 
G01 X-57.4048 Y42.4486 
G01 X-57.3535 Y42.5726 
G01 X-57.2790 Y42.6841 
G01 X-57.1841 Y42.7790 
G01 X-55.4341 Y44.5290 
G01 X-55.3226 Y44.6035 
G01 X-55.1986 Y44.6548 
G01 X-55.0671 Y44.6810 
G01 X-54.9337 Y44.6810 
G01 X-54.9239 Y44.7301 
G01 X-54.8515 Y44.9049 
G01 X-54.7464 Y45.0622 
G01 X-54.6126 Y45.1960 
G01 X-54.4553 Y45.3011 
G01 X-54.2805 Y45.3735 
G01 X-54.0950 Y45.4104 
G00 Z2.5400 
G00 X-54.0950 Y47.9504 
G01 Z-0.1778 F254.00 
G01 X-52.5850 Y47.9504 F508.00 
G01 X-52.3995 Y47.9135 
G01 X-52.2247 Y47.8411 
G01 X-52.0674 Y47.7360 
G01 X-51.9336 Y47.6022 
G01 X-51.8285 Y47.4449 
G01 X-51.7561 Y47.2701 
G01 X-51.7192 Y47.0846 
G01 X-51.7192 Y46.8954 
G01 X-51.7561 Y46.7099 
G01 X-51.8285 Y46.5351 
G01 X-51.9336 Y46.3778 
G01 X-52.0674 Y46.2440 
G01 X-52.2247 Y46.1389 
G01 X-52.3995 Y46.0665 
G01 X-52.5850 Y46.0296 
G01 X-54.0950 Y46.0296 
G01 X-54.2805 Y46.0665 
G01 X-54.4553 Y46.1389 
G01 X-54.6126 Y46.2440 
G01 X-54.7464 Y46.3778 
G01 X-54.8515 Y46.5351 
G01 X-54.9239 Y46.7099 
G01 X-54.9608 Y46.8954 
G01 X-54.9608 Y47.0846 
G01 X-54.9239 Y47.2701 
G01 X-54.8515 Y47.4449 
G01 X-54.7464 Y47.6022 
G01 X-54.6126 Y47.7360 
G01 X-54.4553 Y47.8411 
G01 X-54.2805 Y47.9135 
G01 X-54.0950 Y47.9504 
G00 Z2.5400 
G00 X-54.0950 Y50.4904 
G01 Z-0.1778 F254.00 
G01 X-52.5850 Y50.4904 F508.00 
G01 X-52.3995 Y50.4535 
G01 X-52.2247 Y50.3811 
G01 X-52.0674 Y50.2760 
G01 X-51.9336 Y50.1422 
G01 X-51.8285 Y49.9849 
G01 X-51.7941 Y49.9018 
G01 X-51.6774 Y49.8535 
G01 X-51.5659 Y49.7790 
G01 X-50.0659 Y48.2790 
G01 X-49.9710 Y48.1841 
G01 X-49.8965 Y48.0726 
G01 X-49.8452 Y47.9486 
G01 X-49.8190 Y47.8171 
G01 X-49.8190 Y31.9310 
G01 X-48.4352 Y31.9310 
G01 X-48.3827 Y31.9660 
G01 X-48.2357 Y32.0269 
G01 X-48.0796 Y32.0580 
G01 X-47.9204 Y32.0580 
G01 X-47.7643 Y32.0269 
G01 X-47.6173 Y31.9660 
G01 X-47.4849 Y31.8776 
G01 X-47.3724 Y31.7651 
G01 X-47.2840 Y31.6327 
G01 X-47.2231 Y31.4857 
G01 X-47.1920 Y31.3296 
G01 X-47.1920 Y31.1704 
G01 X-47.2231 Y31.0143 
G01 X-47.2840 Y30.8673 
G01 X-47.3724 Y30.7349 
G01 X-47.4849 Y30.6224 
G01 X-47.6173 Y30.5340 
G01 X-47.7643 Y30.4731 
G01 X-47.9204 Y30.4420 
G01 X-48.0796 Y30.4420 
G01 X-48.2357 Y30.4731 
G01 X-48.3827 Y30.5340 
G01 X-48.4352 Y30.5690 
G01 X-50.5671 Y30.5690 
G01 X-50.6986 Y30.5952 
G01 X-50.8226 Y30.6465 
G01 X-50.9341 Y30.7210 
G01 X-51.0290 Y30.8159 
G01 X-51.1035 Y30.9274 
G01 X-51.1548 Y31.0514 
G01 X-51.1810 Y31.1829 
G01 X-51.1810 Y47.4679 
G01 X-52.2821 Y48.5690 
G01 X-53.0671 Y48.5690 
G01 X-53.0701 Y48.5696 
G01 X-54.0950 Y48.5696 
G01 X-54.2805 Y48.6065 
G01 X-54.4553 Y48.6789 
G01 X-54.6126 Y48.7840 
G01 X-54.7464 Y48.9178 
G01 X-54.8515 Y49.0751 
G01 X-54.9239 Y49.2499 
G01 X-54.9608 Y49.4354 
G01 X-54.9608 Y49.6246 
G01 X-54.9239 Y49.8101 
G01 X-54.8515 Y49.9849 
G01 X-54.7464 Y50.1422 
G01 X-54.6126 Y50.2760 
G01 X-54.4553 Y50.3811 
G01 X-54.2805 Y50.4535 
G01 X-54.0950 Y50.4904 
G00 Z2.5400 
G00 X-54.0950 Y53.0304 
G01 Z-0.1778 F254.00 
G01 X-52.5850 Y53.0304 F508.00 
G01 X-52.3995 Y52.9935 
G01 X-52.2247 Y52.9211 
G01 X-52.0674 Y52.8160 
G01 X-51.9336 Y52.6822 
G01 X-51.8285 Y52.5249 
G01 X-51.7561 Y52.3501 
G01 X-51.7192 Y52.1646 
G01 X-51.7192 Y51.9754 
G01 X-51.7561 Y51.7899 
G01 X-51.8285 Y51.6151 
G01 X-51.9336 Y51.4578 
G01 X-52.0674 Y51.3240 
G01 X-52.2247 Y51.2189 
G01 X-52.3995 Y51.1465 
G01 X-52.5850 Y51.1096 
G01 X-54.0950 Y51.1096 
G01 X-54.2805 Y51.1465 
G01 X-54.4553 Y51.2189 
G01 X-54.6126 Y51.3240 
G01 X-54.7464 Y51.4578 
G01 X-54.8515 Y51.6151 
G01 X-54.9239 Y51.7899 
G01 X-54.9608 Y51.9754 
G01 X-54.9608 Y52.1646 
G01 X-54.9239 Y52.3501 
G01 X-54.8515 Y52.5249 
G01 X-54.7464 Y52.6822 
G01 X-54.6126 Y52.8160 
G01 X-54.4553 Y52.9211 
G01 X-54.2805 Y52.9935 
G01 X-54.0950 Y53.0304 
G00 Z2.5400 
G00 X-54.0950 Y55.5704 
G01 Z-0.1778 F254.00 
G01 X-52.5850 Y55.5704 F508.00 
G01 X-52.3995 Y55.5335 
G01 X-52.2247 Y55.4611 
G01 X-52.0674 Y55.3560 
G01 X-51.9336 Y55.2222 
G01 X-51.8285 Y55.0649 
G01 X-51.7730 Y54.9310 
G01 X-51.6829 Y54.9310 
G01 X-51.5514 Y54.9048 
G01 X-51.4274 Y54.8535 
G01 X-51.3159 Y54.7790 
G01 X-48.0659 Y51.5290 
G01 X-47.9710 Y51.4341 
G01 X-47.8965 Y51.3226 
G01 X-47.8452 Y51.1986 
G01 X-47.8190 Y51.0671 
G01 X-47.8190 Y33.9310 
G01 X-43.1829 Y33.9310 
G01 X-43.0514 Y33.9048 
G01 X-42.9274 Y33.8535 
G01 X-42.8159 Y33.7790 
G01 X-42.7179 Y33.6810 
G01 X-30.5321 Y33.6810 
G01 X-18.0290 Y46.1841 
G01 X-17.9341 Y46.2790 
G01 X-17.8226 Y46.3535 
G01 X-17.6986 Y46.4048 
G01 X-17.5671 Y46.4310 
G01 X-15.7821 Y46.4310 
G01 X-14.6810 Y47.5321 
G01 X-14.6810 Y52.5690 
G01 X-15.5036 Y52.5690 
G01 X-15.5434 Y52.5142 
G01 X-15.6881 Y52.3695 
G01 X-15.8537 Y52.2492 
G01 X-16.0360 Y52.1563 
G01 X-16.2306 Y52.0931 
G01 X-16.4327 Y52.0611 
G01 X-16.6373 Y52.0611 
G01 X-16.8394 Y52.0931 
G01 X-17.0340 Y52.1563 
G01 X-17.2163 Y52.2492 
G01 X-17.3819 Y52.3695 
G01 X-17.5266 Y52.5142 
G01 X-17.6469 Y52.6798 
G01 X-17.7398 Y52.8621 
G01 X-17.8030 Y53.0567 
G01 X-17.8350 Y53.2588 
G01 X-17.8350 Y53.4634 
G01 X-17.8030 Y53.6655 
G01 X-17.7398 Y53.8601 
G01 X-17.6469 Y54.0424 
G01 X-17.5266 Y54.2080 
G01 X-17.3819 Y54.3527 
G01 X-17.2163 Y54.4730 
G01 X-17.0340 Y54.5659 
G01 X-16.8394 Y54.6291 
G01 X-16.6373 Y54.6611 
G01 X-16.4327 Y54.6611 
G01 X-16.2306 Y54.6291 
G01 X-16.0360 Y54.5659 
G01 X-15.8537 Y54.4730 
G01 X-15.6881 Y54.3527 
G01 X-15.5434 Y54.2080 
G01 X-15.4231 Y54.0424 
G01 X-15.3664 Y53.9310 
G01 X-13.9329 Y53.9310 
G01 X-13.8014 Y53.9048 
G01 X-13.6774 Y53.8535 
G01 X-13.5659 Y53.7790 
G01 X-13.4710 Y53.6841 
G01 X-13.3965 Y53.5726 
G01 X-13.3452 Y53.4486 
G01 X-13.3190 Y53.3171 
G01 X-13.3190 Y47.1829 
G01 X-13.3452 Y47.0514 
G01 X-13.3965 Y46.9274 
G01 X-13.4710 Y46.8159 
G01 X-13.5659 Y46.7210 
G01 X-15.0659 Y45.2210 
G01 X-15.1774 Y45.1465 
G01 X-15.3014 Y45.0952 
G01 X-15.4329 Y45.0690 
G01 X-17.2179 Y45.0690 
G01 X-29.8159 Y32.4710 
G01 X-29.9274 Y32.3965 
G01 X-30.0514 Y32.3452 
G01 X-30.1829 Y32.3190 
G01 X-43.0671 Y32.3190 
G01 X-43.1986 Y32.3452 
G01 X-43.3226 Y32.3965 
G01 X-43.4341 Y32.4710 
G01 X-43.5290 Y32.5659 
G01 X-43.5321 Y32.5690 
G01 X-48.5671 Y32.5690 
G01 X-48.6986 Y32.5952 
G01 X-48.8226 Y32.6465 
G01 X-48.9341 Y32.7210 
G01 X-49.0290 Y32.8159 
G01 X-49.1035 Y32.9274 
G01 X-49.1548 Y33.0514 
G01 X-49.1810 Y33.1829 
G01 X-49.1810 Y50.7179 
G01 X-52.0321 Y53.5690 
G01 X-53.0671 Y53.5690 
G01 X-53.1986 Y53.5952 
G01 X-53.3226 Y53.6465 
G01 X-53.3272 Y53.6496 
G01 X-54.0950 Y53.6496 
G01 X-54.2805 Y53.6865 
G01 X-54.4553 Y53.7589 
G01 X-54.6126 Y53.8640 
G01 X-54.7464 Y53.9978 
G01 X-54.8515 Y54.1551 
G01 X-54.9239 Y54.3299 
G01 X-54.9608 Y54.5154 
G01 X-54.9608 Y54.7046 
G01 X-54.9239 Y54.8901 
G01 X-54.8515 Y55.0649 
G01 X-54.7464 Y55.2222 
G01 X-54.6126 Y55.3560 
G01 X-54.4553 Y55.4611 
G01 X-54.2805 Y55.5335 
G01 X-54.0950 Y55.5704 
G00 Z2.5400 
G00 X-54.0950 Y58.1104 
G01 Z-0.1778 F254.00 
G01 X-52.5850 Y58.1104 F508.00 
G01 X-52.3995 Y58.0735 
G01 X-52.2247 Y58.0011 
G01 X-52.0674 Y57.8960 
G01 X-51.9336 Y57.7622 
G01 X-51.8285 Y57.6049 
G01 X-51.7561 Y57.4301 
G01 X-51.7192 Y57.2446 
G01 X-51.7192 Y57.0554 
G01 X-51.7561 Y56.8699 
G01 X-51.8285 Y56.6951 
G01 X-51.9336 Y56.5378 
G01 X-52.0674 Y56.4040 
G01 X-52.2247 Y56.2989 
G01 X-52.3995 Y56.2265 
G01 X-52.5850 Y56.1896 
G01 X-54.0950 Y56.1896 
G01 X-54.2805 Y56.2265 
G01 X-54.4553 Y56.2989 
G01 X-54.6126 Y56.4040 
G01 X-54.7464 Y56.5378 
G01 X-54.8515 Y56.6951 
G01 X-54.9239 Y56.8699 
G01 X-54.9608 Y57.0554 
G01 X-54.9608 Y57.2446 
G01 X-54.9239 Y57.4301 
G01 X-54.8515 Y57.6049 
G01 X-54.7464 Y57.7622 
G01 X-54.6126 Y57.8960 
G01 X-54.4553 Y58.0011 
G01 X-54.2805 Y58.0735 
G01 X-54.0950 Y58.1104 
G00 Z2.5400 
G00 X-44.3046 Y80.3196 
G01 Z-0.1778 F254.00 
G01 X-45.8146 Y80.3196 F508.00 
G01 X-46.0001 Y80.3565 
G01 X-46.1749 Y80.4289 
G01 X-46.3322 Y80.5340 
G01 X-46.4660 Y80.6678 
G01 X-46.5711 Y80.8251 
G01 X-46.6435 Y80.9999 
G01 X-46.6804 Y81.1854 
G01 X-46.6804 Y81.3746 
G01 X-46.6435 Y81.5601 
G01 X-46.5711 Y81.7349 
G01 X-46.4660 Y81.8922 
G01 X-46.3322 Y82.0260 
G01 X-46.1749 Y82.1311 
G01 X-46.0001 Y82.2035 
G01 X-45.8146 Y82.2404 
G01 X-44.3046 Y82.2404 
G01 X-44.1191 Y82.2035 
G01 X-43.9443 Y82.1311 
G01 X-43.7870 Y82.0260 
G01 X-43.6532 Y81.8922 
G01 X-43.5481 Y81.7349 
G01 X-43.4757 Y81.5601 
G01 X-43.4388 Y81.3746 
G01 X-43.4388 Y81.1854 
G01 X-43.4757 Y80.9999 
G01 X-43.5481 Y80.8251 
G01 X-43.6532 Y80.6678 
G01 X-43.7870 Y80.5340 
G01 X-43.9443 Y80.4289 
G01 X-44.1191 Y80.3565 
G01 X-44.3046 Y80.3196 
G00 Z2.5400 
G00 X-44.3046 Y65.0796 
G01 Z-0.1778 F254.00 
G01 X-45.8146 Y65.0796 F508.00 
G01 X-46.0001 Y65.1165 
G01 X-46.1749 Y65.1889 
G01 X-46.3322 Y65.2940 
G01 X-46.4660 Y65.4278 
G01 X-46.5711 Y65.5851 
G01 X-46.6435 Y65.7599 
G01 X-46.6804 Y65.9454 
G01 X-46.6804 Y66.1346 
G01 X-46.6435 Y66.3201 
G01 X-46.5711 Y66.4949 
G01 X-46.4660 Y66.6522 
G01 X-46.3322 Y66.7860 
G01 X-46.1749 Y66.8911 
G01 X-46.0001 Y66.9635 
G01 X-45.8146 Y67.0004 
G01 X-44.3046 Y67.0004 
G01 X-44.1191 Y66.9635 
G01 X-43.9443 Y66.8911 
G01 X-43.7870 Y66.7860 
G01 X-43.6532 Y66.6522 
G01 X-43.5481 Y66.4949 
G01 X-43.4757 Y66.3201 
G01 X-43.4388 Y66.1346 
G01 X-43.4388 Y65.9454 
G01 X-43.4757 Y65.7599 
G01 X-43.5481 Y65.5851 
G01 X-43.6532 Y65.4278 
G01 X-43.7870 Y65.2940 
G01 X-43.9443 Y65.1889 
G01 X-44.1191 Y65.1165 
G01 X-44.3046 Y65.0796 
G00 Z2.5400 
G00 X-44.3046 Y62.5396 
G01 Z-0.1778 F254.00 
G01 X-45.8146 Y62.5396 F508.00 
G01 X-46.0001 Y62.5765 
G01 X-46.1749 Y62.6489 
G01 X-46.3322 Y62.7540 
G01 X-46.4660 Y62.8878 
G01 X-46.5711 Y63.0451 
G01 X-46.6435 Y63.2199 
G01 X-46.6804 Y63.4054 
G01 X-46.6804 Y63.5946 
G01 X-46.6435 Y63.7801 
G01 X-46.5711 Y63.9549 
G01 X-46.4660 Y64.1122 
G01 X-46.3322 Y64.2460 
G01 X-46.1749 Y64.3511 
G01 X-46.0001 Y64.4235 
G01 X-45.8146 Y64.4604 
G01 X-44.3046 Y64.4604 
G01 X-44.1191 Y64.4235 
G01 X-43.9443 Y64.3511 
G01 X-43.7870 Y64.2460 
G01 X-43.7220 Y64.1810 
G01 X-17.6578 Y64.1810 
G01 X-17.6469 Y64.2024 
G01 X-17.5266 Y64.3680 
G01 X-17.3819 Y64.5127 
G01 X-17.2163 Y64.6330 
G01 X-17.0340 Y64.7259 
G01 X-16.8394 Y64.7891 
G01 X-16.6373 Y64.8211 
G01 X-16.4327 Y64.8211 
G01 X-16.2306 Y64.7891 
G01 X-16.0360 Y64.7259 
G01 X-15.8537 Y64.6330 
G01 X-15.6881 Y64.5127 
G01 X-15.5434 Y64.3680 
G01 X-15.4231 Y64.2024 
G01 X-15.3302 Y64.0201 
G01 X-15.2670 Y63.8255 
G01 X-15.2350 Y63.6234 
G01 X-15.2350 Y63.4188 
G01 X-15.2670 Y63.2167 
G01 X-15.3302 Y63.0221 
G01 X-15.4231 Y62.8398 
G01 X-15.5434 Y62.6742 
G01 X-15.6881 Y62.5295 
G01 X-15.8537 Y62.4092 
G01 X-16.0360 Y62.3163 
G01 X-16.2306 Y62.2531 
G01 X-16.4327 Y62.2211 
G01 X-16.6373 Y62.2211 
G01 X-16.8394 Y62.2531 
G01 X-17.0340 Y62.3163 
G01 X-17.2163 Y62.4092 
G01 X-17.3819 Y62.5295 
G01 X-17.5266 Y62.6742 
G01 X-17.6318 Y62.8190 
G01 X-43.7220 Y62.8190 
G01 X-43.7870 Y62.7540 
G01 X-43.9443 Y62.6489 
G01 X-44.1191 Y62.5765 
G01 X-44.3046 Y62.5396 
G00 Z2.5400 
G00 X-44.3046 Y75.2396 
G01 Z-0.1778 F254.00 
G01 X-45.8146 Y75.2396 F508.00 
G01 X-46.0001 Y75.2765 
G01 X-46.1749 Y75.3489 
G01 X-46.3322 Y75.4540 
G01 X-46.4660 Y75.5878 
G01 X-46.5711 Y75.7451 
G01 X-46.6435 Y75.9199 
G01 X-46.6804 Y76.1054 
G01 X-46.6804 Y76.2946 
G01 X-46.6435 Y76.4801 
G01 X-46.5711 Y76.6549 
G01 X-46.4660 Y76.8122 
G01 X-46.3322 Y76.9460 
G01 X-46.1749 Y77.0511 
G01 X-46.0001 Y77.1235 
G01 X-45.8146 Y77.1604 
G01 X-44.3046 Y77.1604 
G01 X-44.1191 Y77.1235 
G01 X-43.9443 Y77.0511 
G01 X-43.7870 Y76.9460 
G01 X-43.6532 Y76.8122 
G01 X-43.5481 Y76.6549 
G01 X-43.4757 Y76.4801 
G01 X-43.4388 Y76.2946 
G01 X-43.4388 Y76.1054 
G01 X-43.4757 Y75.9199 
G01 X-43.5481 Y75.7451 
G01 X-43.6532 Y75.5878 
G01 X-43.7870 Y75.4540 
G01 X-43.9443 Y75.3489 
G01 X-44.1191 Y75.2765 
G01 X-44.3046 Y75.2396 
G00 Z2.5400 
G00 X-44.3046 Y70.1596 
G01 Z-0.1778 F254.00 
G01 X-45.8146 Y70.1596 F508.00 
G01 X-46.0001 Y70.1965 
G01 X-46.1749 Y70.2689 
G01 X-46.3322 Y70.3740 
G01 X-46.4660 Y70.5078 
G01 X-46.5711 Y70.6651 
G01 X-46.6435 Y70.8399 
G01 X-46.6804 Y71.0254 
G01 X-46.6804 Y71.2146 
G01 X-46.6435 Y71.4001 
G01 X-46.5711 Y71.5749 
G01 X-46.4660 Y71.7322 
G01 X-46.3322 Y71.8660 
G01 X-46.1749 Y71.9711 
G01 X-46.0001 Y72.0435 
G01 X-45.8146 Y72.0804 
G01 X-44.3046 Y72.0804 
G01 X-44.1191 Y72.0435 
G01 X-43.9443 Y71.9711 
G01 X-43.7870 Y71.8660 
G01 X-43.6532 Y71.7322 
G01 X-43.5481 Y71.5749 
G01 X-43.4757 Y71.4001 
G01 X-43.4388 Y71.2146 
G01 X-43.4388 Y71.0254 
G01 X-43.4757 Y70.8399 
G01 X-43.5481 Y70.6651 
G01 X-43.6532 Y70.5078 
G01 X-43.7870 Y70.3740 
G01 X-43.9443 Y70.2689 
G01 X-44.1191 Y70.1965 
G01 X-44.3046 Y70.1596 
G00 Z2.5400 
G00 X-54.7554 Y64.4604 
G01 Z-0.1778 F254.00 
G01 X-53.2454 Y64.4604 F508.00 
G01 X-53.0599 Y64.4235 
G01 X-52.8851 Y64.3511 
G01 X-52.7278 Y64.2460 
G01 X-52.5940 Y64.1122 
G01 X-52.4889 Y63.9549 
G01 X-52.4165 Y63.7801 
G01 X-52.3796 Y63.5946 
G01 X-52.3796 Y63.4054 
G01 X-52.4165 Y63.2199 
G01 X-52.4889 Y63.0451 
G01 X-52.5940 Y62.8878 
G01 X-52.7278 Y62.7540 
G01 X-52.8851 Y62.6489 
G01 X-53.0599 Y62.5765 
G01 X-53.2454 Y62.5396 
G01 X-54.7554 Y62.5396 
G01 X-54.9409 Y62.5765 
G01 X-55.1157 Y62.6489 
G01 X-55.2730 Y62.7540 
G01 X-55.4068 Y62.8878 
G01 X-55.5119 Y63.0451 
G01 X-55.5843 Y63.2199 
G01 X-55.6212 Y63.4054 
G01 X-55.6212 Y63.5946 
G01 X-55.5843 Y63.7801 
G01 X-55.5119 Y63.9549 
G01 X-55.4068 Y64.1122 
G01 X-55.2730 Y64.2460 
G01 X-55.1157 Y64.3511 
G01 X-54.9409 Y64.4235 
G01 X-54.7554 Y64.4604 
G00 Z2.5400 
G00 X-53.2454 Y67.0004 
G01 Z-0.1778 F254.00 
G01 X-53.0599 Y66.9635 F508.00 
G01 X-52.8851 Y66.8911 
G01 X-52.7278 Y66.7860 
G01 X-52.5940 Y66.6522 
G01 X-52.4889 Y66.4949 
G01 X-52.4165 Y66.3201 
G01 X-52.3796 Y66.1346 
G01 X-52.3796 Y65.9454 
G01 X-52.4165 Y65.7599 
G01 X-52.4889 Y65.5851 
G01 X-52.5940 Y65.4278 
G01 X-52.7278 Y65.2940 
G01 X-52.8851 Y65.1889 
G01 X-53.0599 Y65.1165 
G01 X-53.2454 Y65.0796 
G01 X-54.7554 Y65.0796 
G01 X-54.9409 Y65.1165 
G01 X-55.1157 Y65.1889 
G01 X-55.2730 Y65.2940 
G01 X-55.4068 Y65.4278 
G01 X-55.5119 Y65.5851 
G01 X-55.5843 Y65.7599 
G01 X-55.5972 Y65.8250 
G01 X-55.6986 Y65.8452 
G01 X-55.8226 Y65.8965 
G01 X-55.9341 Y65.9710 
G01 X-63.4238 Y73.4607 
G01 X-63.4857 Y73.4731 
G01 X-63.6327 Y73.5340 
G01 X-63.7651 Y73.6224 
G01 X-63.8776 Y73.7349 
G01 X-63.9660 Y73.8673 
G01 X-64.0269 Y74.0143 
G01 X-64.0580 Y74.1704 
G01 X-64.0580 Y74.3296 
G01 X-64.0269 Y74.4857 
G01 X-63.9660 Y74.6327 
G01 X-63.8776 Y74.7651 
G01 X-63.7651 Y74.8776 
G01 X-63.6327 Y74.9660 
G01 X-63.4857 Y75.0269 
G01 X-63.3296 Y75.0580 
G01 X-63.1704 Y75.0580 
G01 X-63.0143 Y75.0269 
G01 X-62.8673 Y74.9660 
G01 X-62.7349 Y74.8776 
G01 X-62.6224 Y74.7651 
G01 X-62.5340 Y74.6327 
G01 X-62.4731 Y74.4857 
G01 X-62.4607 Y74.4238 
G01 X-55.2179 Y67.1810 
G01 X-53.6829 Y67.1810 
G01 X-53.5514 Y67.1548 
G01 X-53.4274 Y67.1035 
G01 X-53.3159 Y67.0290 
G01 X-53.2873 Y67.0004 
G01 X-53.2454 Y67.0004 
G00 Z2.5400 
G00 X-54.7554 Y69.5404 
G01 Z-0.1778 F254.00 
G01 X-53.2454 Y69.5404 F508.00 
G01 X-53.0599 Y69.5035 
G01 X-52.8851 Y69.4311 
G01 X-52.7278 Y69.3260 
G01 X-52.5940 Y69.1922 
G01 X-52.4889 Y69.0349 
G01 X-52.4165 Y68.8601 
G01 X-52.3796 Y68.6746 
G01 X-52.3796 Y68.4854 
G01 X-52.4165 Y68.2999 
G01 X-52.4889 Y68.1251 
G01 X-52.5940 Y67.9678 
G01 X-52.7278 Y67.8340 
G01 X-52.8851 Y67.7289 
G01 X-53.0599 Y67.6565 
G01 X-53.2454 Y67.6196 
G01 X-54.7554 Y67.6196 
G01 X-54.9409 Y67.6565 
G01 X-55.1157 Y67.7289 
G01 X-55.2730 Y67.8340 
G01 X-55.4068 Y67.9678 
G01 X-55.5119 Y68.1251 
G01 X-55.5843 Y68.2999 
G01 X-55.6212 Y68.4854 
G01 X-55.6212 Y68.6746 
G01 X-55.5843 Y68.8601 
G01 X-55.5119 Y69.0349 
G01 X-55.4068 Y69.1922 
G01 X-55.2730 Y69.3260 
G01 X-55.1157 Y69.4311 
G01 X-54.9409 Y69.5035 
G01 X-54.7554 Y69.5404 
G00 Z2.5400 
G00 X-54.7554 Y72.0804 
G01 Z-0.1778 F254.00 
G01 X-53.2454 Y72.0804 F508.00 
G01 X-53.0599 Y72.0435 
G01 X-52.8851 Y71.9711 
G01 X-52.7278 Y71.8660 
G01 X-52.5940 Y71.7322 
G01 X-52.4889 Y71.5749 
G01 X-52.4165 Y71.4001 
G01 X-52.3796 Y71.2146 
G01 X-52.3796 Y71.0254 
G01 X-52.4165 Y70.8399 
G01 X-52.4889 Y70.6651 
G01 X-52.5940 Y70.5078 
G01 X-52.7278 Y70.3740 
G01 X-52.8851 Y70.2689 
G01 X-53.0599 Y70.1965 
G01 X-53.2454 Y70.1596 
G01 X-54.7554 Y70.1596 
G01 X-54.9409 Y70.1965 
G01 X-55.1157 Y70.2689 
G01 X-55.2730 Y70.3740 
G01 X-55.4068 Y70.5078 
G01 X-55.5119 Y70.6651 
G01 X-55.5843 Y70.8399 
G01 X-55.6212 Y71.0254 
G01 X-55.6212 Y71.2146 
G01 X-55.5843 Y71.4001 
G01 X-55.5119 Y71.5749 
G01 X-55.4068 Y71.7322 
G01 X-55.2730 Y71.8660 
G01 X-55.1157 Y71.9711 
G01 X-54.9409 Y72.0435 
G01 X-54.7554 Y72.0804 
G00 Z2.5400 
G00 X-54.7554 Y74.6204 
G01 Z-0.1778 F254.00 
G01 X-53.2454 Y74.6204 F508.00 
G01 X-53.0599 Y74.5835 
G01 X-52.8851 Y74.5111 
G01 X-52.7278 Y74.4060 
G01 X-52.5940 Y74.2722 
G01 X-52.4889 Y74.1149 
G01 X-52.4165 Y73.9401 
G01 X-52.3796 Y73.7546 
G01 X-52.3796 Y73.5654 
G01 X-52.4165 Y73.3799 
G01 X-52.4889 Y73.2051 
G01 X-52.5940 Y73.0478 
G01 X-52.7278 Y72.9140 
G01 X-52.8851 Y72.8089 
G01 X-53.0599 Y72.7365 
G01 X-53.2454 Y72.6996 
G01 X-54.7554 Y72.6996 
G01 X-54.9409 Y72.7365 
G01 X-55.1157 Y72.8089 
G01 X-55.2730 Y72.9140 
G01 X-55.4068 Y73.0478 
G01 X-55.5119 Y73.2051 
G01 X-55.5843 Y73.3799 
G01 X-55.6212 Y73.5654 
G01 X-55.6212 Y73.7546 
G01 X-55.5843 Y73.9401 
G01 X-55.5119 Y74.1149 
G01 X-55.4068 Y74.2722 
G01 X-55.2730 Y74.4060 
G01 X-55.1157 Y74.5111 
G01 X-54.9409 Y74.5835 
G01 X-54.7554 Y74.6204 
G00 Z2.5400 
G00 X-54.7554 Y79.7004 
G01 Z-0.1778 F254.00 
G01 X-53.2454 Y79.7004 F508.00 
G01 X-53.0599 Y79.6635 
G01 X-52.8851 Y79.5911 
G01 X-52.7278 Y79.4860 
G01 X-52.5940 Y79.3522 
G01 X-52.4889 Y79.1949 
G01 X-52.4165 Y79.0201 
G01 X-52.3796 Y78.8346 
G01 X-52.3796 Y78.6454 
G01 X-52.4165 Y78.4599 
G01 X-52.4889 Y78.2851 
G01 X-52.5940 Y78.1278 
G01 X-52.7278 Y77.9940 
G01 X-52.8851 Y77.8889 
G01 X-53.0599 Y77.8165 
G01 X-53.2454 Y77.7796 
G01 X-54.7554 Y77.7796 
G01 X-54.9409 Y77.8165 
G01 X-55.1157 Y77.8889 
G01 X-55.2730 Y77.9940 
G01 X-55.4068 Y78.1278 
G01 X-55.5119 Y78.2851 
G01 X-55.5843 Y78.4599 
G01 X-55.6212 Y78.6454 
G01 X-55.6212 Y78.8346 
G01 X-55.5843 Y79.0201 
G01 X-55.5119 Y79.1949 
G01 X-55.4068 Y79.3522 
G01 X-55.2730 Y79.4860 
G01 X-55.1157 Y79.5911 
G01 X-54.9409 Y79.6635 
G01 X-54.7554 Y79.7004 
G00 Z2.5400 
G00 X-54.7554 Y82.2404 
G01 Z-0.1778 F254.00 
G01 X-53.2454 Y82.2404 F508.00 
G01 X-53.0599 Y82.2035 
G01 X-52.8851 Y82.1311 
G01 X-52.7278 Y82.0260 
G01 X-52.5940 Y81.8922 
G01 X-52.4889 Y81.7349 
G01 X-52.4165 Y81.5601 
G01 X-52.3796 Y81.3746 
G01 X-52.3796 Y81.1854 
G01 X-52.4165 Y80.9999 
G01 X-52.4889 Y80.8251 
G01 X-52.5940 Y80.6678 
G01 X-52.7278 Y80.5340 
G01 X-52.8851 Y80.4289 
G01 X-53.0599 Y80.3565 
G01 X-53.2454 Y80.3196 
G01 X-54.7554 Y80.3196 
G01 X-54.9409 Y80.3565 
G01 X-55.1157 Y80.4289 
G01 X-55.2730 Y80.5340 
G01 X-55.4068 Y80.6678 
G01 X-55.5078 Y80.8190 
G01 X-76.0648 Y80.8190 
G01 X-76.1173 Y80.7840 
G01 X-76.2643 Y80.7231 
G01 X-76.4204 Y80.6920 
G01 X-76.5796 Y80.6920 
G01 X-76.7357 Y80.7231 
G01 X-76.8827 Y80.7840 
G01 X-77.0151 Y80.8724 
G01 X-77.1276 Y80.9849 
G01 X-77.2160 Y81.1173 
G01 X-77.2769 Y81.2643 
G01 X-77.3080 Y81.4204 
G01 X-77.3080 Y81.5796 
G01 X-77.2769 Y81.7357 
G01 X-77.2160 Y81.8827 
G01 X-77.1276 Y82.0151 
G01 X-77.0151 Y82.1276 
G01 X-76.8827 Y82.2160 
G01 X-76.7357 Y82.2769 
G01 X-76.5796 Y82.3080 
G01 X-76.4204 Y82.3080 
G01 X-76.2643 Y82.2769 
G01 X-76.1173 Y82.2160 
G01 X-76.0648 Y82.1810 
G01 X-54.9952 Y82.1810 
G01 X-54.9409 Y82.2035 
G01 X-54.7554 Y82.2404 
G00 Z2.5400 
G00 X-17.8350 Y93.8988 
G01 Z-0.1778 F254.00 
G01 X-17.8350 Y94.1034 F508.00 
G01 X-17.8030 Y94.3055 
G01 X-17.7398 Y94.5001 
G01 X-17.6469 Y94.6824 
G01 X-17.5266 Y94.8480 
G01 X-17.3819 Y94.9927 
G01 X-17.2163 Y95.1130 
G01 X-17.0340 Y95.2059 
G01 X-16.8394 Y95.2691 
G01 X-16.6373 Y95.3011 
G01 X-16.4327 Y95.3011 
G01 X-16.2306 Y95.2691 
G01 X-16.0360 Y95.2059 
G01 X-15.8537 Y95.1130 
G01 X-15.6881 Y94.9927 
G01 X-15.5434 Y94.8480 
G01 X-15.4231 Y94.6824 
G01 X-15.3302 Y94.5001 
G01 X-15.2670 Y94.3055 
G01 X-15.2350 Y94.1034 
G01 X-15.2350 Y93.8988 
G01 X-15.2670 Y93.6967 
G01 X-15.3302 Y93.5021 
G01 X-15.4231 Y93.3197 
G01 X-15.5434 Y93.1542 
G01 X-15.6881 Y93.0095 
G01 X-15.8537 Y92.8892 
G01 X-16.0360 Y92.7963 
G01 X-16.2306 Y92.7331 
G01 X-16.4327 Y92.7011 
G01 X-16.6373 Y92.7011 
G01 X-16.8394 Y92.7331 
G01 X-17.0340 Y92.7963 
G01 X-17.2163 Y92.8892 
G01 X-17.3819 Y93.0095 
G01 X-17.5266 Y93.1542 
G01 X-17.6469 Y93.3197 
G01 X-17.7398 Y93.5021 
G01 X-17.8030 Y93.6967 
G01 X-17.8350 Y93.8988 
G00 Z2.5400 
G00 X-17.5266 Y89.7680 
G01 Z-0.1778 F254.00 
G01 X-17.3819 Y89.9127 F508.00 
G01 X-17.2163 Y90.0330 
G01 X-17.0340 Y90.1259 
G01 X-16.8394 Y90.1891 
G01 X-16.6373 Y90.2211 
G01 X-16.4327 Y90.2211 
G01 X-16.2306 Y90.1891 
G01 X-16.0360 Y90.1259 
G01 X-15.8537 Y90.0330 
G01 X-15.6881 Y89.9127 
G01 X-15.5434 Y89.7680 
G01 X-15.4231 Y89.6024 
G01 X-15.3302 Y89.4201 
G01 X-15.2670 Y89.2255 
G01 X-15.2350 Y89.0234 
G01 X-15.2350 Y88.8188 
G01 X-15.2670 Y88.6167 
G01 X-15.3302 Y88.4221 
G01 X-15.4231 Y88.2398 
G01 X-15.5434 Y88.0742 
G01 X-15.6881 Y87.9295 
G01 X-15.8537 Y87.8092 
G01 X-16.0360 Y87.7163 
G01 X-16.2306 Y87.6531 
G01 X-16.4327 Y87.6211 
G01 X-16.6373 Y87.6211 
G01 X-16.8394 Y87.6531 
G01 X-17.0340 Y87.7163 
G01 X-17.2163 Y87.8092 
G01 X-17.3819 Y87.9295 
G01 X-17.5266 Y88.0742 
G01 X-17.6469 Y88.2398 
G01 X-17.6872 Y88.3190 
G01 X-26.8171 Y88.3190 
G01 X-26.9486 Y88.3452 
G01 X-27.0726 Y88.3965 
G01 X-27.1841 Y88.4710 
G01 X-27.2790 Y88.5659 
G01 X-29.8531 Y91.1400 
G01 X-31.1303 Y91.1400 
G01 X-32.0500 Y92.0597 
G01 X-32.0500 Y93.3603 
G01 X-31.1303 Y94.2800 
G01 X-29.8297 Y94.2800 
G01 X-28.9100 Y93.3603 
G01 X-28.9100 Y92.1231 
G01 X-26.4679 Y89.6810 
G01 X-17.5898 Y89.6810 
G01 X-17.5266 Y89.7680 
G00 Z2.5400 
G00 X-17.8350 Y83.7388 
G01 Z-0.1778 F254.00 
G01 X-17.8350 Y83.9434 F508.00 
G01 X-17.8030 Y84.1455 
G01 X-17.7398 Y84.3401 
G01 X-17.6469 Y84.5224 
G01 X-17.5266 Y84.6880 
G01 X-17.3819 Y84.8327 
G01 X-17.2163 Y84.9530 
G01 X-17.0340 Y85.0459 
G01 X-16.8394 Y85.1091 
G01 X-16.6373 Y85.1411 
G01 X-16.4327 Y85.1411 
G01 X-16.2306 Y85.1091 
G01 X-16.0360 Y85.0459 
G01 X-15.8537 Y84.9530 
G01 X-15.6881 Y84.8327 
G01 X-15.5434 Y84.6880 
G01 X-15.4231 Y84.5224 
G01 X-15.3302 Y84.3401 
G01 X-15.2670 Y84.1455 
G01 X-15.2350 Y83.9434 
G01 X-15.2350 Y83.7388 
G01 X-15.2670 Y83.5367 
G01 X-15.3302 Y83.3421 
G01 X-15.4231 Y83.1598 
G01 X-15.5434 Y82.9942 
G01 X-15.6881 Y82.8495 
G01 X-15.8537 Y82.7292 
G01 X-16.0360 Y82.6363 
G01 X-16.2306 Y82.5731 
G01 X-16.4327 Y82.5411 
G01 X-16.6373 Y82.5411 
G01 X-16.8394 Y82.5731 
G01 X-17.0340 Y82.6363 
G01 X-17.2163 Y82.7292 
G01 X-17.3819 Y82.8495 
G01 X-17.5266 Y82.9942 
G01 X-17.6469 Y83.1598 
G01 X-17.7398 Y83.3421 
G01 X-17.8030 Y83.5367 
G01 X-17.8350 Y83.7388 
G00 Z2.5400 
G00 X-17.6469 Y79.4424 
G01 Z-0.1778 F254.00 
G01 X-17.5266 Y79.6080 F508.00 
G01 X-17.3819 Y79.7527 
G01 X-17.2163 Y79.8730 
G01 X-17.0340 Y79.9659 
G01 X-16.8394 Y80.0291 
G01 X-16.6373 Y80.0611 
G01 X-16.4327 Y80.0611 
G01 X-16.2306 Y80.0291 
G01 X-16.0360 Y79.9659 
G01 X-15.8537 Y79.8730 
G01 X-15.6881 Y79.7527 
G01 X-15.5434 Y79.6080 
G01 X-15.4231 Y79.4424 
G01 X-15.3302 Y79.2601 
G01 X-15.2670 Y79.0655 
G01 X-15.2350 Y78.8634 
G01 X-15.2350 Y78.6588 
G01 X-15.2670 Y78.4567 
G01 X-15.3302 Y78.2621 
G01 X-15.4231 Y78.0798 
G01 X-15.5434 Y77.9142 
G01 X-15.6881 Y77.7695 
G01 X-15.8537 Y77.6492 
G01 X-16.0360 Y77.5563 
G01 X-16.2306 Y77.4931 
G01 X-16.4327 Y77.4611 
G01 X-16.6373 Y77.4611 
G01 X-16.8394 Y77.4931 
G01 X-17.0340 Y77.5563 
G01 X-17.2163 Y77.6492 
G01 X-17.3819 Y77.7695 
G01 X-17.5266 Y77.9142 
G01 X-17.6390 Y78.0690 
G01 X-43.7120 Y78.0690 
G01 X-43.7870 Y77.9940 
G01 X-43.9443 Y77.8889 
G01 X-44.1191 Y77.8165 
G01 X-44.3046 Y77.7796 
G01 X-45.8146 Y77.7796 
G01 X-46.0001 Y77.8165 
G01 X-46.1749 Y77.8889 
G01 X-46.3322 Y77.9940 
G01 X-46.4660 Y78.1278 
G01 X-46.5711 Y78.2851 
G01 X-46.6435 Y78.4599 
G01 X-46.6804 Y78.6454 
G01 X-46.6804 Y78.8346 
G01 X-46.6435 Y79.0201 
G01 X-46.5711 Y79.1949 
G01 X-46.4660 Y79.3522 
G01 X-46.3322 Y79.4860 
G01 X-46.1749 Y79.5911 
G01 X-46.0001 Y79.6635 
G01 X-45.8146 Y79.7004 
G01 X-44.3046 Y79.7004 
G01 X-44.1191 Y79.6635 
G01 X-43.9443 Y79.5911 
G01 X-43.7870 Y79.4860 
G01 X-43.7320 Y79.4310 
G01 X-17.6527 Y79.4310 
G01 X-17.6469 Y79.4424 
G00 Z2.5400 
G00 X-17.5266 Y74.5280 
G01 Z-0.1778 F254.00 
G01 X-17.3819 Y74.6727 F508.00 
G01 X-17.2163 Y74.7930 
G01 X-17.0340 Y74.8859 
G01 X-16.8394 Y74.9491 
G01 X-16.6373 Y74.9811 
G01 X-16.4327 Y74.9811 
G01 X-16.2306 Y74.9491 
G01 X-16.0360 Y74.8859 
G01 X-15.8537 Y74.7930 
G01 X-15.6881 Y74.6727 
G01 X-15.5434 Y74.5280 
G01 X-15.4231 Y74.3624 
G01 X-15.3302 Y74.1801 
G01 X-15.2670 Y73.9855 
G01 X-15.2350 Y73.7834 
G01 X-15.2350 Y73.5788 
G01 X-15.2670 Y73.3767 
G01 X-15.3302 Y73.1821 
G01 X-15.4231 Y72.9998 
G01 X-15.5434 Y72.8342 
G01 X-15.6881 Y72.6895 
G01 X-15.8537 Y72.5692 
G01 X-16.0360 Y72.4763 
G01 X-16.2306 Y72.4131 
G01 X-16.4327 Y72.3811 
G01 X-16.6373 Y72.3811 
G01 X-16.8394 Y72.4131 
G01 X-17.0340 Y72.4763 
G01 X-17.2163 Y72.5692 
G01 X-17.3819 Y72.6895 
G01 X-17.5266 Y72.8342 
G01 X-17.6469 Y72.9998 
G01 X-17.6821 Y73.0690 
G01 X-43.6390 Y73.0690 
G01 X-43.6532 Y73.0478 
G01 X-43.7870 Y72.9140 
G01 X-43.9443 Y72.8089 
G01 X-44.1191 Y72.7365 
G01 X-44.3046 Y72.6996 
G01 X-45.8146 Y72.6996 
G01 X-46.0001 Y72.7365 
G01 X-46.1749 Y72.8089 
G01 X-46.3322 Y72.9140 
G01 X-46.4660 Y73.0478 
G01 X-46.5711 Y73.2051 
G01 X-46.6435 Y73.3799 
G01 X-46.6804 Y73.5654 
G01 X-46.6804 Y73.7546 
G01 X-46.6435 Y73.9401 
G01 X-46.5711 Y74.1149 
G01 X-46.4660 Y74.2722 
G01 X-46.3322 Y74.4060 
G01 X-46.1749 Y74.5111 
G01 X-46.0001 Y74.5835 
G01 X-45.8146 Y74.6204 
G01 X-44.3046 Y74.6204 
G01 X-44.1191 Y74.5835 
G01 X-43.9443 Y74.5111 
G01 X-43.8244 Y74.4310 
G01 X-17.5970 Y74.4310 
G01 X-17.5266 Y74.5280 
G00 Z2.5400 
G00 X-17.5266 Y69.4480 
G01 Z-0.1778 F254.00 
G01 X-17.3819 Y69.5927 F508.00 
G01 X-17.2163 Y69.7130 
G01 X-17.0340 Y69.8059 
G01 X-16.8394 Y69.8691 
G01 X-16.6373 Y69.9011 
G01 X-16.4327 Y69.9011 
G01 X-16.2306 Y69.8691 
G01 X-16.0360 Y69.8059 
G01 X-15.8537 Y69.7130 
G01 X-15.6881 Y69.5927 
G01 X-15.5434 Y69.4480 
G01 X-15.4231 Y69.2824 
G01 X-15.3302 Y69.1001 
G01 X-15.2670 Y68.9055 
G01 X-15.2350 Y68.7034 
G01 X-15.2350 Y68.4988 
G01 X-15.2670 Y68.2967 
G01 X-15.3302 Y68.1021 
G01 X-15.4231 Y67.9198 
G01 X-15.5434 Y67.7542 
G01 X-15.6881 Y67.6095 
G01 X-15.8537 Y67.4892 
G01 X-16.0360 Y67.3963 
G01 X-16.2306 Y67.3331 
G01 X-16.4327 Y67.3011 
G01 X-16.6373 Y67.3011 
G01 X-16.8394 Y67.3331 
G01 X-17.0340 Y67.3963 
G01 X-17.2163 Y67.4892 
G01 X-17.3819 Y67.6095 
G01 X-17.5266 Y67.7542 
G01 X-17.6469 Y67.9198 
G01 X-17.7229 Y68.0690 
G01 X-43.5856 Y68.0690 
G01 X-43.6532 Y67.9678 
G01 X-43.7870 Y67.8340 
G01 X-43.9443 Y67.7289 
G01 X-44.1191 Y67.6565 
G01 X-44.3046 Y67.6196 
G01 X-45.8146 Y67.6196 
G01 X-46.0001 Y67.6565 
G01 X-46.1749 Y67.7289 
G01 X-46.3322 Y67.8340 
G01 X-46.4660 Y67.9678 
G01 X-46.5711 Y68.1251 
G01 X-46.6435 Y68.2999 
G01 X-46.6804 Y68.4854 
G01 X-46.6804 Y68.6746 
G01 X-46.6435 Y68.8601 
G01 X-46.5711 Y69.0349 
G01 X-46.4660 Y69.1922 
G01 X-46.3322 Y69.3260 
G01 X-46.1749 Y69.4311 
G01 X-46.0001 Y69.5035 
G01 X-45.8146 Y69.5404 
G01 X-44.3046 Y69.5404 
G01 X-44.1191 Y69.5035 
G01 X-43.9443 Y69.4311 
G01 X-17.5389 Y69.4310 
G01 X-17.5266 Y69.4480 
G00 Z2.5400 
G00 X-17.8350 Y58.3388 
G01 Z-0.1778 F254.00 
G01 X-17.8350 Y58.5434 F508.00 
G01 X-17.8030 Y58.7455 
G01 X-17.7398 Y58.9401 
G01 X-17.6469 Y59.1224 
G01 X-17.5266 Y59.2880 
G01 X-17.3819 Y59.4327 
G01 X-17.2163 Y59.5530 
G01 X-17.0340 Y59.6459 
G01 X-16.8394 Y59.7091 
G01 X-16.6373 Y59.7411 
G01 X-16.4327 Y59.7411 
G01 X-16.2306 Y59.7091 
G01 X-16.0360 Y59.6459 
G01 X-15.8537 Y59.5530 
G01 X-15.6881 Y59.4327 
G01 X-15.5434 Y59.2880 
G01 X-15.4231 Y59.1224 
G01 X-15.3302 Y58.9401 
G01 X-15.2670 Y58.7455 
G01 X-15.2350 Y58.5434 
G01 X-15.2350 Y58.3388 
G01 X-15.2670 Y58.1367 
G01 X-15.3302 Y57.9421 
G01 X-15.4231 Y57.7598 
G01 X-15.5434 Y57.5942 
G01 X-15.6881 Y57.4495 
G01 X-15.8537 Y57.3292 
G01 X-16.0360 Y57.2363 
G01 X-16.2306 Y57.1731 
G01 X-16.4327 Y57.1411 
G01 X-16.6373 Y57.1411 
G01 X-16.8394 Y57.1731 
G01 X-17.0340 Y57.2363 
G01 X-17.2163 Y57.3292 
G01 X-17.3819 Y57.4495 
G01 X-17.5266 Y57.5942 
G01 X-17.6469 Y57.7598 
G01 X-17.7398 Y57.9421 
G01 X-17.8030 Y58.1367 
G01 X-17.8350 Y58.3388 
G00 Z2.5400 
G00 X-127.8456 Y92.5020 
G01 Z-0.1778 F254.00 
G01 X-126.1544 Y92.5020 F508.00 
G01 X-125.9893 Y92.4758 
G01 X-125.8303 Y92.4242 
G01 X-125.6814 Y92.3483 
G01 X-125.5462 Y92.2500 
G01 X-125.4280 Y92.1318 
G01 X-125.3297 Y91.9966 
G01 X-125.2538 Y91.8477 
G01 X-125.2022 Y91.6887 
G01 X-125.1760 Y91.5236 
G01 X-125.1760 Y91.3564 
G01 X-125.2022 Y91.1913 
G01 X-125.2538 Y91.0323 
G01 X-125.3297 Y90.8834 
G01 X-125.4280 Y90.7482 
G01 X-125.5462 Y90.6300 
G01 X-125.6814 Y90.5317 
G01 X-125.8303 Y90.4558 
G01 X-125.9893 Y90.4042 
G01 X-126.1544 Y90.3780 
G01 X-127.8456 Y90.3780 
G01 X-128.0107 Y90.4042 
G01 X-128.1697 Y90.4558 
G01 X-128.3186 Y90.5317 
G01 X-128.4538 Y90.6300 
G01 X-128.5720 Y90.7482 
G01 X-128.6703 Y90.8834 
G01 X-128.7462 Y91.0323 
G01 X-128.7978 Y91.1913 
G01 X-128.8240 Y91.3564 
G01 X-128.8240 Y91.5236 
G01 X-128.7978 Y91.6887 
G01 X-128.7462 Y91.8477 
G01 X-128.6703 Y91.9966 
G01 X-128.5720 Y92.1318 
G01 X-128.4538 Y92.2500 
G01 X-128.3186 Y92.3483 
G01 X-128.1697 Y92.4242 
G01 X-128.0107 Y92.4758 
G01 X-127.8456 Y92.5020 
G00 Z2.5400 
G00 X-127.8456 Y89.9620 
G01 Z-0.1778 F254.00 
G01 X-126.1544 Y89.9620 F508.00 
G01 X-125.9893 Y89.9358 
G01 X-125.8303 Y89.8842 
G01 X-125.6814 Y89.8083 
G01 X-125.5462 Y89.7100 
G01 X-125.4280 Y89.5918 
G01 X-125.3297 Y89.4566 
G01 X-125.2538 Y89.3077 
G01 X-125.2022 Y89.1487 
G01 X-125.1760 Y88.9836 
G01 X-125.1760 Y88.8164 
G01 X-125.2022 Y88.6513 
G01 X-125.2538 Y88.4923 
G01 X-125.3297 Y88.3434 
G01 X-125.4280 Y88.2082 
G01 X-125.5462 Y88.0900 
G01 X-125.6814 Y87.9917 
G01 X-125.8303 Y87.9158 
G01 X-125.9893 Y87.8642 
G01 X-126.1544 Y87.8380 
G01 X-127.8456 Y87.8380 
G01 X-128.0107 Y87.8642 
G01 X-128.1697 Y87.9158 
G01 X-128.3186 Y87.9917 
G01 X-128.4538 Y88.0900 
G01 X-128.5720 Y88.2082 
G01 X-128.6703 Y88.3434 
G01 X-128.7462 Y88.4923 
G01 X-128.7978 Y88.6513 
G01 X-128.8240 Y88.8164 
G01 X-128.8240 Y88.9836 
G01 X-128.7978 Y89.1487 
G01 X-128.7462 Y89.3077 
G01 X-128.6703 Y89.4566 
G01 X-128.5720 Y89.5918 
G01 X-128.4538 Y89.7100 
G01 X-128.3186 Y89.8083 
G01 X-128.1697 Y89.8842 
G01 X-128.0107 Y89.9358 
G01 X-127.8456 Y89.9620 
G00 Z2.5400 
G00 X-127.8456 Y87.4220 
G01 Z-0.1778 F254.00 
G01 X-126.1544 Y87.4220 F508.00 
G01 X-125.9893 Y87.3958 
G01 X-125.8303 Y87.3442 
G01 X-125.6814 Y87.2683 
G01 X-125.5462 Y87.1700 
G01 X-125.4280 Y87.0518 
G01 X-125.3297 Y86.9166 
G01 X-125.2538 Y86.7677 
G01 X-125.2022 Y86.6087 
G01 X-125.1760 Y86.4436 
G01 X-125.1760 Y86.2764 
G01 X-125.2022 Y86.1113 
G01 X-125.2538 Y85.9523 
G01 X-125.3297 Y85.8034 
G01 X-125.4280 Y85.6682 
G01 X-125.5462 Y85.5500 
G01 X-125.6814 Y85.4517 
G01 X-125.8303 Y85.3758 
G01 X-125.9893 Y85.3242 
G01 X-126.1544 Y85.2980 
G01 X-127.8456 Y85.2980 
G01 X-128.0107 Y85.3242 
G01 X-128.1697 Y85.3758 
G01 X-128.3186 Y85.4517 
G01 X-128.4538 Y85.5500 
G01 X-128.5720 Y85.6682 
G01 X-128.6703 Y85.8034 
G01 X-128.7462 Y85.9523 
G01 X-128.7978 Y86.1113 
G01 X-128.8240 Y86.2764 
G01 X-128.8240 Y86.4436 
G01 X-128.7978 Y86.6087 
G01 X-128.7462 Y86.7677 
G01 X-128.6703 Y86.9166 
G01 X-128.5720 Y87.0518 
G01 X-128.4538 Y87.1700 
G01 X-128.3186 Y87.2683 
G01 X-128.1697 Y87.3442 
G01 X-128.0107 Y87.3958 
G01 X-127.8456 Y87.4220 
G00 Z2.5400 
G00 X-127.8456 Y84.8820 
G01 Z-0.1778 F254.00 
G01 X-126.1544 Y84.8820 F508.00 
G01 X-125.9893 Y84.8558 
G01 X-125.8303 Y84.8042 
G01 X-125.6814 Y84.7283 
G01 X-125.5462 Y84.6300 
G01 X-125.4280 Y84.5118 
G01 X-125.3297 Y84.3766 
G01 X-125.2538 Y84.2277 
G01 X-125.2022 Y84.0687 
G01 X-125.1760 Y83.9036 
G01 X-125.1760 Y83.7364 
G01 X-125.2022 Y83.5713 
G01 X-125.2538 Y83.4123 
G01 X-125.3297 Y83.2634 
G01 X-125.4280 Y83.1282 
G01 X-125.5462 Y83.0100 
G01 X-125.6814 Y82.9117 
G01 X-125.8303 Y82.8358 
G01 X-125.9893 Y82.7842 
G01 X-126.1544 Y82.7580 
G01 X-127.8456 Y82.7580 
G01 X-128.0107 Y82.7842 
G01 X-128.1697 Y82.8358 
G01 X-128.3186 Y82.9117 
G01 X-128.4538 Y83.0100 
G01 X-128.5720 Y83.1282 
G01 X-128.6703 Y83.2634 
G01 X-128.7462 Y83.4123 
G01 X-128.7978 Y83.5713 
G01 X-128.8240 Y83.7364 
G01 X-128.8240 Y83.9036 
G01 X-128.7978 Y84.0687 
G01 X-128.7462 Y84.2277 
G01 X-128.6703 Y84.3766 
G01 X-128.5720 Y84.5118 
G01 X-128.4538 Y84.6300 
G01 X-128.3186 Y84.7283 
G01 X-128.1697 Y84.8042 
G01 X-128.0107 Y84.8558 
G01 X-127.8456 Y84.8820 
G00 Z2.5400 
G00 X-127.8456 Y82.3420 
G01 Z-0.1778 F254.00 
G01 X-126.1544 Y82.3420 F508.00 
G01 X-125.9893 Y82.3158 
G01 X-125.8303 Y82.2642 
G01 X-125.6814 Y82.1883 
G01 X-125.5462 Y82.0900 
G01 X-125.4280 Y81.9718 
G01 X-125.3297 Y81.8366 
G01 X-125.2538 Y81.6877 
G01 X-125.2022 Y81.5287 
G01 X-125.1760 Y81.3636 
G01 X-125.1760 Y81.1964 
G01 X-125.2022 Y81.0313 
G01 X-125.2538 Y80.8723 
G01 X-125.3297 Y80.7234 
G01 X-125.4280 Y80.5882 
G01 X-125.5462 Y80.4699 
G01 X-125.6814 Y80.3717 
G01 X-125.8303 Y80.2958 
G01 X-125.9893 Y80.2442 
G01 X-126.1544 Y80.2180 
G01 X-127.8456 Y80.2180 
G01 X-128.0107 Y80.2442 
G01 X-128.1697 Y80.2958 
G01 X-128.3186 Y80.3717 
G01 X-128.4538 Y80.4699 
G01 X-128.5720 Y80.5882 
G01 X-128.6703 Y80.7234 
G01 X-128.7462 Y80.8723 
G01 X-128.7978 Y81.0313 
G01 X-128.8240 Y81.1964 
G01 X-128.8240 Y81.3636 
G01 X-128.7978 Y81.5287 
G01 X-128.7462 Y81.6877 
G01 X-128.6703 Y81.8366 
G01 X-128.5720 Y81.9718 
G01 X-128.4538 Y82.0900 
G01 X-128.3186 Y82.1883 
G01 X-128.1697 Y82.2642 
G01 X-128.0107 Y82.3158 
G01 X-127.8456 Y82.3420 
G00 Z2.5400 
G00 X-127.8456 Y69.6420 
G01 Z-0.1778 F254.00 
G01 X-127.0711 Y69.6420 F508.00 
G01 X-125.5290 Y71.1841 
G01 X-125.4341 Y71.2790 
G01 X-125.3226 Y71.3535 
G01 X-125.1986 Y71.4048 
G01 X-125.0671 Y71.4310 
G01 X-107.7821 Y71.4310 
G01 X-107.7790 Y71.4341 
G01 X-107.6841 Y71.5290 
G01 X-107.5726 Y71.6035 
G01 X-107.4486 Y71.6548 
G01 X-107.3860 Y71.6673 
G01 X-107.3321 Y71.7731 
G01 X-107.2150 Y71.9342 
G01 X-107.0742 Y72.0750 
G01 X-106.9131 Y72.1921 
G01 X-106.7357 Y72.2825 
G01 X-106.5463 Y72.3440 
G01 X-106.3496 Y72.3752 
G01 X-106.1504 Y72.3752 
G01 X-105.9537 Y72.3440 
G01 X-105.7643 Y72.2825 
G01 X-105.5869 Y72.1921 
G01 X-105.4258 Y72.0750 
G01 X-105.2850 Y71.9342 
G01 X-105.1679 Y71.7731 
G01 X-105.0775 Y71.5957 
G01 X-105.0160 Y71.4063 
G01 X-104.9848 Y71.2096 
G01 X-104.9848 Y71.0104 
G01 X-105.0160 Y70.8137 
G01 X-105.0775 Y70.6243 
G01 X-105.1679 Y70.4469 
G01 X-105.2850 Y70.2858 
G01 X-105.4258 Y70.1450 
G01 X-105.5869 Y70.0279 
G01 X-105.7643 Y69.9375 
G01 X-105.9537 Y69.8760 
G01 X-106.1504 Y69.8448 
G01 X-106.3496 Y69.8448 
G01 X-106.5463 Y69.8760 
G01 X-106.7357 Y69.9375 
G01 X-106.9131 Y70.0279 
G01 X-107.0742 Y70.1450 
G01 X-107.1165 Y70.1872 
G01 X-107.1774 Y70.1465 
G01 X-107.3014 Y70.0952 
G01 X-107.4329 Y70.0690 
G01 X-124.7179 Y70.0690 
G01 X-125.4715 Y69.3154 
G01 X-125.4280 Y69.2718 
G01 X-125.3297 Y69.1366 
G01 X-125.2538 Y68.9877 
G01 X-125.2022 Y68.8287 
G01 X-125.1760 Y68.6636 
G01 X-125.1760 Y68.4964 
G01 X-125.2022 Y68.3313 
G01 X-125.2538 Y68.1723 
G01 X-125.3297 Y68.0234 
G01 X-125.4280 Y67.8882 
G01 X-125.5462 Y67.7700 
G01 X-125.6814 Y67.6717 
G01 X-125.8303 Y67.5958 
G01 X-125.9893 Y67.5442 
G01 X-126.1544 Y67.5180 
G01 X-127.8456 Y67.5180 
G01 X-128.0107 Y67.5442 
G01 X-128.1697 Y67.5958 
G01 X-128.3186 Y67.6717 
G01 X-128.4538 Y67.7700 
G01 X-128.5720 Y67.8882 
G01 X-128.6703 Y68.0234 
G01 X-128.7462 Y68.1723 
G01 X-128.7978 Y68.3313 
G01 X-128.8240 Y68.4964 
G01 X-128.8240 Y68.6636 
G01 X-128.7978 Y68.8287 
G01 X-128.7462 Y68.9877 
G01 X-128.6703 Y69.1366 
G01 X-128.5720 Y69.2718 
G01 X-128.4538 Y69.3900 
G01 X-128.3186 Y69.4883 
G01 X-128.1697 Y69.5642 
G01 X-128.0107 Y69.6158 
G01 X-127.8456 Y69.6420 
G00 Z2.5400 
G00 X-127.8456 Y67.1020 
G01 Z-0.1778 F254.00 
G01 X-126.1544 Y67.1020 F508.00 
G01 X-125.9893 Y67.0758 
G01 X-125.8303 Y67.0242 
G01 X-125.6814 Y66.9483 
G01 X-125.5462 Y66.8500 
G01 X-125.4280 Y66.7318 
G01 X-125.3297 Y66.5966 
G01 X-125.2538 Y66.4477 
G01 X-125.2022 Y66.2887 
G01 X-125.1760 Y66.1236 
G01 X-125.1760 Y65.9564 
G01 X-125.2022 Y65.7913 
G01 X-125.2538 Y65.6323 
G01 X-125.3297 Y65.4834 
G01 X-125.4280 Y65.3482 
G01 X-125.5462 Y65.2300 
G01 X-125.6814 Y65.1317 
G01 X-125.8303 Y65.0558 
G01 X-125.9893 Y65.0042 
G01 X-126.1544 Y64.9780 
G01 X-127.8456 Y64.9780 
G01 X-128.0107 Y65.0042 
G01 X-128.1697 Y65.0558 
G01 X-128.3186 Y65.1317 
G01 X-128.4538 Y65.2300 
G01 X-128.5720 Y65.3482 
G01 X-128.6703 Y65.4834 
G01 X-128.7462 Y65.6323 
G01 X-128.7978 Y65.7913 
G01 X-128.8240 Y65.9564 
G01 X-128.8240 Y66.1236 
G01 X-128.7978 Y66.2887 
G01 X-128.7462 Y66.4477 
G01 X-128.6703 Y66.5966 
G01 X-128.5720 Y66.7318 
G01 X-128.4538 Y66.8500 
G01 X-128.3186 Y66.9483 
G01 X-128.1697 Y67.0242 
G01 X-128.0107 Y67.0758 
G01 X-127.8456 Y67.1020 
G00 Z2.5400 
G00 X-127.8456 Y64.5620 
G01 Z-0.1778 F254.00 
G01 X-126.1544 Y64.5620 F508.00 
G01 X-125.9893 Y64.5358 
G01 X-125.8303 Y64.4842 
G01 X-125.6814 Y64.4083 
G01 X-125.5462 Y64.3100 
G01 X-125.4280 Y64.1918 
G01 X-125.3297 Y64.0566 
G01 X-125.2538 Y63.9077 
G01 X-125.2022 Y63.7487 
G01 X-125.1760 Y63.5836 
G01 X-125.1760 Y63.4164 
G01 X-125.2022 Y63.2513 
G01 X-125.2538 Y63.0923 
G01 X-125.3297 Y62.9434 
G01 X-125.4280 Y62.8082 
G01 X-125.5462 Y62.6900 
G01 X-125.6814 Y62.5917 
G01 X-125.8303 Y62.5158 
G01 X-125.9893 Y62.4642 
G01 X-126.1544 Y62.4380 
G01 X-127.8456 Y62.4380 
G01 X-128.0107 Y62.4642 
G01 X-128.1697 Y62.5158 
G01 X-128.3186 Y62.5917 
G01 X-128.4538 Y62.6900 
G01 X-128.5720 Y62.8082 
G01 X-128.6703 Y62.9434 
G01 X-128.7462 Y63.0923 
G01 X-128.7978 Y63.2513 
G01 X-128.8240 Y63.4164 
G01 X-128.8240 Y63.5836 
G01 X-128.7978 Y63.7487 
G01 X-128.7462 Y63.9077 
G01 X-128.6703 Y64.0566 
G01 X-128.5720 Y64.1918 
G01 X-128.4538 Y64.3100 
G01 X-128.3186 Y64.4083 
G01 X-128.1697 Y64.4842 
G01 X-128.0107 Y64.5358 
G01 X-127.8456 Y64.5620 
G00 Z2.5400 
G00 X-127.8456 Y62.0220 
G01 Z-0.1778 F254.00 
G01 X-126.1544 Y62.0220 F508.00 
G01 X-125.9893 Y61.9958 
G01 X-125.8303 Y61.9442 
G01 X-125.6814 Y61.8683 
G01 X-125.5462 Y61.7700 
G01 X-125.4280 Y61.6518 
G01 X-125.3297 Y61.5166 
G01 X-125.2538 Y61.3677 
G01 X-125.2022 Y61.2087 
G01 X-125.1760 Y61.0436 
G01 X-125.1760 Y60.8764 
G01 X-125.2022 Y60.7113 
G01 X-125.2538 Y60.5523 
G01 X-125.3297 Y60.4034 
G01 X-125.4280 Y60.2682 
G01 X-125.5462 Y60.1500 
G01 X-125.6814 Y60.0517 
G01 X-125.8303 Y59.9758 
G01 X-125.9893 Y59.9242 
G01 X-126.1544 Y59.8980 
G01 X-127.8456 Y59.8980 
G01 X-128.0107 Y59.9242 
G01 X-128.1697 Y59.9758 
G01 X-128.2634 Y60.0236 
G01 X-129.3190 Y58.9679 
G01 X-129.3190 Y51.6810 
G01 X-109.0321 Y51.6810 
G01 X-107.5107 Y53.2023 
G01 X-107.5152 Y53.2304 
G01 X-107.5152 Y53.4296 
G01 X-107.4840 Y53.6263 
G01 X-107.4225 Y53.8157 
G01 X-107.3321 Y53.9931 
G01 X-107.2150 Y54.1542 
G01 X-107.0742 Y54.2950 
G01 X-106.9131 Y54.4121 
G01 X-106.7357 Y54.5025 
G01 X-106.5463 Y54.5640 
G01 X-106.3496 Y54.5952 
G01 X-106.1504 Y54.5952 
G01 X-105.9537 Y54.5640 
G01 X-105.7643 Y54.5025 
G01 X-105.5869 Y54.4121 
G01 X-105.4258 Y54.2950 
G01 X-105.2850 Y54.1542 
G01 X-105.1679 Y53.9931 
G01 X-105.0775 Y53.8157 
G01 X-105.0160 Y53.6263 
G01 X-104.9848 Y53.4296 
G01 X-104.9848 Y53.2304 
G01 X-105.0160 Y53.0337 
G01 X-105.0775 Y52.8443 
G01 X-105.1679 Y52.6669 
G01 X-105.2850 Y52.5058 
G01 X-105.4258 Y52.3650 
G01 X-105.5869 Y52.2479 
G01 X-105.7643 Y52.1575 
G01 X-105.9537 Y52.0960 
G01 X-106.1504 Y52.0648 
G01 X-106.3496 Y52.0648 
G01 X-106.5463 Y52.0960 
G01 X-106.6555 Y52.1314 
G01 X-108.3159 Y50.4710 
G01 X-108.4274 Y50.3965 
G01 X-108.5514 Y50.3452 
G01 X-108.6829 Y50.3190 
G01 X-130.0671 Y50.3190 
G01 X-130.1986 Y50.3452 
G01 X-130.3226 Y50.3965 
G01 X-130.4341 Y50.4710 
G01 X-130.5290 Y50.5659 
G01 X-130.6035 Y50.6774 
G01 X-130.6548 Y50.8014 
G01 X-130.6810 Y50.9329 
G01 X-130.6810 Y59.3171 
G01 X-130.6548 Y59.4486 
G01 X-130.6035 Y59.5726 
G01 X-130.5290 Y59.6841 
G01 X-128.9341 Y61.2790 
G01 X-128.8226 Y61.3535 
G01 X-128.7349 Y61.3898 
G01 X-128.6703 Y61.5166 
G01 X-128.5720 Y61.6518 
G01 X-128.4538 Y61.7700 
G01 X-128.3186 Y61.8683 
G01 X-128.1697 Y61.9442 
G01 X-128.0107 Y61.9958 
G01 X-127.8456 Y62.0220 
G00 Z2.5400 
G00 X-127.8456 Y59.4820 
G01 Z-0.1778 F254.00 
G01 X-126.1544 Y59.4820 F508.00 
G01 X-125.9893 Y59.4558 
G01 X-125.8303 Y59.4042 
G01 X-125.6814 Y59.3283 
G01 X-125.5462 Y59.2300 
G01 X-125.4280 Y59.1118 
G01 X-125.3297 Y58.9766 
G01 X-125.2538 Y58.8277 
G01 X-125.2022 Y58.6687 
G01 X-125.1760 Y58.5036 
G01 X-125.1760 Y58.3364 
G01 X-125.2022 Y58.1713 
G01 X-125.2538 Y58.0123 
G01 X-125.3297 Y57.8634 
G01 X-125.4280 Y57.7282 
G01 X-125.5462 Y57.6100 
G01 X-125.6814 Y57.5117 
G01 X-125.8303 Y57.4358 
G01 X-125.9893 Y57.3842 
G01 X-126.1544 Y57.3580 
G01 X-127.8456 Y57.3580 
G01 X-128.0107 Y57.3842 
G01 X-128.1697 Y57.4358 
G01 X-128.3186 Y57.5117 
G01 X-128.4538 Y57.6100 
G01 X-128.5720 Y57.7282 
G01 X-128.6703 Y57.8634 
G01 X-128.7462 Y58.0123 
G01 X-128.7978 Y58.1713 
G01 X-128.8240 Y58.3364 
G01 X-128.8240 Y58.5036 
G01 X-128.7978 Y58.6687 
G01 X-128.7462 Y58.8277 
G01 X-128.6703 Y58.9766 
G01 X-128.5720 Y59.1118 
G01 X-128.4538 Y59.2300 
G01 X-128.3186 Y59.3283 
G01 X-128.1697 Y59.4042 
G01 X-128.0107 Y59.4558 
G01 X-127.8456 Y59.4820 
G00 Z2.5400 
G00 X-127.8456 Y56.9420 
G01 Z-0.1778 F254.00 
G01 X-126.1544 Y56.9420 F508.00 
G01 X-125.9893 Y56.9158 
G01 X-125.8303 Y56.8642 
G01 X-125.6814 Y56.7883 
G01 X-125.5462 Y56.6900 
G01 X-125.5371 Y56.6810 
G01 X-107.2246 Y56.6810 
G01 X-107.2150 Y56.6942 
G01 X-107.0742 Y56.8350 
G01 X-106.9131 Y56.9521 
G01 X-106.7357 Y57.0425 
G01 X-106.5463 Y57.1040 
G01 X-106.3496 Y57.1352 
G01 X-106.1504 Y57.1352 
G01 X-105.9537 Y57.1040 
G01 X-105.7643 Y57.0425 
G01 X-105.5869 Y56.9521 
G01 X-105.4258 Y56.8350 
G01 X-105.2850 Y56.6942 
G01 X-105.2754 Y56.6810 
G01 X-82.4546 Y56.6810 
G01 X-82.4450 Y56.6942 
G01 X-82.3042 Y56.8350 
G01 X-82.1431 Y56.9521 
G01 X-81.9657 Y57.0425 
G01 X-81.7763 Y57.1040 
G01 X-81.5796 Y57.1352 
G01 X-81.3804 Y57.1352 
G01 X-81.1837 Y57.1040 
G01 X-80.9943 Y57.0425 
G01 X-80.8169 Y56.9521 
G01 X-80.6558 Y56.8350 
G01 X-80.5150 Y56.6942 
G01 X-80.5054 Y56.6810 
G01 X-76.5321 Y56.6810 
G01 X-75.7790 Y57.4341 
G01 X-75.6841 Y57.5290 
G01 X-75.5726 Y57.6035 
G01 X-75.4486 Y57.6548 
G01 X-75.3171 Y57.6810 
G01 X-73.6829 Y57.6810 
G01 X-73.5514 Y57.6548 
G01 X-73.4274 Y57.6035 
G01 X-73.3159 Y57.5290 
G01 X-71.0659 Y55.2790 
G01 X-70.9710 Y55.1841 
G01 X-70.8965 Y55.0726 
G01 X-70.8452 Y54.9486 
G01 X-70.8190 Y54.8171 
G01 X-70.8190 Y33.4310 
G01 X-57.7821 Y33.4310 
G01 X-54.8461 Y36.3670 
G01 X-54.8515 Y36.3751 
G01 X-54.9239 Y36.5499 
G01 X-54.9608 Y36.7354 
G01 X-54.9608 Y36.9246 
G01 X-54.9239 Y37.1101 
G01 X-54.8515 Y37.2849 
G01 X-54.7464 Y37.4422 
G01 X-54.6126 Y37.5760 
G01 X-54.4553 Y37.6811 
G01 X-54.2805 Y37.7535 
G01 X-54.0950 Y37.7904 
G01 X-52.5850 Y37.7904 
G01 X-52.3995 Y37.7535 
G01 X-52.2247 Y37.6811 
G01 X-52.0674 Y37.5760 
G01 X-51.9336 Y37.4422 
G01 X-51.8285 Y37.2849 
G01 X-51.7561 Y37.1101 
G01 X-51.7192 Y36.9246 
G01 X-51.7192 Y36.7354 
G01 X-51.7561 Y36.5499 
G01 X-51.8285 Y36.3751 
G01 X-51.9336 Y36.2178 
G01 X-52.0674 Y36.0840 
G01 X-52.2247 Y35.9789 
G01 X-52.3995 Y35.9065 
G01 X-52.5850 Y35.8696 
G01 X-53.4173 Y35.8696 
G01 X-56.9710 Y32.3159 
G01 X-57.0659 Y32.2210 
G01 X-57.1774 Y32.1465 
G01 X-57.3014 Y32.0952 
G01 X-57.4329 Y32.0690 
G01 X-70.9679 Y32.0690 
G01 X-72.6996 Y30.3373 
G01 X-72.6996 Y30.0822 
G01 X-73.2622 Y29.5196 
G01 X-74.0578 Y29.5196 
G01 X-74.6204 Y30.0822 
G01 X-74.6204 Y30.8778 
G01 X-74.0578 Y31.4404 
G01 X-73.5227 Y31.4404 
G01 X-72.1560 Y32.8071 
G01 X-72.1810 Y32.9329 
G01 X-72.1810 Y54.4679 
G01 X-74.0321 Y56.3190 
G01 X-74.9679 Y56.3190 
G01 X-75.8159 Y55.4710 
G01 X-75.9274 Y55.3965 
G01 X-76.0514 Y55.3452 
G01 X-76.1829 Y55.3190 
G01 X-80.3408 Y55.3190 
G01 X-80.3979 Y55.2069 
G01 X-80.5150 Y55.0458 
G01 X-80.6558 Y54.9050 
G01 X-80.8169 Y54.7879 
G01 X-80.9943 Y54.6975 
G01 X-81.1837 Y54.6360 
G01 X-81.3804 Y54.6048 
G01 X-81.5796 Y54.6048 
G01 X-81.7763 Y54.6360 
G01 X-81.9657 Y54.6975 
G01 X-82.1431 Y54.7879 
G01 X-82.3042 Y54.9050 
G01 X-82.4450 Y55.0458 
G01 X-82.5621 Y55.2069 
G01 X-82.6192 Y55.3190 
G01 X-105.1108 Y55.3190 
G01 X-105.1679 Y55.2069 
G01 X-105.2850 Y55.0458 
G01 X-105.4258 Y54.9050 
G01 X-105.5869 Y54.7879 
G01 X-105.7643 Y54.6975 
G01 X-105.9537 Y54.6360 
G01 X-106.1504 Y54.6048 
G01 X-106.3496 Y54.6048 
G01 X-106.5463 Y54.6360 
G01 X-106.7357 Y54.6975 
G01 X-106.9131 Y54.7879 
G01 X-107.0742 Y54.9050 
G01 X-107.2150 Y55.0458 
G01 X-107.3321 Y55.2069 
G01 X-107.3892 Y55.3190 
G01 X-125.3329 Y55.3190 
G01 X-125.4280 Y55.1882 
G01 X-125.5462 Y55.0700 
G01 X-125.6814 Y54.9717 
G01 X-125.8303 Y54.8958 
G01 X-125.9893 Y54.8442 
G01 X-126.1544 Y54.8180 
G01 X-127.8456 Y54.8180 
G01 X-128.0107 Y54.8442 
G01 X-128.1697 Y54.8958 
G01 X-128.3186 Y54.9717 
G01 X-128.4538 Y55.0700 
G01 X-128.5720 Y55.1882 
G01 X-128.6703 Y55.3234 
G01 X-128.7462 Y55.4723 
G01 X-128.7978 Y55.6313 
G01 X-128.8240 Y55.7964 
G01 X-128.8240 Y55.9636 
G01 X-128.7978 Y56.1287 
G01 X-128.7462 Y56.2877 
G01 X-128.6703 Y56.4366 
G01 X-128.5720 Y56.5718 
G01 X-128.4538 Y56.6900 
G01 X-128.3186 Y56.7883 
G01 X-128.1697 Y56.8642 
G01 X-128.0107 Y56.9158 
G01 X-127.8456 Y56.9420 
G00 Z2.5400 
G00 X-127.8456 Y54.4020 
G01 Z-0.1778 F254.00 
G01 X-126.1544 Y54.4020 F508.00 
G01 X-125.9893 Y54.3758 
G01 X-125.8303 Y54.3242 
G01 X-125.6814 Y54.2483 
G01 X-125.5462 Y54.1500 
G01 X-125.4280 Y54.0318 
G01 X-125.3297 Y53.8966 
G01 X-125.2538 Y53.7477 
G01 X-125.2022 Y53.5887 
G01 X-125.1760 Y53.4236 
G01 X-125.1760 Y53.2564 
G01 X-125.2022 Y53.0913 
G01 X-125.2538 Y52.9323 
G01 X-125.3297 Y52.7834 
G01 X-125.4280 Y52.6482 
G01 X-125.5462 Y52.5299 
G01 X-125.6814 Y52.4317 
G01 X-125.8303 Y52.3558 
G01 X-125.9893 Y52.3041 
G01 X-126.1544 Y52.2780 
G01 X-127.8456 Y52.2780 
G01 X-128.0107 Y52.3041 
G01 X-128.1697 Y52.3558 
G01 X-128.3186 Y52.4317 
G01 X-128.4538 Y52.5299 
G01 X-128.5720 Y52.6482 
G01 X-128.6703 Y52.7834 
G01 X-128.7462 Y52.9323 
G01 X-128.7978 Y53.0913 
G01 X-128.8240 Y53.2564 
G01 X-128.8240 Y53.4236 
G01 X-128.7978 Y53.5887 
G01 X-128.7462 Y53.7477 
G01 X-128.6703 Y53.8966 
G01 X-128.5720 Y54.0318 
G01 X-128.4538 Y54.1500 
G01 X-128.3186 Y54.2483 
G01 X-128.1697 Y54.3242 
G01 X-128.0107 Y54.3758 
G01 X-127.8456 Y54.4020 
G00 Z2.5400 
G00 X-57.9956 Y96.3120 
G01 Z-0.1778 F254.00 
G01 X-56.3044 Y96.3120 F508.00 
G01 X-56.1393 Y96.2858 
G01 X-55.9803 Y96.2342 
G01 X-55.8314 Y96.1583 
G01 X-55.6962 Y96.0600 
G01 X-55.5780 Y95.9418 
G01 X-55.4797 Y95.8066 
G01 X-55.4038 Y95.6577 
G01 X-55.3522 Y95.4987 
G01 X-55.3260 Y95.3336 
G01 X-55.3260 Y95.1664 
G01 X-55.3522 Y95.0013 
G01 X-55.4038 Y94.8423 
G01 X-55.4797 Y94.6934 
G01 X-55.5780 Y94.5582 
G01 X-55.6962 Y94.4400 
G01 X-55.8314 Y94.3417 
G01 X-55.9803 Y94.2658 
G01 X-56.1393 Y94.2142 
G01 X-56.3044 Y94.1880 
G01 X-57.9956 Y94.1880 
G01 X-58.1607 Y94.2142 
G01 X-58.3197 Y94.2658 
G01 X-58.4686 Y94.3417 
G01 X-58.6038 Y94.4400 
G01 X-58.7220 Y94.5582 
G01 X-58.8203 Y94.6934 
G01 X-58.8962 Y94.8423 
G01 X-58.9478 Y95.0013 
G01 X-58.9740 Y95.1664 
G01 X-58.9740 Y95.3336 
G01 X-58.9478 Y95.4987 
G01 X-58.8962 Y95.6577 
G01 X-58.8203 Y95.8066 
G01 X-58.7220 Y95.9418 
G01 X-58.6038 Y96.0600 
G01 X-58.4686 Y96.1583 
G01 X-58.3197 Y96.2342 
G01 X-58.1607 Y96.2858 
G01 X-57.9956 Y96.3120 
G00 Z2.5400 
G00 X-57.9956 Y93.7720 
G01 Z-0.1778 F254.00 
G01 X-56.3044 Y93.7720 F508.00 
G01 X-56.1393 Y93.7458 
G01 X-55.9803 Y93.6942 
G01 X-55.9544 Y93.6810 
G01 X-45.7821 Y93.6810 
G01 X-43.5290 Y95.9341 
G01 X-43.4341 Y96.0290 
G01 X-43.3226 Y96.1035 
G01 X-43.1986 Y96.1548 
G01 X-43.0671 Y96.1810 
G01 X-38.1829 Y96.1810 
G01 X-38.0514 Y96.1548 
G01 X-37.9274 Y96.1035 
G01 X-37.8159 Y96.0290 
G01 X-30.9236 Y89.1367 
G01 X-30.8476 Y89.1613 
G01 X-30.6036 Y89.2000 
G01 X-30.3564 Y89.2000 
G01 X-30.1124 Y89.1613 
G01 X-29.8773 Y89.0850 
G01 X-29.6571 Y88.9728 
G01 X-29.4572 Y88.8275 
G01 X-29.2825 Y88.6528 
G01 X-29.1372 Y88.4529 
G01 X-29.0250 Y88.2327 
G01 X-28.9487 Y87.9976 
G01 X-28.9100 Y87.7536 
G01 X-28.9100 Y87.5064 
G01 X-28.9487 Y87.2624 
G01 X-29.0250 Y87.0273 
G01 X-29.1372 Y86.8071 
G01 X-29.2825 Y86.6072 
G01 X-29.4572 Y86.4325 
G01 X-29.6571 Y86.2872 
G01 X-29.8773 Y86.1750 
G01 X-30.1124 Y86.0987 
G01 X-30.3564 Y86.0600 
G01 X-30.6036 Y86.0600 
G01 X-30.8476 Y86.0987 
G01 X-31.0827 Y86.1750 
G01 X-31.3029 Y86.2872 
G01 X-31.5028 Y86.4325 
G01 X-31.6775 Y86.6072 
G01 X-31.8228 Y86.8071 
G01 X-31.9350 Y87.0273 
G01 X-32.0113 Y87.2624 
G01 X-32.0500 Y87.5064 
G01 X-32.0500 Y87.7536 
G01 X-32.0113 Y87.9976 
G01 X-31.9376 Y88.2245 
G01 X-38.5321 Y94.8190 
G01 X-42.7179 Y94.8190 
G01 X-45.0659 Y92.4710 
G01 X-45.1774 Y92.3965 
G01 X-45.3014 Y92.3452 
G01 X-45.4329 Y92.3190 
G01 X-55.3984 Y92.3190 
G01 X-55.4038 Y92.3023 
G01 X-55.4797 Y92.1534 
G01 X-55.5780 Y92.0182 
G01 X-55.6962 Y91.9000 
G01 X-55.8314 Y91.8017 
G01 X-55.9803 Y91.7258 
G01 X-56.1393 Y91.6741 
G01 X-56.3044 Y91.6480 
G01 X-57.9956 Y91.6480 
G01 X-58.1607 Y91.6741 
G01 X-58.3197 Y91.7258 
G01 X-58.4686 Y91.8017 
G01 X-58.6038 Y91.9000 
G01 X-58.7220 Y92.0182 
G01 X-58.8203 Y92.1534 
G01 X-58.8962 Y92.3023 
G01 X-58.9478 Y92.4613 
G01 X-58.9740 Y92.6264 
G01 X-58.9740 Y92.7936 
G01 X-58.9478 Y92.9587 
G01 X-58.8962 Y93.1177 
G01 X-58.8203 Y93.2666 
G01 X-58.7220 Y93.4018 
G01 X-58.6038 Y93.5200 
G01 X-58.4686 Y93.6183 
G01 X-58.3197 Y93.6942 
G01 X-58.1607 Y93.7458 
G01 X-57.9956 Y93.7720 
G00 Z2.5400 
G00 X-57.9956 Y91.2320 
G01 Z-0.1778 F254.00 
G01 X-56.3044 Y91.2320 F508.00 
G01 X-56.1393 Y91.2058 
G01 X-56.0628 Y91.1810 
G01 X-44.2821 Y91.1810 
G01 X-43.4417 Y92.0214 
G01 X-43.4800 Y92.0597 
G01 X-43.4800 Y93.3603 
G01 X-42.5603 Y94.2800 
G01 X-41.2597 Y94.2800 
G01 X-40.3400 Y93.3603 
G01 X-40.3400 Y92.0597 
G01 X-41.2597 Y91.1400 
G01 X-42.3969 Y91.1400 
G01 X-43.5659 Y89.9710 
G01 X-43.6774 Y89.8965 
G01 X-43.8014 Y89.8452 
G01 X-43.9329 Y89.8190 
G01 X-55.3854 Y89.8190 
G01 X-55.4038 Y89.7623 
G01 X-55.4797 Y89.6134 
G01 X-55.5780 Y89.4782 
G01 X-55.6962 Y89.3599 
G01 X-55.8314 Y89.2617 
G01 X-55.9803 Y89.1858 
G01 X-56.1393 Y89.1342 
G01 X-56.3044 Y89.1080 
G01 X-57.9956 Y89.1080 
G01 X-58.1607 Y89.1342 
G01 X-58.3197 Y89.1858 
G01 X-58.4686 Y89.2617 
G01 X-58.6038 Y89.3599 
G01 X-58.7220 Y89.4782 
G01 X-58.8203 Y89.6134 
G01 X-58.8962 Y89.7623 
G01 X-58.9478 Y89.9213 
G01 X-58.9740 Y90.0864 
G01 X-58.9740 Y90.2536 
G01 X-58.9478 Y90.4187 
G01 X-58.8962 Y90.5777 
G01 X-58.8203 Y90.7266 
G01 X-58.7220 Y90.8618 
G01 X-58.6038 Y90.9800 
G01 X-58.4686 Y91.0783 
G01 X-58.3197 Y91.1542 
G01 X-58.1607 Y91.2058 
G01 X-57.9956 Y91.2320 
G00 Z2.5400 
G00 X-107.5152 Y58.3104 
G01 Z-0.1778 F254.00 
G01 X-107.5152 Y58.5096 F508.00 
G01 X-107.4840 Y58.7063 
G01 X-107.4225 Y58.8957 
G01 X-107.3321 Y59.0731 
G01 X-107.2150 Y59.2342 
G01 X-107.0742 Y59.3750 
G01 X-106.9131 Y59.4921 
G01 X-106.7357 Y59.5825 
G01 X-106.5463 Y59.6440 
G01 X-106.3496 Y59.6752 
G01 X-106.1504 Y59.6752 
G01 X-105.9537 Y59.6440 
G01 X-105.7643 Y59.5825 
G01 X-105.5869 Y59.4921 
G01 X-105.4258 Y59.3750 
G01 X-105.2850 Y59.2342 
G01 X-105.1679 Y59.0731 
G01 X-105.0955 Y58.9310 
G01 X-102.1852 Y58.9310 
G01 X-102.1327 Y58.9660 
G01 X-101.9857 Y59.0269 
G01 X-101.8296 Y59.0580 
G01 X-101.6704 Y59.0580 
G01 X-101.5143 Y59.0269 
G01 X-101.3673 Y58.9660 
G01 X-101.2349 Y58.8776 
G01 X-101.1224 Y58.7651 
G01 X-101.0340 Y58.6327 
G01 X-100.9731 Y58.4857 
G01 X-100.9420 Y58.3296 
G01 X-100.9420 Y58.1704 
G01 X-100.9731 Y58.0143 
G01 X-101.0340 Y57.8673 
G01 X-101.1224 Y57.7349 
G01 X-101.2349 Y57.6224 
G01 X-101.3673 Y57.5340 
G01 X-101.5143 Y57.4731 
G01 X-101.6704 Y57.4420 
G01 X-101.8296 Y57.4420 
G01 X-101.9857 Y57.4731 
G01 X-102.1327 Y57.5340 
G01 X-102.1852 Y57.5690 
G01 X-105.3017 Y57.5690 
G01 X-105.4258 Y57.4450 
G01 X-105.5869 Y57.3279 
G01 X-105.7643 Y57.2375 
G01 X-105.9537 Y57.1760 
G01 X-106.1504 Y57.1448 
G01 X-106.3496 Y57.1448 
G01 X-106.5463 Y57.1760 
G01 X-106.7357 Y57.2375 
G01 X-106.9131 Y57.3279 
G01 X-107.0742 Y57.4450 
G01 X-107.2150 Y57.5858 
G01 X-107.3321 Y57.7469 
G01 X-107.4225 Y57.9243 
G01 X-107.4840 Y58.1137 
G01 X-107.5152 Y58.3104 
G00 Z2.5400 
G00 X-107.5152 Y60.8504 
G01 Z-0.1778 F254.00 
G01 X-107.5152 Y61.0496 F508.00 
G01 X-107.4840 Y61.2463 
G01 X-107.4225 Y61.4357 
G01 X-107.3321 Y61.6131 
G01 X-107.2150 Y61.7742 
G01 X-107.0742 Y61.9150 
G01 X-106.9131 Y62.0321 
G01 X-106.7357 Y62.1225 
G01 X-106.5463 Y62.1840 
G01 X-106.3496 Y62.2152 
G01 X-106.1504 Y62.2152 
G01 X-105.9537 Y62.1840 
G01 X-105.7643 Y62.1225 
G01 X-105.5869 Y62.0321 
G01 X-105.4258 Y61.9150 
G01 X-105.2850 Y61.7742 
G01 X-105.1679 Y61.6131 
G01 X-105.0775 Y61.4357 
G01 X-105.0160 Y61.2463 
G01 X-104.9848 Y61.0496 
G01 X-104.9848 Y60.8504 
G01 X-105.0160 Y60.6537 
G01 X-105.0775 Y60.4643 
G01 X-105.1679 Y60.2869 
G01 X-105.2850 Y60.1258 
G01 X-105.4258 Y59.9850 
G01 X-105.5869 Y59.8679 
G01 X-105.7643 Y59.7775 
G01 X-105.9537 Y59.7160 
G01 X-106.1504 Y59.6848 
G01 X-106.3496 Y59.6848 
G01 X-106.5463 Y59.7160 
G01 X-106.7357 Y59.7775 
G01 X-106.9131 Y59.8679 
G01 X-107.0742 Y59.9850 
G01 X-107.2150 Y60.1258 
G01 X-107.3321 Y60.2869 
G01 X-107.4225 Y60.4643 
G01 X-107.4840 Y60.6537 
G01 X-107.5152 Y60.8504 
G00 Z2.5400 
G00 X-107.5152 Y63.3904 
G01 Z-0.1778 F254.00 
G01 X-107.5152 Y63.5896 F508.00 
G01 X-107.4840 Y63.7863 
G01 X-107.4225 Y63.9757 
G01 X-107.3321 Y64.1531 
G01 X-107.2150 Y64.3142 
G01 X-107.0742 Y64.4550 
G01 X-106.9131 Y64.5721 
G01 X-106.7357 Y64.6625 
G01 X-106.5463 Y64.7240 
G01 X-106.3496 Y64.7552 
G01 X-106.1504 Y64.7552 
G01 X-105.9537 Y64.7240 
G01 X-105.7643 Y64.6625 
G01 X-105.5869 Y64.5721 
G01 X-105.4258 Y64.4550 
G01 X-105.2850 Y64.3142 
G01 X-105.1679 Y64.1531 
G01 X-105.0775 Y63.9757 
G01 X-105.0160 Y63.7863 
G01 X-104.9848 Y63.5896 
G01 X-104.9848 Y63.3904 
G01 X-105.0160 Y63.1937 
G01 X-105.0775 Y63.0043 
G01 X-105.1679 Y62.8269 
G01 X-105.2850 Y62.6658 
G01 X-105.4258 Y62.5250 
G01 X-105.5869 Y62.4079 
G01 X-105.7643 Y62.3175 
G01 X-105.9537 Y62.2560 
G01 X-106.1504 Y62.2248 
G01 X-106.3496 Y62.2248 
G01 X-106.5463 Y62.2560 
G01 X-106.7357 Y62.3175 
G01 X-106.9131 Y62.4079 
G01 X-107.0742 Y62.5250 
G01 X-107.2150 Y62.6658 
G01 X-107.3321 Y62.8269 
G01 X-107.4225 Y63.0043 
G01 X-107.4840 Y63.1937 
G01 X-107.5152 Y63.3904 
G00 Z2.5400 
G00 X-107.5152 Y65.9304 
G01 Z-0.1778 F254.00 
G01 X-107.5152 Y66.1296 F508.00 
G01 X-107.4840 Y66.3263 
G01 X-107.4225 Y66.5157 
G01 X-107.3321 Y66.6931 
G01 X-107.2150 Y66.8542 
G01 X-107.0742 Y66.9950 
G01 X-106.9131 Y67.1121 
G01 X-106.7357 Y67.2025 
G01 X-106.5463 Y67.2640 
G01 X-106.3496 Y67.2952 
G01 X-106.1504 Y67.2952 
G01 X-105.9537 Y67.2640 
G01 X-105.7643 Y67.2025 
G01 X-105.5869 Y67.1121 
G01 X-105.4258 Y66.9950 
G01 X-105.2850 Y66.8542 
G01 X-105.1679 Y66.6931 
G01 X-105.0775 Y66.5157 
G01 X-105.0160 Y66.3263 
G01 X-104.9848 Y66.1296 
G01 X-104.9848 Y65.9304 
G01 X-105.0160 Y65.7337 
G01 X-105.0775 Y65.5443 
G01 X-105.1679 Y65.3669 
G01 X-105.2850 Y65.2058 
G01 X-105.4258 Y65.0650 
G01 X-105.5869 Y64.9479 
G01 X-105.7643 Y64.8575 
G01 X-105.9537 Y64.7960 
G01 X-106.1504 Y64.7648 
G01 X-106.3496 Y64.7648 
G01 X-106.5463 Y64.7960 
G01 X-106.7357 Y64.8575 
G01 X-106.9131 Y64.9479 
G01 X-107.0742 Y65.0650 
G01 X-107.2150 Y65.2058 
G01 X-107.3321 Y65.3669 
G01 X-107.4225 Y65.5443 
G01 X-107.4840 Y65.7337 
G01 X-107.5152 Y65.9304 
G00 Z2.5400 
G00 X-107.5152 Y68.4704 
G01 Z-0.1778 F254.00 
G01 X-107.5152 Y68.6696 F508.00 
G01 X-107.4840 Y68.8663 
G01 X-107.4225 Y69.0557 
G01 X-107.3321 Y69.2331 
G01 X-107.2150 Y69.3942 
G01 X-107.0742 Y69.5350 
G01 X-106.9131 Y69.6521 
G01 X-106.7357 Y69.7425 
G01 X-106.5463 Y69.8040 
G01 X-106.3496 Y69.8352 
G01 X-106.1504 Y69.8352 
G01 X-105.9537 Y69.8040 
G01 X-105.7643 Y69.7425 
G01 X-105.5869 Y69.6521 
G01 X-105.4258 Y69.5350 
G01 X-105.2850 Y69.3942 
G01 X-105.1679 Y69.2331 
G01 X-105.1414 Y69.1810 
G01 X-104.4310 Y69.1810 
G01 X-104.4310 Y72.8171 
G01 X-104.4048 Y72.9486 
G01 X-104.3535 Y73.0726 
G01 X-104.2790 Y73.1841 
G01 X-104.1841 Y73.2790 
G01 X-83.4341 Y94.0290 
G01 X-83.3226 Y94.1035 
G01 X-83.1986 Y94.1548 
G01 X-83.0671 Y94.1810 
G01 X-79.6829 Y94.1810 
G01 X-79.5514 Y94.1548 
G01 X-79.4274 Y94.1035 
G01 X-79.3159 Y94.0290 
G01 X-79.2210 Y93.9341 
G01 X-71.2179 Y85.9310 
G01 X-51.1829 Y85.9310 
G01 X-51.0514 Y85.9048 
G01 X-50.9274 Y85.8535 
G01 X-50.8159 Y85.7790 
G01 X-50.7210 Y85.6841 
G01 X-50.6465 Y85.5726 
G01 X-50.5952 Y85.4486 
G01 X-50.5690 Y85.3171 
G01 X-50.5690 Y66.2821 
G01 X-46.2179 Y61.9310 
G01 X-42.9329 Y61.9310 
G01 X-42.8014 Y61.9048 
G01 X-42.6774 Y61.8535 
G01 X-42.5659 Y61.7790 
G01 X-42.4710 Y61.6841 
G01 X-42.3965 Y61.5726 
G01 X-42.3452 Y61.4486 
G01 X-42.3190 Y61.3171 
G01 X-42.3190 Y48.4329 
G01 X-42.3452 Y48.3014 
G01 X-42.3965 Y48.1774 
G01 X-42.4710 Y48.0659 
G01 X-42.5659 Y47.9710 
G01 X-43.8159 Y46.7210 
G01 X-43.9274 Y46.6465 
G01 X-44.0514 Y46.5952 
G01 X-44.1829 Y46.5690 
G01 X-44.1945 Y46.5690 
G01 X-44.2085 Y46.5351 
G01 X-44.3136 Y46.3778 
G01 X-44.4474 Y46.2440 
G01 X-44.6047 Y46.1389 
G01 X-44.7795 Y46.0665 
G01 X-44.9650 Y46.0296 
G01 X-46.4750 Y46.0296 
G01 X-46.6605 Y46.0665 
G01 X-46.8353 Y46.1389 
G01 X-46.9926 Y46.2440 
G01 X-47.1264 Y46.3778 
G01 X-47.2315 Y46.5351 
G01 X-47.3039 Y46.7099 
G01 X-47.3408 Y46.8954 
G01 X-47.3408 Y47.0846 
G01 X-47.3039 Y47.2701 
G01 X-47.2315 Y47.4449 
G01 X-47.1264 Y47.6022 
G01 X-46.9926 Y47.7360 
G01 X-46.8353 Y47.8411 
G01 X-46.6605 Y47.9135 
G01 X-46.4750 Y47.9504 
G01 X-44.9650 Y47.9504 
G01 X-44.8675 Y47.9310 
G01 X-44.5321 Y47.9310 
G01 X-43.6810 Y48.7821 
G01 X-43.6810 Y60.5690 
G01 X-46.5671 Y60.5690 
G01 X-46.6986 Y60.5952 
G01 X-46.8226 Y60.6465 
G01 X-46.9341 Y60.7210 
G01 X-51.6841 Y65.4710 
G01 X-51.7790 Y65.5659 
G01 X-51.8535 Y65.6774 
G01 X-51.9048 Y65.8014 
G01 X-51.9310 Y65.9329 
G01 X-51.9310 Y84.5690 
G01 X-71.5671 Y84.5690 
G01 X-71.6986 Y84.5952 
G01 X-71.8226 Y84.6465 
G01 X-71.9341 Y84.7210 
G01 X-80.0321 Y92.8190 
G01 X-82.7179 Y92.8190 
G01 X-103.0690 Y72.4679 
G01 X-103.0690 Y68.4329 
G01 X-103.0952 Y68.3014 
G01 X-103.1465 Y68.1774 
G01 X-103.2210 Y68.0659 
G01 X-103.3159 Y67.9710 
G01 X-103.4274 Y67.8965 
G01 X-103.5514 Y67.8452 
G01 X-103.6829 Y67.8190 
G01 X-105.2318 Y67.8190 
G01 X-105.2850 Y67.7458 
G01 X-105.4258 Y67.6050 
G01 X-105.5869 Y67.4879 
G01 X-105.7643 Y67.3975 
G01 X-105.9537 Y67.3360 
G01 X-106.1504 Y67.3048 
G01 X-106.3496 Y67.3048 
G01 X-106.5463 Y67.3360 
G01 X-106.7357 Y67.3975 
G01 X-106.9131 Y67.4879 
G01 X-107.0742 Y67.6050 
G01 X-107.2150 Y67.7458 
G01 X-107.3321 Y67.9069 
G01 X-107.4225 Y68.0843 
G01 X-107.4840 Y68.2737 
G01 X-107.5152 Y68.4704 
G00 Z2.5400 
G00 X-107.5152 Y76.0904 
G01 Z-0.1778 F254.00 
G01 X-107.5152 Y76.2896 F508.00 
G01 X-107.4840 Y76.4863 
G01 X-107.4225 Y76.6757 
G01 X-107.3321 Y76.8531 
G01 X-107.2150 Y77.0142 
G01 X-107.0742 Y77.1550 
G01 X-106.9131 Y77.2721 
G01 X-106.7357 Y77.3625 
G01 X-106.5463 Y77.4240 
G01 X-106.3496 Y77.4552 
G01 X-106.1504 Y77.4552 
G01 X-105.9537 Y77.4240 
G01 X-105.7643 Y77.3625 
G01 X-105.5869 Y77.2721 
G01 X-105.4258 Y77.1550 
G01 X-105.2850 Y77.0142 
G01 X-105.1679 Y76.8531 
G01 X-105.0775 Y76.6757 
G01 X-105.0160 Y76.4863 
G01 X-104.9848 Y76.2896 
G01 X-104.9848 Y76.0904 
G01 X-105.0160 Y75.8937 
G01 X-105.0775 Y75.7043 
G01 X-105.1679 Y75.5269 
G01 X-105.2850 Y75.3658 
G01 X-105.4258 Y75.2250 
G01 X-105.5869 Y75.1079 
G01 X-105.7643 Y75.0175 
G01 X-105.9537 Y74.9560 
G01 X-106.1504 Y74.9248 
G01 X-106.3496 Y74.9248 
G01 X-106.5463 Y74.9560 
G01 X-106.7357 Y75.0175 
G01 X-106.9131 Y75.1079 
G01 X-107.0742 Y75.2250 
G01 X-107.2150 Y75.3658 
G01 X-107.3321 Y75.5269 
G01 X-107.4225 Y75.7043 
G01 X-107.4840 Y75.8937 
G01 X-107.5152 Y76.0904 
G00 Z2.5400 
G00 X-107.5152 Y78.6304 
G01 Z-0.1778 F254.00 
G01 X-107.5152 Y78.8296 F508.00 
G01 X-107.4840 Y79.0263 
G01 X-107.4225 Y79.2157 
G01 X-107.3321 Y79.3931 
G01 X-107.2150 Y79.5542 
G01 X-107.0742 Y79.6950 
G01 X-106.9131 Y79.8121 
G01 X-106.7357 Y79.9025 
G01 X-106.5463 Y79.9640 
G01 X-106.3496 Y79.9952 
G01 X-106.1504 Y79.9952 
G01 X-105.9537 Y79.9640 
G01 X-105.7643 Y79.9025 
G01 X-105.5869 Y79.8121 
G01 X-105.4258 Y79.6950 
G01 X-105.2850 Y79.5542 
G01 X-105.1679 Y79.3931 
G01 X-105.0775 Y79.2157 
G01 X-105.0160 Y79.0263 
G01 X-104.9848 Y78.8296 
G01 X-104.9848 Y78.6304 
G01 X-105.0160 Y78.4337 
G01 X-105.0775 Y78.2443 
G01 X-105.1679 Y78.0669 
G01 X-105.2850 Y77.9058 
G01 X-105.4258 Y77.7650 
G01 X-105.5869 Y77.6479 
G01 X-105.7643 Y77.5575 
G01 X-105.9537 Y77.4960 
G01 X-106.1504 Y77.4648 
G01 X-106.3496 Y77.4648 
G01 X-106.5463 Y77.4960 
G01 X-106.7357 Y77.5575 
G01 X-106.9131 Y77.6479 
G01 X-107.0742 Y77.7650 
G01 X-107.2150 Y77.9058 
G01 X-107.3321 Y78.0669 
G01 X-107.4225 Y78.2443 
G01 X-107.4840 Y78.4337 
G01 X-107.5152 Y78.6304 
G00 Z2.5400 
G00 X-107.5152 Y81.1704 
G01 Z-0.1778 F254.00 
G01 X-107.5152 Y81.3696 F508.00 
G01 X-107.4840 Y81.5663 
G01 X-107.4225 Y81.7557 
G01 X-107.3321 Y81.9331 
G01 X-107.2150 Y82.0942 
G01 X-107.0742 Y82.2350 
G01 X-106.9131 Y82.3521 
G01 X-106.7357 Y82.4425 
G01 X-106.5463 Y82.5040 
G01 X-106.3496 Y82.5352 
G01 X-106.1504 Y82.5352 
G01 X-105.9537 Y82.5040 
G01 X-105.7643 Y82.4425 
G01 X-105.5869 Y82.3521 
G01 X-105.4258 Y82.2350 
G01 X-105.2850 Y82.0942 
G01 X-105.1679 Y81.9331 
G01 X-105.0775 Y81.7557 
G01 X-105.0160 Y81.5663 
G01 X-104.9848 Y81.3696 
G01 X-104.9848 Y81.1704 
G01 X-105.0160 Y80.9737 
G01 X-105.0775 Y80.7843 
G01 X-105.1679 Y80.6069 
G01 X-105.2850 Y80.4458 
G01 X-105.4258 Y80.3050 
G01 X-105.5869 Y80.1879 
G01 X-105.7643 Y80.0975 
G01 X-105.9537 Y80.0360 
G01 X-106.1504 Y80.0048 
G01 X-106.3496 Y80.0048 
G01 X-106.5463 Y80.0360 
G01 X-106.7357 Y80.0975 
G01 X-106.9131 Y80.1879 
G01 X-107.0742 Y80.3050 
G01 X-107.2150 Y80.4458 
G01 X-107.3321 Y80.6069 
G01 X-107.4225 Y80.7843 
G01 X-107.4840 Y80.9737 
G01 X-107.5152 Y81.1704 
G00 Z2.5400 
G00 X-107.5152 Y83.7104 
G01 Z-0.1778 F254.00 
G01 X-107.5152 Y83.9096 F508.00 
G01 X-107.4840 Y84.1063 
G01 X-107.4225 Y84.2957 
G01 X-107.3321 Y84.4731 
G01 X-107.2150 Y84.6342 
G01 X-107.0742 Y84.7750 
G01 X-106.9131 Y84.8921 
G01 X-106.7357 Y84.9825 
G01 X-106.5463 Y85.0440 
G01 X-106.3496 Y85.0752 
G01 X-106.1504 Y85.0752 
G01 X-105.9537 Y85.0440 
G01 X-105.7643 Y84.9825 
G01 X-105.5869 Y84.8921 
G01 X-105.4258 Y84.7750 
G01 X-105.2850 Y84.6342 
G01 X-105.1679 Y84.4731 
G01 X-105.0775 Y84.2957 
G01 X-105.0160 Y84.1063 
G01 X-104.9848 Y83.9096 
G01 X-104.9848 Y83.7104 
G01 X-105.0160 Y83.5137 
G01 X-105.0775 Y83.3243 
G01 X-105.1679 Y83.1469 
G01 X-105.2850 Y82.9858 
G01 X-105.4258 Y82.8450 
G01 X-105.5869 Y82.7279 
G01 X-105.7643 Y82.6375 
G01 X-105.9537 Y82.5760 
G01 X-106.1504 Y82.5448 
G01 X-106.3496 Y82.5448 
G01 X-106.5463 Y82.5760 
G01 X-106.7357 Y82.6375 
G01 X-106.9131 Y82.7279 
G01 X-107.0742 Y82.8450 
G01 X-107.2150 Y82.9858 
G01 X-107.3321 Y83.1469 
G01 X-107.4225 Y83.3243 
G01 X-107.4840 Y83.5137 
G01 X-107.5152 Y83.7104 
G00 Z2.5400 
G00 X-107.0742 Y87.3150 
G01 Z-0.1778 F254.00 
G01 X-106.9131 Y87.4321 F508.00 
G01 X-106.7357 Y87.5225 
G01 X-106.5463 Y87.5840 
G01 X-106.3496 Y87.6152 
G01 X-106.1504 Y87.6152 
G01 X-105.9537 Y87.5840 
G01 X-105.7643 Y87.5225 
G01 X-105.5869 Y87.4321 
G01 X-105.4258 Y87.3150 
G01 X-105.2850 Y87.1742 
G01 X-105.1679 Y87.0131 
G01 X-105.0775 Y86.8357 
G01 X-105.0160 Y86.6463 
G01 X-104.9848 Y86.4496 
G01 X-104.9848 Y86.2504 
G01 X-105.0160 Y86.0537 
G01 X-105.0775 Y85.8643 
G01 X-105.1679 Y85.6869 
G01 X-105.2850 Y85.5258 
G01 X-105.4258 Y85.3850 
G01 X-105.5869 Y85.2679 
G01 X-105.7643 Y85.1775 
G01 X-105.9537 Y85.1160 
G01 X-106.1504 Y85.0848 
G01 X-106.3496 Y85.0848 
G01 X-106.5463 Y85.1160 
G01 X-106.7357 Y85.1775 
G01 X-106.9131 Y85.2679 
G01 X-107.0742 Y85.3850 
G01 X-107.2150 Y85.5258 
G01 X-107.3321 Y85.6869 
G01 X-107.4087 Y85.8372 
G01 X-107.4486 Y85.8452 
G01 X-107.5726 Y85.8965 
G01 X-107.6841 Y85.9710 
G01 X-107.7790 Y86.0659 
G01 X-114.7821 Y93.0690 
G01 X-125.6867 Y93.0690 
G01 X-125.8303 Y92.9958 
G01 X-125.9893 Y92.9442 
G01 X-126.1544 Y92.9180 
G01 X-127.8456 Y92.9180 
G01 X-128.0107 Y92.9442 
G01 X-128.1697 Y92.9958 
G01 X-128.3186 Y93.0717 
G01 X-128.4538 Y93.1700 
G01 X-128.5720 Y93.2882 
G01 X-128.6703 Y93.4234 
G01 X-128.7462 Y93.5723 
G01 X-128.7978 Y93.7313 
G01 X-128.8240 Y93.8964 
G01 X-128.8240 Y94.0636 
G01 X-128.7978 Y94.2287 
G01 X-128.7462 Y94.3877 
G01 X-128.6703 Y94.5366 
G01 X-128.5720 Y94.6718 
G01 X-128.4538 Y94.7900 
G01 X-128.3186 Y94.8883 
G01 X-128.1697 Y94.9642 
G01 X-128.0107 Y95.0158 
G01 X-127.8456 Y95.0420 
G01 X-126.1544 Y95.0420 
G01 X-125.9893 Y95.0158 
G01 X-125.8303 Y94.9642 
G01 X-125.6814 Y94.8883 
G01 X-125.5462 Y94.7900 
G01 X-125.4280 Y94.6718 
G01 X-125.3297 Y94.5366 
G01 X-125.2759 Y94.4310 
G01 X-114.4329 Y94.4310 
G01 X-114.3014 Y94.4048 
G01 X-114.1774 Y94.3535 
G01 X-114.0659 Y94.2790 
G01 X-107.0881 Y87.3012 
G01 X-107.0742 Y87.3150 
G00 Z2.5400 
G00 X-107.5152 Y88.7904 
G01 Z-0.1778 F254.00 
G01 X-107.5152 Y88.9896 F508.00 
G01 X-107.4840 Y89.1863 
G01 X-107.4225 Y89.3757 
G01 X-107.3321 Y89.5531 
G01 X-107.2150 Y89.7142 
G01 X-107.0742 Y89.8550 
G01 X-106.9131 Y89.9721 
G01 X-106.7357 Y90.0625 
G01 X-106.5463 Y90.1240 
G01 X-106.3496 Y90.1552 
G01 X-106.1504 Y90.1552 
G01 X-105.9537 Y90.1240 
G01 X-105.7643 Y90.0625 
G01 X-105.5869 Y89.9721 
G01 X-105.4258 Y89.8550 
G01 X-105.2850 Y89.7142 
G01 X-105.1679 Y89.5531 
G01 X-105.0775 Y89.3757 
G01 X-105.0160 Y89.1863 
G01 X-104.9848 Y88.9896 
G01 X-104.9848 Y88.7904 
G01 X-105.0160 Y88.5937 
G01 X-105.0775 Y88.4043 
G01 X-105.1679 Y88.2269 
G01 X-105.2850 Y88.0658 
G01 X-105.4258 Y87.9250 
G01 X-105.5869 Y87.8079 
G01 X-105.7643 Y87.7175 
G01 X-105.9537 Y87.6560 
G01 X-106.1504 Y87.6248 
G01 X-106.3496 Y87.6248 
G01 X-106.5463 Y87.6560 
G01 X-106.7357 Y87.7175 
G01 X-106.9131 Y87.8079 
G01 X-107.0742 Y87.9250 
G01 X-107.2150 Y88.0658 
G01 X-107.3321 Y88.2269 
G01 X-107.4225 Y88.4043 
G01 X-107.4840 Y88.5937 
G01 X-107.5152 Y88.7904 
G00 Z2.5400 
G00 X-82.7452 Y88.7904 
G01 Z-0.1778 F254.00 
G01 X-82.7452 Y88.9896 F508.00 
G01 X-82.7140 Y89.1863 
G01 X-82.6525 Y89.3757 
G01 X-82.5621 Y89.5531 
G01 X-82.4450 Y89.7142 
G01 X-82.3042 Y89.8550 
G01 X-82.1431 Y89.9721 
G01 X-81.9657 Y90.0625 
G01 X-81.7763 Y90.1240 
G01 X-81.5796 Y90.1552 
G01 X-81.3804 Y90.1552 
G01 X-81.1837 Y90.1240 
G01 X-80.9943 Y90.0625 
G01 X-80.8169 Y89.9721 
G01 X-80.6558 Y89.8550 
G01 X-80.5150 Y89.7142 
G01 X-80.3979 Y89.5531 
G01 X-80.3075 Y89.3757 
G01 X-80.2460 Y89.1863 
G01 X-80.2148 Y88.9896 
G01 X-80.2148 Y88.7904 
G01 X-80.2460 Y88.5937 
G01 X-80.3075 Y88.4043 
G01 X-80.3979 Y88.2269 
G01 X-80.5150 Y88.0658 
G01 X-80.6558 Y87.9250 
G01 X-80.8169 Y87.8079 
G01 X-80.9943 Y87.7175 
G01 X-81.1837 Y87.6560 
G01 X-81.3804 Y87.6248 
G01 X-81.5796 Y87.6248 
G01 X-81.7763 Y87.6560 
G01 X-81.9657 Y87.7175 
G01 X-82.1431 Y87.8079 
G01 X-82.3042 Y87.9250 
G01 X-82.4450 Y88.0658 
G01 X-82.5621 Y88.2269 
G01 X-82.6525 Y88.4043 
G01 X-82.7140 Y88.5937 
G01 X-82.7452 Y88.7904 
G00 Z2.5400 
G00 X-82.7452 Y86.2504 
G01 Z-0.1778 F254.00 
G01 X-82.7452 Y86.4496 F508.00 
G01 X-82.7140 Y86.6463 
G01 X-82.6525 Y86.8357 
G01 X-82.5621 Y87.0131 
G01 X-82.4450 Y87.1742 
G01 X-82.3042 Y87.3150 
G01 X-82.1431 Y87.4321 
G01 X-81.9657 Y87.5225 
G01 X-81.7763 Y87.5840 
G01 X-81.5796 Y87.6152 
G01 X-81.3804 Y87.6152 
G01 X-81.1837 Y87.5840 
G01 X-80.9943 Y87.5225 
G01 X-80.8169 Y87.4321 
G01 X-80.6558 Y87.3150 
G01 X-80.5150 Y87.1742 
G01 X-80.3979 Y87.0131 
G01 X-80.3075 Y86.8357 
G01 X-80.2460 Y86.6463 
G01 X-80.2148 Y86.4496 
G01 X-80.2148 Y86.2504 
G01 X-80.2460 Y86.0537 
G01 X-80.3075 Y85.8643 
G01 X-80.3979 Y85.6869 
G01 X-80.5150 Y85.5258 
G01 X-80.6558 Y85.3850 
G01 X-80.8169 Y85.2679 
G01 X-80.9943 Y85.1775 
G01 X-81.1837 Y85.1160 
G01 X-81.3804 Y85.0848 
G01 X-81.5796 Y85.0848 
G01 X-81.7763 Y85.1160 
G01 X-81.9657 Y85.1775 
G01 X-82.1431 Y85.2679 
G01 X-82.3042 Y85.3850 
G01 X-82.4450 Y85.5258 
G01 X-82.5621 Y85.6869 
G01 X-82.6525 Y85.8643 
G01 X-82.7140 Y86.0537 
G01 X-82.7452 Y86.2504 
G00 Z2.5400 
G00 X-82.7452 Y83.7104 
G01 Z-0.1778 F254.00 
G01 X-82.7452 Y83.9096 F508.00 
G01 X-82.7140 Y84.1063 
G01 X-82.6525 Y84.2957 
G01 X-82.5621 Y84.4731 
G01 X-82.4450 Y84.6342 
G01 X-82.3042 Y84.7750 
G01 X-82.1431 Y84.8921 
G01 X-81.9657 Y84.9825 
G01 X-81.7763 Y85.0440 
G01 X-81.5796 Y85.0752 
G01 X-81.3804 Y85.0752 
G01 X-81.1837 Y85.0440 
G01 X-80.9943 Y84.9825 
G01 X-80.8169 Y84.8921 
G01 X-80.6558 Y84.7750 
G01 X-80.5150 Y84.6342 
G01 X-80.3979 Y84.4731 
G01 X-80.3075 Y84.2957 
G01 X-80.2460 Y84.1063 
G01 X-80.2148 Y83.9096 
G01 X-80.2148 Y83.7104 
G01 X-80.2460 Y83.5137 
G01 X-80.3075 Y83.3243 
G01 X-80.3979 Y83.1469 
G01 X-80.5150 Y82.9858 
G01 X-80.6558 Y82.8450 
G01 X-80.8169 Y82.7279 
G01 X-80.9943 Y82.6375 
G01 X-81.1837 Y82.5760 
G01 X-81.3804 Y82.5448 
G01 X-81.5796 Y82.5448 
G01 X-81.7763 Y82.5760 
G01 X-81.9657 Y82.6375 
G01 X-82.1431 Y82.7279 
G01 X-82.3042 Y82.8450 
G01 X-82.4450 Y82.9858 
G01 X-82.5621 Y83.1469 
G01 X-82.6525 Y83.3243 
G01 X-82.7140 Y83.5137 
G01 X-82.7452 Y83.7104 
G00 Z2.5400 
G00 X-82.7452 Y81.1704 
G01 Z-0.1778 F254.00 
G01 X-82.7452 Y81.3696 F508.00 
G01 X-82.7140 Y81.5663 
G01 X-82.6525 Y81.7557 
G01 X-82.5621 Y81.9331 
G01 X-82.4450 Y82.0942 
G01 X-82.3042 Y82.2350 
G01 X-82.1431 Y82.3521 
G01 X-81.9657 Y82.4425 
G01 X-81.7763 Y82.5040 
G01 X-81.5796 Y82.5352 
G01 X-81.3804 Y82.5352 
G01 X-81.1837 Y82.5040 
G01 X-80.9943 Y82.4425 
G01 X-80.8169 Y82.3521 
G01 X-80.6558 Y82.2350 
G01 X-80.5150 Y82.0942 
G01 X-80.3979 Y81.9331 
G01 X-80.3928 Y81.9230 
G01 X-80.3014 Y81.9048 
G01 X-80.1774 Y81.8535 
G01 X-80.0659 Y81.7790 
G01 X-79.9710 Y81.6841 
G01 X-78.4679 Y80.1810 
G01 X-60.4329 Y80.1810 
G01 X-60.3014 Y80.1548 
G01 X-60.1774 Y80.1035 
G01 X-60.0659 Y80.0290 
G01 X-59.9710 Y79.9341 
G01 X-59.0762 Y79.0393 
G01 X-59.0143 Y79.0269 
G01 X-58.8673 Y78.9660 
G01 X-58.7349 Y78.8776 
G01 X-58.6224 Y78.7651 
G01 X-58.5340 Y78.6327 
G01 X-58.4731 Y78.4857 
G01 X-58.4420 Y78.3296 
G01 X-58.4420 Y78.1704 
G01 X-58.4731 Y78.0143 
G01 X-58.5340 Y77.8673 
G01 X-58.6224 Y77.7349 
G01 X-58.7349 Y77.6224 
G01 X-58.8673 Y77.5340 
G01 X-59.0143 Y77.4731 
G01 X-59.1704 Y77.4420 
G01 X-59.3296 Y77.4420 
G01 X-59.4857 Y77.4731 
G01 X-59.6327 Y77.5340 
G01 X-59.7651 Y77.6224 
G01 X-59.8776 Y77.7349 
G01 X-59.9660 Y77.8673 
G01 X-60.0269 Y78.0143 
G01 X-60.0393 Y78.0762 
G01 X-60.7821 Y78.8190 
G01 X-78.8171 Y78.8190 
G01 X-78.9486 Y78.8452 
G01 X-79.0726 Y78.8965 
G01 X-79.1841 Y78.9710 
G01 X-80.5869 Y80.3738 
G01 X-80.6558 Y80.3050 
G01 X-80.8169 Y80.1879 
G01 X-80.9943 Y80.0975 
G01 X-81.1837 Y80.0360 
G01 X-81.3804 Y80.0048 
G01 X-81.5796 Y80.0048 
G01 X-81.7763 Y80.0360 
G01 X-81.9657 Y80.0975 
G01 X-82.1431 Y80.1879 
G01 X-82.3042 Y80.3050 
G01 X-82.4450 Y80.4458 
G01 X-82.5621 Y80.6069 
G01 X-82.6525 Y80.7843 
G01 X-82.7140 Y80.9737 
G01 X-82.7452 Y81.1704 
G00 Z2.5400 
G00 X-82.4450 Y79.5542 
G01 Z-0.1778 F254.00 
G01 X-82.3042 Y79.6950 F508.00 
G01 X-82.1431 Y79.8121 
G01 X-81.9657 Y79.9025 
G01 X-81.7763 Y79.9640 
G01 X-81.5796 Y79.9952 
G01 X-81.3804 Y79.9952 
G01 X-81.1837 Y79.9640 
G01 X-80.9943 Y79.9025 
G01 X-80.8169 Y79.8121 
G01 X-80.6558 Y79.6950 
G01 X-80.5150 Y79.5542 
G01 X-80.3979 Y79.3931 
G01 X-80.3075 Y79.2157 
G01 X-80.2460 Y79.0263 
G01 X-80.2148 Y78.8296 
G01 X-80.2148 Y78.6304 
G01 X-80.2460 Y78.4337 
G01 X-80.3075 Y78.2443 
G01 X-80.3979 Y78.0669 
G01 X-80.5150 Y77.9058 
G01 X-80.6558 Y77.7650 
G01 X-80.8169 Y77.6479 
G01 X-80.9943 Y77.5575 
G01 X-81.1837 Y77.4960 
G01 X-81.3804 Y77.4648 
G01 X-81.5796 Y77.4648 
G01 X-81.7763 Y77.4960 
G01 X-81.9657 Y77.5575 
G01 X-82.1431 Y77.6479 
G01 X-82.3042 Y77.7650 
G01 X-82.4450 Y77.9058 
G01 X-82.5621 Y78.0669 
G01 X-84.0671 Y78.0690 
G01 X-84.1986 Y78.0952 
G01 X-84.3226 Y78.1465 
G01 X-84.4341 Y78.2210 
G01 X-84.5290 Y78.3159 
G01 X-84.6035 Y78.4274 
G01 X-84.6548 Y78.5514 
G01 X-84.6810 Y78.6829 
G01 X-84.6810 Y89.8171 
G01 X-84.6548 Y89.9486 
G01 X-84.6035 Y90.0726 
G01 X-84.5290 Y90.1841 
G01 X-84.4341 Y90.2790 
G01 X-82.6841 Y92.0290 
G01 X-82.5726 Y92.1035 
G01 X-82.4486 Y92.1548 
G01 X-82.3171 Y92.1810 
G01 X-80.4329 Y92.1810 
G01 X-80.3014 Y92.1548 
G01 X-80.1774 Y92.1035 
G01 X-80.0659 Y92.0290 
G01 X-79.9710 Y91.9341 
G01 X-72.3262 Y84.2893 
G01 X-72.2643 Y84.2769 
G01 X-72.1173 Y84.2160 
G01 X-71.9849 Y84.1276 
G01 X-71.8724 Y84.0151 
G01 X-71.7840 Y83.8827 
G01 X-71.7231 Y83.7357 
G01 X-71.6920 Y83.5796 
G01 X-71.6920 Y83.4204 
G01 X-71.7231 Y83.2643 
G01 X-71.7840 Y83.1173 
G01 X-71.8724 Y82.9849 
G01 X-71.9849 Y82.8724 
G01 X-72.1173 Y82.7840 
G01 X-72.2643 Y82.7231 
G01 X-72.4204 Y82.6920 
G01 X-72.5796 Y82.6920 
G01 X-72.7357 Y82.7231 
G01 X-72.8827 Y82.7840 
G01 X-73.0151 Y82.8724 
G01 X-73.1276 Y82.9849 
G01 X-73.2160 Y83.1173 
G01 X-73.2769 Y83.2643 
G01 X-73.2893 Y83.3262 
G01 X-80.7821 Y90.8190 
G01 X-81.9679 Y90.8190 
G01 X-83.3190 Y89.4679 
G01 X-83.3190 Y79.4310 
G01 X-82.5346 Y79.4310 
G01 X-82.4450 Y79.5542 
G00 Z2.5400 
G00 X-82.7452 Y76.0904 
G01 Z-0.1778 F254.00 
G01 X-82.7452 Y76.2896 F508.00 
G01 X-82.7140 Y76.4863 
G01 X-82.6525 Y76.6757 
G01 X-82.5621 Y76.8531 
G01 X-82.4450 Y77.0142 
G01 X-82.3042 Y77.1550 
G01 X-82.1431 Y77.2721 
G01 X-81.9657 Y77.3625 
G01 X-81.7763 Y77.4240 
G01 X-81.5796 Y77.4552 
G01 X-81.3804 Y77.4552 
G01 X-81.1837 Y77.4240 
G01 X-80.9943 Y77.3625 
G01 X-80.8169 Y77.2721 
G01 X-80.6558 Y77.1550 
G01 X-80.5150 Y77.0142 
G01 X-80.3979 Y76.8531 
G01 X-80.3075 Y76.6757 
G01 X-80.2460 Y76.4863 
G01 X-80.2148 Y76.2896 
G01 X-80.2148 Y76.0904 
G01 X-80.2460 Y75.8937 
G01 X-80.3075 Y75.7043 
G01 X-80.3979 Y75.5269 
G01 X-80.5150 Y75.3658 
G01 X-80.6558 Y75.2250 
G01 X-80.8169 Y75.1079 
G01 X-80.9943 Y75.0175 
G01 X-81.1837 Y74.9560 
G01 X-81.3804 Y74.9248 
G01 X-81.5796 Y74.9248 
G01 X-81.7763 Y74.9560 
G01 X-81.9657 Y75.0175 
G01 X-82.1431 Y75.1079 
G01 X-82.3042 Y75.2250 
G01 X-82.4450 Y75.3658 
G01 X-82.5621 Y75.5269 
G01 X-82.6525 Y75.7043 
G01 X-82.7140 Y75.8937 
G01 X-82.7452 Y76.0904 
G00 Z2.5400 
G00 X-82.7452 Y73.5504 
G01 Z-0.1778 F254.00 
G01 X-82.7452 Y73.7496 F508.00 
G01 X-82.7140 Y73.9463 
G01 X-82.6525 Y74.1357 
G01 X-82.5621 Y74.3131 
G01 X-82.4450 Y74.4742 
G01 X-82.3042 Y74.6150 
G01 X-82.1431 Y74.7321 
G01 X-81.9657 Y74.8225 
G01 X-81.7763 Y74.8840 
G01 X-81.5796 Y74.9152 
G01 X-81.3804 Y74.9152 
G01 X-81.1837 Y74.8840 
G01 X-80.9943 Y74.8225 
G01 X-80.8169 Y74.7321 
G01 X-80.6558 Y74.6150 
G01 X-80.6269 Y74.5862 
G01 X-78.4341 Y76.7790 
G01 X-78.3226 Y76.8535 
G01 X-78.1986 Y76.9048 
G01 X-78.0671 Y76.9310 
G01 X-55.2880 Y76.9310 
G01 X-55.2730 Y76.9460 
G01 X-55.1157 Y77.0511 
G01 X-54.9409 Y77.1235 
G01 X-54.7554 Y77.1604 
G01 X-53.2454 Y77.1604 
G01 X-53.0599 Y77.1235 
G01 X-52.8851 Y77.0511 
G01 X-52.7278 Y76.9460 
G01 X-52.5940 Y76.8122 
G01 X-52.4889 Y76.6549 
G01 X-52.4165 Y76.4801 
G01 X-52.3796 Y76.2946 
G01 X-52.3796 Y76.1054 
G01 X-52.4165 Y75.9199 
G01 X-52.4889 Y75.7451 
G01 X-52.5940 Y75.5878 
G01 X-52.7278 Y75.4540 
G01 X-52.8851 Y75.3489 
G01 X-53.0599 Y75.2765 
G01 X-53.2454 Y75.2396 
G01 X-54.7554 Y75.2396 
G01 X-54.9409 Y75.2765 
G01 X-55.1157 Y75.3489 
G01 X-55.2730 Y75.4540 
G01 X-55.3880 Y75.5690 
G01 X-77.7179 Y75.5690 
G01 X-79.9710 Y73.3159 
G01 X-80.0659 Y73.2210 
G01 X-80.1774 Y73.1465 
G01 X-80.3014 Y73.0952 
G01 X-80.3474 Y73.0860 
G01 X-80.3979 Y72.9869 
G01 X-80.5150 Y72.8258 
G01 X-80.6558 Y72.6850 
G01 X-80.8169 Y72.5679 
G01 X-80.9943 Y72.4775 
G01 X-81.1837 Y72.4160 
G01 X-81.3804 Y72.3848 
G01 X-81.5796 Y72.3848 
G01 X-81.7763 Y72.4160 
G01 X-81.9657 Y72.4775 
G01 X-82.1431 Y72.5679 
G01 X-82.3042 Y72.6850 
G01 X-82.4450 Y72.8258 
G01 X-82.5621 Y72.9869 
G01 X-82.6525 Y73.1643 
G01 X-82.7140 Y73.3537 
G01 X-82.7452 Y73.5504 
G00 Z2.5400 
G00 X-82.7452 Y71.0104 
G01 Z-0.1778 F254.00 
G01 X-82.7452 Y71.2096 F508.00 
G01 X-82.7140 Y71.4063 
G01 X-82.6525 Y71.5957 
G01 X-82.5621 Y71.7731 
G01 X-82.4450 Y71.9342 
G01 X-82.3042 Y72.0750 
G01 X-82.1431 Y72.1921 
G01 X-81.9657 Y72.2825 
G01 X-81.7763 Y72.3440 
G01 X-81.5796 Y72.3752 
G01 X-81.3804 Y72.3752 
G01 X-81.1837 Y72.3440 
G01 X-80.9943 Y72.2825 
G01 X-80.8169 Y72.1921 
G01 X-80.6558 Y72.0750 
G01 X-80.5150 Y71.9342 
G01 X-80.3979 Y71.7731 
G01 X-80.3075 Y71.5957 
G01 X-80.2460 Y71.4063 
G01 X-80.2148 Y71.2096 
G01 X-80.2148 Y71.0104 
G01 X-80.2460 Y70.8137 
G01 X-80.3075 Y70.6243 
G01 X-80.3979 Y70.4469 
G01 X-80.5150 Y70.2858 
G01 X-80.6558 Y70.1450 
G01 X-80.8169 Y70.0279 
G01 X-80.9943 Y69.9375 
G01 X-81.1837 Y69.8760 
G01 X-81.3804 Y69.8448 
G01 X-81.5796 Y69.8448 
G01 X-81.7763 Y69.8760 
G01 X-81.9657 Y69.9375 
G01 X-82.1431 Y70.0279 
G01 X-82.3042 Y70.1450 
G01 X-82.4450 Y70.2858 
G01 X-82.5621 Y70.4469 
G01 X-82.6525 Y70.6243 
G01 X-82.7140 Y70.8137 
G01 X-82.7452 Y71.0104 
G00 Z2.5400 
G00 X-82.7452 Y68.4704 
G01 Z-0.1778 F254.00 
G01 X-82.7452 Y68.6696 F508.00 
G01 X-82.7140 Y68.8663 
G01 X-82.6525 Y69.0557 
G01 X-82.5621 Y69.2331 
G01 X-82.4450 Y69.3942 
G01 X-82.3042 Y69.5350 
G01 X-82.1431 Y69.6521 
G01 X-81.9657 Y69.7425 
G01 X-81.7763 Y69.8040 
G01 X-81.5796 Y69.8352 
G01 X-81.3804 Y69.8352 
G01 X-81.1837 Y69.8040 
G01 X-80.9943 Y69.7425 
G01 X-80.8169 Y69.6521 
G01 X-80.6558 Y69.5350 
G01 X-80.5150 Y69.3942 
G01 X-80.3979 Y69.2331 
G01 X-80.3075 Y69.0557 
G01 X-80.2460 Y68.8663 
G01 X-80.2148 Y68.6696 
G01 X-80.2148 Y68.4704 
G01 X-80.2460 Y68.2737 
G01 X-80.3075 Y68.0843 
G01 X-80.3979 Y67.9069 
G01 X-80.5150 Y67.7458 
G01 X-80.6558 Y67.6050 
G01 X-80.8169 Y67.4879 
G01 X-80.9943 Y67.3975 
G01 X-81.1837 Y67.3360 
G01 X-81.3804 Y67.3048 
G01 X-81.5796 Y67.3048 
G01 X-81.7763 Y67.3360 
G01 X-81.9657 Y67.3975 
G01 X-82.1431 Y67.4879 
G01 X-82.3042 Y67.6050 
G01 X-82.4450 Y67.7458 
G01 X-82.5621 Y67.9069 
G01 X-82.6525 Y68.0843 
G01 X-82.7140 Y68.2737 
G01 X-82.7452 Y68.4704 
G00 Z2.5400 
G00 X-82.7452 Y65.9304 
G01 Z-0.1778 F254.00 
G01 X-82.7452 Y66.1296 F508.00 
G01 X-82.7140 Y66.3263 
G01 X-82.6525 Y66.5157 
G01 X-82.5621 Y66.6931 
G01 X-82.4450 Y66.8542 
G01 X-82.3042 Y66.9950 
G01 X-82.1431 Y67.1121 
G01 X-81.9657 Y67.2025 
G01 X-81.7763 Y67.2640 
G01 X-81.5796 Y67.2952 
G01 X-81.3804 Y67.2952 
G01 X-81.1837 Y67.2640 
G01 X-80.9943 Y67.2025 
G01 X-80.8169 Y67.1121 
G01 X-80.6558 Y66.9950 
G01 X-80.5150 Y66.8542 
G01 X-80.3979 Y66.6931 
G01 X-80.3075 Y66.5157 
G01 X-80.2460 Y66.3263 
G01 X-80.2148 Y66.1296 
G01 X-80.2148 Y65.9304 
G01 X-80.2460 Y65.7337 
G01 X-80.3075 Y65.5443 
G01 X-80.3979 Y65.3669 
G01 X-80.5150 Y65.2058 
G01 X-80.6558 Y65.0650 
G01 X-80.8169 Y64.9479 
G01 X-80.9943 Y64.8575 
G01 X-81.1837 Y64.7960 
G01 X-81.3804 Y64.7648 
G01 X-81.5796 Y64.7648 
G01 X-81.7763 Y64.7960 
G01 X-81.9657 Y64.8575 
G01 X-82.1431 Y64.9479 
G01 X-82.3042 Y65.0650 
G01 X-82.4450 Y65.2058 
G01 X-82.5621 Y65.3669 
G01 X-82.6525 Y65.5443 
G01 X-82.7140 Y65.7337 
G01 X-82.7452 Y65.9304 
G00 Z2.5400 
G00 X-82.7452 Y63.3904 
G01 Z-0.1778 F254.00 
G01 X-82.7452 Y63.5896 F508.00 
G01 X-82.7140 Y63.7863 
G01 X-82.6525 Y63.9757 
G01 X-82.5621 Y64.1531 
G01 X-82.4450 Y64.3142 
G01 X-82.3042 Y64.4550 
G01 X-82.1431 Y64.5721 
G01 X-81.9657 Y64.6625 
G01 X-81.7763 Y64.7240 
G01 X-81.5796 Y64.7552 
G01 X-81.3804 Y64.7552 
G01 X-81.1837 Y64.7240 
G01 X-80.9943 Y64.6625 
G01 X-80.8169 Y64.5721 
G01 X-80.6558 Y64.4550 
G01 X-80.5150 Y64.3142 
G01 X-80.3979 Y64.1531 
G01 X-80.3075 Y63.9757 
G01 X-80.2460 Y63.7863 
G01 X-80.2148 Y63.5896 
G01 X-80.2148 Y63.3904 
G01 X-80.2460 Y63.1937 
G01 X-80.3075 Y63.0043 
G01 X-80.3979 Y62.8269 
G01 X-80.5150 Y62.6658 
G01 X-80.6558 Y62.5250 
G01 X-80.8169 Y62.4079 
G01 X-80.9943 Y62.3175 
G01 X-81.1837 Y62.2560 
G01 X-81.3804 Y62.2248 
G01 X-81.5796 Y62.2248 
G01 X-81.7763 Y62.2560 
G01 X-81.9657 Y62.3175 
G01 X-82.1431 Y62.4079 
G01 X-82.3042 Y62.5250 
G01 X-82.4450 Y62.6658 
G01 X-82.5621 Y62.8269 
G01 X-82.6525 Y63.0043 
G01 X-82.7140 Y63.1937 
G01 X-82.7452 Y63.3904 
G00 Z2.5400 
G00 X-82.7452 Y60.8504 
G01 Z-0.1778 F254.00 
G01 X-82.7452 Y61.0496 F508.00 
G01 X-82.7140 Y61.2463 
G01 X-82.6525 Y61.4357 
G01 X-82.5621 Y61.6131 
G01 X-82.4450 Y61.7742 
G01 X-82.3042 Y61.9150 
G01 X-82.1431 Y62.0321 
G01 X-81.9657 Y62.1225 
G01 X-81.7763 Y62.1840 
G01 X-81.5796 Y62.2152 
G01 X-81.3804 Y62.2152 
G01 X-81.1837 Y62.1840 
G01 X-80.9943 Y62.1225 
G01 X-80.8169 Y62.0321 
G01 X-80.6558 Y61.9150 
G01 X-80.5150 Y61.7742 
G01 X-80.3979 Y61.6131 
G01 X-80.3075 Y61.4357 
G01 X-80.2460 Y61.2463 
G01 X-80.2148 Y61.0496 
G01 X-80.2148 Y60.8504 
G01 X-80.2460 Y60.6537 
G01 X-80.3075 Y60.4643 
G01 X-80.3979 Y60.2869 
G01 X-80.5150 Y60.1258 
G01 X-80.6558 Y59.9850 
G01 X-80.8169 Y59.8679 
G01 X-80.9943 Y59.7775 
G01 X-81.1837 Y59.7160 
G01 X-81.3804 Y59.6848 
G01 X-81.5796 Y59.6848 
G01 X-81.7763 Y59.7160 
G01 X-81.9657 Y59.7775 
G01 X-82.1431 Y59.8679 
G01 X-82.3042 Y59.9850 
G01 X-82.4450 Y60.1258 
G01 X-82.5621 Y60.2869 
G01 X-82.6525 Y60.4643 
G01 X-82.7140 Y60.6537 
G01 X-82.7452 Y60.8504 
G00 Z2.5400 
G00 X-43.2528 Y88.4529 
G01 Z-0.1778 F254.00 
G01 X-43.1075 Y88.6528 F508.00 
G01 X-42.9328 Y88.8275 
G01 X-42.7329 Y88.9728 
G01 X-42.5127 Y89.0850 
G01 X-42.2776 Y89.1613 
G01 X-42.0336 Y89.2000 
G01 X-41.7864 Y89.2000 
G01 X-41.5424 Y89.1613 
G01 X-41.3073 Y89.0850 
G01 X-41.0871 Y88.9728 
G01 X-40.8872 Y88.8275 
G01 X-40.7125 Y88.6528 
G01 X-40.5672 Y88.4529 
G01 X-40.4550 Y88.2327 
G01 X-40.3787 Y87.9976 
G01 X-40.3400 Y87.7536 
G01 X-40.3400 Y87.5064 
G01 X-40.3787 Y87.2624 
G01 X-40.4550 Y87.0273 
G01 X-40.5672 Y86.8071 
G01 X-40.7125 Y86.6072 
G01 X-40.8872 Y86.4325 
G01 X-41.0871 Y86.2872 
G01 X-41.3073 Y86.1750 
G01 X-41.5424 Y86.0987 
G01 X-41.7864 Y86.0600 
G01 X-42.0336 Y86.0600 
G01 X-42.2776 Y86.0987 
G01 X-42.5127 Y86.1750 
G01 X-42.7329 Y86.2872 
G01 X-42.9328 Y86.4325 
G01 X-43.1075 Y86.6072 
G01 X-43.2528 Y86.8071 
G01 X-43.3650 Y87.0273 
G01 X-43.3785 Y87.0690 
G01 X-55.4829 Y87.0690 
G01 X-55.5780 Y86.9382 
G01 X-55.6962 Y86.8200 
G01 X-55.8314 Y86.7217 
G01 X-55.9803 Y86.6458 
G01 X-56.1393 Y86.5941 
G01 X-56.3044 Y86.5680 
G01 X-57.9956 Y86.5680 
G01 X-58.1607 Y86.5941 
G01 X-58.3197 Y86.6458 
G01 X-58.4686 Y86.7217 
G01 X-58.6038 Y86.8200 
G01 X-58.7220 Y86.9382 
G01 X-58.8203 Y87.0734 
G01 X-58.8962 Y87.2223 
G01 X-58.9478 Y87.3813 
G01 X-58.9740 Y87.5464 
G01 X-58.9740 Y87.7136 
G01 X-58.9478 Y87.8787 
G01 X-58.8962 Y88.0377 
G01 X-58.8203 Y88.1866 
G01 X-58.7220 Y88.3218 
G01 X-58.6038 Y88.4400 
G01 X-58.4686 Y88.5383 
G01 X-58.3197 Y88.6142 
G01 X-58.1607 Y88.6658 
G01 X-57.9956 Y88.6920 
G01 X-56.3044 Y88.6920 
G01 X-56.1393 Y88.6658 
G01 X-55.9803 Y88.6142 
G01 X-55.8314 Y88.5383 
G01 X-55.6962 Y88.4400 
G01 X-55.6871 Y88.4310 
G01 X-43.2639 Y88.4310 
G01 X-43.2528 Y88.4529 
G00 Z2.5400 
G00 X-28.9004 Y80.8822 
G01 Z-0.1778 F254.00 
G01 X-28.9004 Y81.6778 F508.00 
G01 X-28.3378 Y82.2404 
G01 X-27.5422 Y82.2404 
G01 X-26.9796 Y81.6778 
G01 X-26.9796 Y80.8822 
G01 X-27.5422 Y80.3196 
G01 X-28.3378 Y80.3196 
G01 X-28.9004 Y80.8822 
G00 Z2.5400 
G00 X-39.0604 Y80.8822 
G01 Z-0.1778 F254.00 
G01 X-39.0604 Y81.6778 F508.00 
G01 X-38.4978 Y82.2404 
G01 X-37.7022 Y82.2404 
G01 X-37.1396 Y81.6778 
G01 X-37.1396 Y80.8822 
G01 X-37.7022 Y80.3196 
G01 X-38.4978 Y80.3196 
G01 X-39.0604 Y80.8822 
G00 Z2.5400 
G00 X-28.9004 Y75.8022 
G01 Z-0.1778 F254.00 
G01 X-28.9004 Y76.5978 F508.00 
G01 X-28.3378 Y77.1604 
G01 X-27.5422 Y77.1604 
G01 X-26.9796 Y76.5978 
G01 X-26.9796 Y75.8022 
G01 X-27.5422 Y75.2396 
G01 X-28.3378 Y75.2396 
G01 X-28.9004 Y75.8022 
G00 Z2.5400 
G00 X-39.0604 Y75.8022 
G01 Z-0.1778 F254.00 
G01 X-39.0604 Y76.5978 F508.00 
G01 X-38.4978 Y77.1604 
G01 X-37.7022 Y77.1604 
G01 X-37.1396 Y76.5978 
G01 X-37.1396 Y75.8022 
G01 X-37.7022 Y75.2396 
G01 X-38.4978 Y75.2396 
G01 X-39.0604 Y75.8022 
G00 Z2.5400 
G00 X-28.9004 Y70.7222 
G01 Z-0.1778 F254.00 
G01 X-28.9004 Y71.5178 F508.00 
G01 X-28.3378 Y72.0804 
G01 X-27.5422 Y72.0804 
G01 X-26.9796 Y71.5178 
G01 X-26.9796 Y70.7222 
G01 X-27.5422 Y70.1596 
G01 X-28.3378 Y70.1596 
G01 X-28.9004 Y70.7222 
G00 Z2.5400 
G00 X-39.0604 Y70.7222 
G01 Z-0.1778 F254.00 
G01 X-39.0604 Y71.5178 F508.00 
G01 X-38.4978 Y72.0804 
G01 X-37.7022 Y72.0804 
G01 X-37.1396 Y71.5178 
G01 X-37.1396 Y70.7222 
G01 X-37.7022 Y70.1596 
G01 X-38.4978 Y70.1596 
G01 X-39.0604 Y70.7222 
G00 Z2.5400 
G00 X-28.9004 Y65.6422 
G01 Z-0.1778 F254.00 
G01 X-28.9004 Y66.4378 F508.00 
G01 X-28.3378 Y67.0004 
G01 X-27.5422 Y67.0004 
G01 X-27.2228 Y66.6810 
G01 X-13.9329 Y66.6810 
G01 X-13.8014 Y66.6548 
G01 X-13.6774 Y66.6035 
G01 X-13.5659 Y66.5290 
G01 X-13.4710 Y66.4341 
G01 X-13.3965 Y66.3226 
G01 X-13.3452 Y66.1986 
G01 X-13.3190 Y66.0671 
G01 X-13.3190 Y62.4329 
G01 X-13.3452 Y62.3014 
G01 X-13.3965 Y62.1774 
G01 X-13.4710 Y62.0659 
G01 X-13.5659 Y61.9710 
G01 X-15.0659 Y60.4710 
G01 X-15.1774 Y60.3965 
G01 X-15.3014 Y60.3452 
G01 X-15.4329 Y60.3190 
G01 X-18.7179 Y60.3190 
G01 X-42.3159 Y36.7210 
G01 X-42.4274 Y36.6465 
G01 X-42.5514 Y36.5952 
G01 X-42.6829 Y36.5690 
G01 X-44.1323 Y36.5690 
G01 X-44.1361 Y36.5499 
G01 X-44.2085 Y36.3751 
G01 X-44.3136 Y36.2178 
G01 X-44.4474 Y36.0840 
G01 X-44.6047 Y35.9789 
G01 X-44.7795 Y35.9065 
G01 X-44.9650 Y35.8696 
G01 X-46.4750 Y35.8696 
G01 X-46.6605 Y35.9065 
G01 X-46.8353 Y35.9789 
G01 X-46.9926 Y36.0840 
G01 X-47.1264 Y36.2178 
G01 X-47.2315 Y36.3751 
G01 X-47.3039 Y36.5499 
G01 X-47.3408 Y36.7354 
G01 X-47.3408 Y36.9246 
G01 X-47.3039 Y37.1101 
G01 X-47.2315 Y37.2849 
G01 X-47.1264 Y37.4422 
G01 X-46.9926 Y37.5760 
G01 X-46.8353 Y37.6811 
G01 X-46.6605 Y37.7535 
G01 X-46.4750 Y37.7904 
G01 X-45.6670 Y37.7904 
G01 X-45.5726 Y37.8535 
G01 X-45.4486 Y37.9048 
G01 X-45.3171 Y37.9310 
G01 X-43.0321 Y37.9310 
G01 X-19.5290 Y61.4341 
G01 X-19.4341 Y61.5290 
G01 X-19.3226 Y61.6035 
G01 X-19.1986 Y61.6548 
G01 X-19.0671 Y61.6810 
G01 X-15.7821 Y61.6810 
G01 X-14.6810 Y62.7821 
G01 X-14.6810 Y65.3190 
G01 X-27.3028 Y65.3190 
G01 X-27.5422 Y65.0796 
G01 X-28.3378 Y65.0796 
G01 X-28.9004 Y65.6422 
G00 Z2.5400 
G00 X-39.0604 Y65.6422 
G01 Z-0.1778 F254.00 
G01 X-39.0604 Y66.4378 F508.00 
G01 X-38.4978 Y67.0004 
G01 X-37.7022 Y67.0004 
G01 X-37.1396 Y66.4378 
G01 X-37.1396 Y65.6422 
G01 X-37.7022 Y65.0796 
G01 X-38.4978 Y65.0796 
G01 X-39.0604 Y65.6422 
G00 Z2.5400 
G00 X-17.8350 Y43.0988 
G01 Z-0.1778 F254.00 
G01 X-17.8350 Y43.3034 F508.00 
G01 X-17.8030 Y43.5055 
G01 X-17.7398 Y43.7001 
G01 X-17.6469 Y43.8824 
G01 X-17.5266 Y44.0480 
G01 X-17.3819 Y44.1927 
G01 X-17.2163 Y44.3130 
G01 X-17.0340 Y44.4059 
G01 X-16.8394 Y44.4691 
G01 X-16.6373 Y44.5011 
G01 X-16.4327 Y44.5011 
G01 X-16.2306 Y44.4691 
G01 X-16.0360 Y44.4059 
G01 X-15.8537 Y44.3130 
G01 X-15.6881 Y44.1927 
G01 X-15.5434 Y44.0480 
G01 X-15.4231 Y43.8824 
G01 X-15.3302 Y43.7001 
G01 X-15.2670 Y43.5055 
G01 X-15.2350 Y43.3034 
G01 X-15.2350 Y43.0988 
G01 X-15.2670 Y42.8967 
G01 X-15.3302 Y42.7021 
G01 X-15.4231 Y42.5198 
G01 X-15.5434 Y42.3542 
G01 X-15.6881 Y42.2095 
G01 X-15.8537 Y42.0892 
G01 X-16.0360 Y41.9963 
G01 X-16.2306 Y41.9331 
G01 X-16.4327 Y41.9011 
G01 X-16.6373 Y41.9011 
G01 X-16.8394 Y41.9331 
G01 X-17.0340 Y41.9963 
G01 X-17.2163 Y42.0892 
G01 X-17.3819 Y42.2095 
G01 X-17.5266 Y42.3542 
G01 X-17.6469 Y42.5198 
G01 X-17.7398 Y42.7021 
G01 X-17.8030 Y42.8967 
G01 X-17.8350 Y43.0988 
G00 Z2.5400 
G00 X-17.8350 Y32.9388 
G01 Z-0.1778 F254.00 
G01 X-17.8350 Y33.1434 F508.00 
G01 X-17.8030 Y33.3455 
G01 X-17.7398 Y33.5401 
G01 X-17.6469 Y33.7224 
G01 X-17.5266 Y33.8880 
G01 X-17.3819 Y34.0327 
G01 X-17.2163 Y34.1530 
G01 X-17.0340 Y34.2459 
G01 X-16.8394 Y34.3091 
G01 X-16.6373 Y34.3411 
G01 X-16.4327 Y34.3411 
G01 X-16.2306 Y34.3091 
G01 X-16.0360 Y34.2459 
G01 X-15.8537 Y34.1530 
G01 X-15.6881 Y34.0327 
G01 X-15.5434 Y33.8880 
G01 X-15.4231 Y33.7224 
G01 X-15.3302 Y33.5401 
G01 X-15.2670 Y33.3455 
G01 X-15.2350 Y33.1434 
G01 X-15.2350 Y32.9388 
G01 X-15.2670 Y32.7367 
G01 X-15.3302 Y32.5421 
G01 X-15.4231 Y32.3597 
G01 X-15.5434 Y32.1942 
G01 X-15.6881 Y32.0495 
G01 X-15.8537 Y31.9292 
G01 X-16.0360 Y31.8363 
G01 X-16.2306 Y31.7731 
G01 X-16.4327 Y31.7411 
G01 X-16.6373 Y31.7411 
G01 X-16.8394 Y31.7731 
G01 X-17.0340 Y31.8363 
G01 X-17.2163 Y31.9292 
G01 X-17.3819 Y32.0495 
G01 X-17.5266 Y32.1942 
G01 X-17.6469 Y32.3597 
G01 X-17.7398 Y32.5421 
G01 X-17.8030 Y32.7367 
G01 X-17.8350 Y32.9388 
G00 Z2.5400 
G00 X-53.2454 Y28.9004 
G01 Z-0.1778 F254.00 
G01 X-53.0599 Y28.8635 F508.00 
G01 X-52.8851 Y28.7911 
G01 X-52.7278 Y28.6860 
G01 X-52.5940 Y28.5522 
G01 X-52.4889 Y28.3949 
G01 X-52.4165 Y28.2201 
G01 X-52.3796 Y28.0346 
G01 X-52.3796 Y27.8454 
