(.../nicki/eagle-7.2.0/ulp/pcb-gcode.ulp)
(Copyright 2005 - 2012 by John Johnson)
(See readme.txt for licensing terms.)
(This file generated from the board:)
(.../nicki/Schreibtisch/rad/rad.brd)
(Current profile is .../eagle-7.2.0/ulp/profiles/generic.pp  )
(This file generated 22.06.21 15:42)
(Settings from pcb-machine.h)
(  Tool Size)
(0.2000 )
(Z Axis Settings)
(  High     Up        Down     Drill)
(12.7000 	2.5400 	-0.1778 	-0.8128 )
(spindle on time = 3.0000)
(milling depth = -0.2540)
(text depth = -0.1270)
(tool change at 12.7000 15.2400 25.4000 )
(feed rate xy = F508.00 )
(feed rate z  = F254.00 )
(Settings from pcb-defaults.h)
(isolate min = 0.2000)
(isolate max = 0.5080)
(isolate step = 0.1270)
(Generated top outlines, bottom outlines, bottom drill, )
(Unit of measure: mm)
( Tool|       Size       |  Min Sub |  Max Sub |   Count )
( T01  0.610mm 0.0240in 0.0000in 0.0000in )
( T02  0.813mm 0.0320in 0.0000in 0.0000in )
( T03  1.000mm 0.0394in 0.0000in 0.0000in )
( T04  1.016mm 0.0400in 0.0000in 0.0000in )
( T05  1.300mm 0.0512in 0.0000in 0.0000in )
(Metric Mode)
G21
(Absolute Coordinates)
G90
M05
G00 Z25.4000 
G00 X12.7000 Y15.2400 
M06 T01  ; 0.6096 
G01 Z0.0000 F254.00 
M06 T01  ; 0.6096 
G00 Z2.5400 
M03
G04 P3.000000
G00 Z2.540000
G00 X-38.2500 Y18.2500 
G01 Z-0.8128 F254.00 
G01 Z2.540000
(R2.5400  P1.000000)
(G00 Z2.540000)
G00 X-42.2500 Y35.0000 
G01 Z-0.812800
G01 Z2.540000
(G00 Z2.540000)
G00 X-48.0000 Y31.2500 
G01 Z-0.812800
G01 Z2.540000
(G00 Z2.540000)
G00 X-55.2500 Y10.2500 
G01 Z-0.812800
G01 Z2.540000
(G00 Z2.540000)
G00 X-55.5000 Y15.2500 
G01 Z-0.812800
G01 Z2.540000
(G00 Z2.540000)
G00 X-55.7500 Y18.2500 
G01 Z-0.812800
G01 Z2.540000
(G00 Z2.540000)
G00 X-56.7500 Y36.2500 
G01 Z-0.812800
G01 Z2.540000
(G00 Z2.540000)
G00 X-59.2500 Y78.2500 
G01 Z-0.812800
G01 Z2.540000
(G00 Z2.540000)
G00 X-63.2500 Y74.2500 
G01 Z-0.812800
G01 Z2.540000
(G00 Z2.540000)
G00 X-72.5000 Y83.5000 
G01 Z-0.812800
G01 Z2.540000
(G00 Z2.540000)
G00 X-74.5000 Y55.0000 
G01 Z-0.812800
G01 Z2.540000
(G00 Z2.540000)
G00 X-76.5000 Y81.5000 
G01 Z-0.812800
G01 Z2.540000
(G00 Z2.540000)
G00 X-95.0000 Y48.7500 
G01 Z-0.812800
G01 Z2.540000
(G00 Z2.540000)
G00 X-101.7500 Y58.2500 
G01 Z-0.812800
G01 Z2.540000
(G00 Z2.540000)
G00 X-105.2500 Y48.7500 
G01 Z-0.812800
G01 Z2.540000
(G00 Z2.540000)
G00 X-112.7500 Y72.7500 
G01 Z-0.812800
G01 Z2.540000
(G00 Z2.540000)
G00 X-21.5000 Y28.2500 
G01 Z-0.812800
G01 Z2.540000
M05
G00 Z25.4000 
M06 T02  ; 0.8128 
G01 Z0.0000 F254.00 
M06 T02  ; 0.8128 
G00 Z2.5400 
M03
G04 P3.000000
G00 Z2.540000
G00 X-38.1000 Y66.0400 
G01 Z-0.8128 F254.00 
G01 Z2.540000
(R2.5400  P1.000000)
(G00 Z2.540000)
G00 X-38.1000 Y71.1200 
G01 Z-0.812800
G01 Z2.540000
(G00 Z2.540000)
G00 X-38.1000 Y76.2000 
G01 Z-0.812800
G01 Z2.540000
(G00 Z2.540000)
G00 X-38.1000 Y81.2800 
G01 Z-0.812800
G01 Z2.540000
(G00 Z2.540000)
G00 X-45.7200 Y36.8300 
G01 Z-0.812800
G01 Z2.540000
(G00 Z2.540000)
G00 X-45.7200 Y39.3700 
G01 Z-0.812800
G01 Z2.540000
(G00 Z2.540000)
G00 X-45.7200 Y41.9100 
G01 Z-0.812800
G01 Z2.540000
(G00 Z2.540000)
G00 X-45.7200 Y44.4500 
G01 Z-0.812800
G01 Z2.540000
(G00 Z2.540000)
G00 X-45.7200 Y46.9900 
G01 Z-0.812800
G01 Z2.540000
(G00 Z2.540000)
G00 X-45.7200 Y49.5300 
G01 Z-0.812800
G01 Z2.540000
(G00 Z2.540000)
G00 X-45.7200 Y52.0700 
G01 Z-0.812800
G01 Z2.540000
(G00 Z2.540000)
G00 X-45.7200 Y54.6100 
G01 Z-0.812800
G01 Z2.540000
(G00 Z2.540000)
G00 X-45.7200 Y57.1500 
G01 Z-0.812800
G01 Z2.540000
(G00 Z2.540000)
G00 X-45.7200 Y63.5000 
G01 Z-0.812800
G01 Z2.540000
(G00 Z2.540000)
G00 X-45.7200 Y66.0400 
G01 Z-0.812800
G01 Z2.540000
(G00 Z2.540000)
G00 X-45.7200 Y68.5800 
G01 Z-0.812800
G01 Z2.540000
(G00 Z2.540000)
G00 X-45.7200 Y71.1200 
G01 Z-0.812800
G01 Z2.540000
(G00 Z2.540000)
G00 X-45.7200 Y73.6600 
G01 Z-0.812800
G01 Z2.540000
(G00 Z2.540000)
G00 X-45.7200 Y76.2000 
G01 Z-0.812800
G01 Z2.540000
(G00 Z2.540000)
G00 X-45.7200 Y78.7400 
G01 Z-0.812800
G01 Z2.540000
(G00 Z2.540000)
G00 X-45.7200 Y81.2800 
G01 Z-0.812800
G01 Z2.540000
(G00 Z2.540000)
G00 X-45.7200 Y20.3200 
G01 Z-0.812800
G01 Z2.540000
(G00 Z2.540000)
G00 X-45.7200 Y22.8600 
G01 Z-0.812800
G01 Z2.540000
(G00 Z2.540000)
G00 X-45.7200 Y27.9400 
G01 Z-0.812800
G01 Z2.540000
(G00 Z2.540000)
G00 X-45.7200 Y30.4800 
G01 Z-0.812800
G01 Z2.540000
(G00 Z2.540000)
G00 X-53.3400 Y36.8300 
G01 Z-0.812800
G01 Z2.540000
(G00 Z2.540000)
G00 X-53.3400 Y39.3700 
G01 Z-0.812800
G01 Z2.540000
(G00 Z2.540000)
G00 X-53.3400 Y41.9100 
G01 Z-0.812800
G01 Z2.540000
(G00 Z2.540000)
G00 X-53.3400 Y44.4500 
G01 Z-0.812800
G01 Z2.540000
(G00 Z2.540000)
G00 X-53.3400 Y46.9900 
G01 Z-0.812800
G01 Z2.540000
(G00 Z2.540000)
G00 X-53.3400 Y49.5300 
G01 Z-0.812800
G01 Z2.540000
(G00 Z2.540000)
G00 X-53.3400 Y52.0700 
G01 Z-0.812800
G01 Z2.540000
(G00 Z2.540000)
G00 X-53.3400 Y54.6100 
G01 Z-0.812800
G01 Z2.540000
(G00 Z2.540000)
G00 X-53.3400 Y57.1500 
G01 Z-0.812800
G01 Z2.540000
(G00 Z2.540000)
G00 X-53.3400 Y63.5000 
G01 Z-0.812800
G01 Z2.540000
(G00 Z2.540000)
G00 X-53.3400 Y66.0400 
G01 Z-0.812800
G01 Z2.540000
(G00 Z2.540000)
G00 X-53.3400 Y68.5800 
G01 Z-0.812800
G01 Z2.540000
(G00 Z2.540000)
G00 X-53.3400 Y71.1200 
G01 Z-0.812800
G01 Z2.540000
(G00 Z2.540000)
G00 X-53.3400 Y73.6600 
G01 Z-0.812800
G01 Z2.540000
(G00 Z2.540000)
G00 X-53.3400 Y76.2000 
G01 Z-0.812800
G01 Z2.540000
(G00 Z2.540000)
G00 X-53.3400 Y78.7400 
G01 Z-0.812800
G01 Z2.540000
(G00 Z2.540000)
G00 X-53.3400 Y81.2800 
G01 Z-0.812800
G01 Z2.540000
(G00 Z2.540000)
G00 X-53.3400 Y20.3200 
G01 Z-0.812800
G01 Z2.540000
(G00 Z2.540000)
G00 X-53.3400 Y22.8600 
G01 Z-0.812800
G01 Z2.540000
(G00 Z2.540000)
G00 X-53.3400 Y27.9400 
G01 Z-0.812800
G01 Z2.540000
(G00 Z2.540000)
G00 X-53.3400 Y30.4800 
G01 Z-0.812800
G01 Z2.540000
(G00 Z2.540000)
G00 X-63.5000 Y30.4800 
G01 Z-0.812800
G01 Z2.540000
(G00 Z2.540000)
G00 X-64.7700 Y22.8600 
G01 Z-0.812800
G01 Z2.540000
(G00 Z2.540000)
G00 X-73.6600 Y30.4800 
G01 Z-0.812800
G01 Z2.540000
(G00 Z2.540000)
G00 X-74.9300 Y22.8600 
G01 Z-0.812800
G01 Z2.540000
(G00 Z2.540000)
G00 X-27.9400 Y66.0400 
G01 Z-0.812800
G01 Z2.540000
(G00 Z2.540000)
G00 X-27.9400 Y71.1200 
G01 Z-0.812800
G01 Z2.540000
(G00 Z2.540000)
G00 X-27.9400 Y76.2000 
G01 Z-0.812800
G01 Z2.540000
(G00 Z2.540000)
G00 X-27.9400 Y81.2800 
G01 Z-0.812800
G01 Z2.540000
M05
G00 Z25.4000 
M06 T03  ; 1.0000 
G01 Z0.0000 F254.00 
M06 T03  ; 1.0000 
G00 Z2.5400 
M03
G04 P3.000000
G00 Z2.540000
G00 X-81.4800 Y53.3300 
G01 Z-0.8128 F254.00 
G01 Z2.540000
(R2.5400  P1.000000)
(G00 Z2.540000)
G00 X-81.4800 Y55.8700 
G01 Z-0.812800
G01 Z2.540000
(G00 Z2.540000)
G00 X-81.4800 Y58.4100 
G01 Z-0.812800
G01 Z2.540000
(G00 Z2.540000)
G00 X-81.4800 Y60.9500 
G01 Z-0.812800
G01 Z2.540000
(G00 Z2.540000)
G00 X-81.4800 Y63.4900 
G01 Z-0.812800
G01 Z2.540000
(G00 Z2.540000)
G00 X-81.4800 Y66.0300 
G01 Z-0.812800
G01 Z2.540000
(G00 Z2.540000)
G00 X-81.4800 Y68.5700 
G01 Z-0.812800
G01 Z2.540000
(G00 Z2.540000)
G00 X-81.4800 Y71.1100 
G01 Z-0.812800
G01 Z2.540000
(G00 Z2.540000)
G00 X-81.4800 Y73.6500 
G01 Z-0.812800
G01 Z2.540000
(G00 Z2.540000)
G00 X-81.4800 Y76.1900 
G01 Z-0.812800
G01 Z2.540000
(G00 Z2.540000)
G00 X-81.4800 Y78.7300 
G01 Z-0.812800
G01 Z2.540000
(G00 Z2.540000)
G00 X-81.4800 Y81.2700 
G01 Z-0.812800
G01 Z2.540000
(G00 Z2.540000)
G00 X-81.4800 Y83.8100 
G01 Z-0.812800
G01 Z2.540000
(G00 Z2.540000)
G00 X-81.4800 Y86.3500 
G01 Z-0.812800
G01 Z2.540000
(G00 Z2.540000)
G00 X-81.4800 Y88.8900 
G01 Z-0.812800
G01 Z2.540000
(G00 Z2.540000)
G00 X-106.2500 Y53.3300 
G01 Z-0.812800
G01 Z2.540000
(G00 Z2.540000)
G00 X-106.2500 Y55.8700 
G01 Z-0.812800
G01 Z2.540000
(G00 Z2.540000)
G00 X-106.2500 Y58.4100 
G01 Z-0.812800
G01 Z2.540000
(G00 Z2.540000)
G00 X-106.2500 Y60.9500 
G01 Z-0.812800
G01 Z2.540000
(G00 Z2.540000)
G00 X-106.2500 Y63.4900 
G01 Z-0.812800
G01 Z2.540000
(G00 Z2.540000)
G00 X-106.2500 Y66.0300 
G01 Z-0.812800
G01 Z2.540000
(G00 Z2.540000)
G00 X-106.2500 Y68.5700 
G01 Z-0.812800
G01 Z2.540000
(G00 Z2.540000)
G00 X-106.2500 Y71.1100 
G01 Z-0.812800
G01 Z2.540000
(G00 Z2.540000)
G00 X-106.2500 Y73.6500 
G01 Z-0.812800
G01 Z2.540000
(G00 Z2.540000)
G00 X-106.2500 Y76.1900 
G01 Z-0.812800
G01 Z2.540000
(G00 Z2.540000)
G00 X-106.2500 Y78.7300 
G01 Z-0.812800
G01 Z2.540000
(G00 Z2.540000)
G00 X-106.2500 Y81.2700 
G01 Z-0.812800
G01 Z2.540000
(G00 Z2.540000)
G00 X-106.2500 Y83.8100 
G01 Z-0.812800
G01 Z2.540000
(G00 Z2.540000)
G00 X-106.2500 Y86.3500 
G01 Z-0.812800
G01 Z2.540000
(G00 Z2.540000)
G00 X-106.2500 Y88.8900 
G01 Z-0.812800
G01 Z2.540000
M05
G00 Z25.4000 
M06 T04  ; 1.0160 
G01 Z0.0000 F254.00 
M06 T04  ; 1.0160 
G00 Z2.5400 
M03
G04 P3.000000
G00 Z2.540000
G00 X-41.9100 Y87.6300 
G01 Z-0.8128 F254.00 
G01 Z2.540000
(R2.5400  P1.000000)
(G00 Z2.540000)
G00 X-41.9100 Y92.7100 
G01 Z-0.812800
G01 Z2.540000
(G00 Z2.540000)
G00 X-57.1500 Y87.6300 
G01 Z-0.812800
G01 Z2.540000
(G00 Z2.540000)
G00 X-57.1500 Y90.1700 
G01 Z-0.812800
G01 Z2.540000
(G00 Z2.540000)
G00 X-57.1500 Y92.7100 
G01 Z-0.812800
G01 Z2.540000
(G00 Z2.540000)
G00 X-57.1500 Y95.2500 
G01 Z-0.812800
G01 Z2.540000
(G00 Z2.540000)
G00 X-127.0000 Y53.3400 
G01 Z-0.812800
G01 Z2.540000
(G00 Z2.540000)
G00 X-127.0000 Y55.8800 
G01 Z-0.812800
G01 Z2.540000
(G00 Z2.540000)
G00 X-127.0000 Y58.4200 
G01 Z-0.812800
G01 Z2.540000
(G00 Z2.540000)
G00 X-127.0000 Y60.9600 
G01 Z-0.812800
G01 Z2.540000
(G00 Z2.540000)
G00 X-127.0000 Y63.5000 
G01 Z-0.812800
G01 Z2.540000
(G00 Z2.540000)
G00 X-127.0000 Y66.0400 
G01 Z-0.812800
G01 Z2.540000
(G00 Z2.540000)
G00 X-127.0000 Y68.5800 
G01 Z-0.812800
G01 Z2.540000
(G00 Z2.540000)
G00 X-127.0000 Y78.7400 
G01 Z-0.812800
G01 Z2.540000
(G00 Z2.540000)
G00 X-127.0000 Y81.2800 
G01 Z-0.812800
G01 Z2.540000
(G00 Z2.540000)
G00 X-127.0000 Y83.8200 
G01 Z-0.812800
G01 Z2.540000
(G00 Z2.540000)
G00 X-127.0000 Y86.3600 
G01 Z-0.812800
G01 Z2.540000
(G00 Z2.540000)
G00 X-127.0000 Y88.9000 
G01 Z-0.812800
G01 Z2.540000
(G00 Z2.540000)
G00 X-127.0000 Y91.4400 
G01 Z-0.812800
G01 Z2.540000
(G00 Z2.540000)
G00 X-127.0000 Y93.9800 
G01 Z-0.812800
G01 Z2.540000
(G00 Z2.540000)
G00 X-30.4800 Y87.6300 
G01 Z-0.812800
G01 Z2.540000
(G00 Z2.540000)
G00 X-30.4800 Y92.7100 
G01 Z-0.812800
G01 Z2.540000
M05
G00 Z25.4000 
M06 T05  ; 1.3000 
G01 Z0.0000 F254.00 
M06 T05  ; 1.3000 
G00 Z2.5400 
M03
G04 P3.000000
G00 Z2.540000
G00 X-48.2850 Y7.6411 
G01 Z-0.8128 F254.00 
G01 Z2.540000
(R2.5400  P1.000000)
(G00 Z2.540000)
G00 X-48.2850 Y12.7211 
G01 Z-0.812800
G01 Z2.540000
(G00 Z2.540000)
G00 X-16.5350 Y33.0411 
G01 Z-0.812800
G01 Z2.540000
(G00 Z2.540000)
G00 X-16.5350 Y38.1211 
G01 Z-0.812800
G01 Z2.540000
(G00 Z2.540000)
G00 X-16.5350 Y43.2011 
G01 Z-0.812800
G01 Z2.540000
(G00 Z2.540000)
G00 X-16.5350 Y48.2811 
G01 Z-0.812800
G01 Z2.540000
(G00 Z2.540000)
G00 X-16.5350 Y53.3611 
G01 Z-0.812800
G01 Z2.540000
(G00 Z2.540000)
G00 X-16.5350 Y58.4411 
G01 Z-0.812800
G01 Z2.540000
(G00 Z2.540000)
G00 X-16.5350 Y63.5211 
G01 Z-0.812800
G01 Z2.540000
(G00 Z2.540000)
G00 X-16.5350 Y68.6011 
G01 Z-0.812800
G01 Z2.540000
(G00 Z2.540000)
G00 X-16.5350 Y73.6811 
G01 Z-0.812800
G01 Z2.540000
(G00 Z2.540000)
G00 X-16.5350 Y7.6411 
G01 Z-0.812800
G01 Z2.540000
(G00 Z2.540000)
G00 X-16.5350 Y78.7611 
G01 Z-0.812800
G01 Z2.540000
(G00 Z2.540000)
G00 X-16.5350 Y83.8411 
G01 Z-0.812800
G01 Z2.540000
(G00 Z2.540000)
G00 X-16.5350 Y88.9211 
G01 Z-0.812800
G01 Z2.540000
(G00 Z2.540000)
G00 X-16.5350 Y94.0011 
G01 Z-0.812800
G01 Z2.540000
(G00 Z2.540000)
G00 X-16.5350 Y12.7211 
G01 Z-0.812800
G01 Z2.540000
(G00 Z2.540000)
G00 X-16.5350 Y17.8011 
G01 Z-0.812800
G01 Z2.540000
(G00 Z2.540000)
G00 X-16.5350 Y22.8811 
G01 Z-0.812800
G01 Z2.540000
(G00 Z2.540000)
G00 X-16.5350 Y27.9611 
G01 Z-0.812800
G01 Z2.540000
T01 
G00 Z12.7000 
M05
M02
