(This file generated 22.06.21 15:39)
(Settings from pcb-machine.h)
(  Tool Size)
(0.2000 )
(Z Axis Settings)
(  High     Up        Down     Drill)
(12.7000 	2.5400 	-0.1778 	-0.8128 )
(spindle on time = 3.0000)
(milling depth = -0.2540)
(text depth = -0.1270)
(tool change at 12.7000 15.2400 25.4000 )
(feed rate xy = F508.00 )
(feed rate z  = F254.00 )
(Settings from pcb-defaults.h)
(isolate min = 0.2000)
(isolate max = 0.5080)
(isolate step = 0.1270)
(Generated top outlines, bottom outlines, bottom drill, )
(Unit of measure: mm)
(Metric Mode)
G21
(Absolute Coordinates)
G90
G00 X0.0000 Y0.0000 
M03
G04 P3.000000
G00 Z2.5400 
G00 X63.0762 Y75.0393 
G01 Z-0.1778 F254.00 
G01 X63.0143 Y75.0269 F508.00 
G01 X62.8673 Y74.9660 
G01 X62.7349 Y74.8776 
G01 X62.6224 Y74.7651 
G01 X62.5340 Y74.6327 
G01 X62.4731 Y74.4857 
G01 X62.4420 Y74.3296 
G01 X62.4420 Y74.1704 
G01 X62.4731 Y74.0143 
G01 X62.5340 Y73.8673 
G01 X62.6224 Y73.7349 
G01 X62.7349 Y73.6224 
G01 X62.8673 Y73.5340 
G01 X63.0143 Y73.4731 
G01 X63.1704 Y73.4420 
G01 X63.3296 Y73.4420 
G01 X63.4857 Y73.4731 
G01 X63.6327 Y73.5340 
G01 X63.7651 Y73.6224 
G01 X63.8776 Y73.7349 
G01 X63.9660 Y73.8673 
G01 X64.0269 Y74.0143 
G01 X64.0393 Y74.0762 
G01 X72.6738 Y82.7107 
G01 X72.7357 Y82.7231 
G01 X72.8827 Y82.7840 
G01 X73.0151 Y82.8724 
G01 X73.1276 Y82.9849 
G01 X73.2160 Y83.1173 
G01 X73.2769 Y83.2643 
G01 X73.3080 Y83.4204 
G01 X73.3080 Y83.5796 
G01 X73.2769 Y83.7357 
G01 X73.2160 Y83.8827 
G01 X73.1276 Y84.0151 
G01 X73.0151 Y84.1276 
G01 X72.8827 Y84.2160 
G01 X72.7357 Y84.2769 
G01 X72.5796 Y84.3080 
G01 X72.4204 Y84.3080 
G01 X72.2643 Y84.2769 
G01 X72.1173 Y84.2160 
G01 X71.9849 Y84.1276 
G01 X71.8724 Y84.0151 
G01 X71.7840 Y83.8827 
G01 X71.7231 Y83.7357 
G01 X71.7107 Y83.6738 
G01 X63.0762 Y75.0393 
G00 Z2.5400 
G00 X56.0690 Y19.5321 
G01 Z-0.1778 F254.00 
G01 X55.5762 Y19.0393 F508.00 
G01 X55.5143 Y19.0269 
G01 X55.3673 Y18.9660 
G01 X55.2349 Y18.8776 
G01 X55.1224 Y18.7651 
G01 X55.0340 Y18.6327 
G01 X54.9731 Y18.4857 
G01 X54.9420 Y18.3296 
G01 X54.9420 Y18.1704 
G01 X54.9731 Y18.0143 
G01 X55.0340 Y17.8673 
G01 X55.1224 Y17.7349 
G01 X55.2349 Y17.6224 
G01 X55.3673 Y17.5340 
G01 X55.5143 Y17.4731 
G01 X55.6704 Y17.4420 
G01 X55.8296 Y17.4420 
G01 X55.9857 Y17.4731 
G01 X56.1327 Y17.5340 
G01 X56.2651 Y17.6224 
G01 X56.3776 Y17.7349 
G01 X56.4660 Y17.8673 
G01 X56.5269 Y18.0143 
G01 X56.5393 Y18.0762 
G01 X57.2790 Y18.8159 
G01 X57.3535 Y18.9274 
G01 X57.4048 Y19.0514 
G01 X57.4310 Y19.1829 
G01 X57.4310 Y35.8148 
G01 X57.4660 Y35.8673 
G01 X57.5269 Y36.0143 
G01 X57.5580 Y36.1704 
G01 X57.5580 Y36.3296 
G01 X57.5269 Y36.4857 
G01 X57.4660 Y36.6327 
G01 X57.3776 Y36.7651 
G01 X57.2651 Y36.8776 
G01 X57.1327 Y36.9660 
G01 X56.9857 Y37.0269 
G01 X56.8296 Y37.0580 
G01 X56.6704 Y37.0580 
G01 X56.5143 Y37.0269 
G01 X56.3673 Y36.9660 
G01 X56.2349 Y36.8776 
G01 X56.1224 Y36.7651 
G01 X56.0340 Y36.6327 
G01 X55.9731 Y36.4857 
G01 X55.9420 Y36.3296 
G01 X55.9420 Y36.1704 
G01 X55.9731 Y36.0143 
G01 X56.0340 Y35.8673 
G01 X56.0690 Y35.8148 
G01 X56.0690 Y19.5321 
G00 Z2.5400 
G00 X46.4750 Y58.1104 
G01 Z-0.1778 F254.00 
G01 X44.9650 Y58.1104 F508.00 
G01 X44.7795 Y58.0735 
G01 X44.6047 Y58.0011 
G01 X44.4474 Y57.8960 
G01 X44.3136 Y57.7622 
G01 X44.2085 Y57.6049 
G01 X44.1361 Y57.4301 
G01 X44.0992 Y57.2446 
G01 X44.0992 Y57.0554 
G01 X44.1361 Y56.8699 
G01 X44.2085 Y56.6951 
G01 X44.3136 Y56.5378 
G01 X44.4474 Y56.4040 
G01 X44.6047 Y56.2989 
G01 X44.7795 Y56.2265 
G01 X44.9650 Y56.1896 
G01 X45.0690 Y56.1896 
G01 X45.0690 Y55.5704 
G01 X44.9650 Y55.5704 
G01 X44.7795 Y55.5335 
G01 X44.6047 Y55.4611 
G01 X44.4474 Y55.3560 
G01 X44.3136 Y55.2222 
G01 X44.2085 Y55.0649 
G01 X44.1361 Y54.8901 
G01 X44.0992 Y54.7046 
G01 X44.0992 Y54.5154 
G01 X44.1361 Y54.3299 
G01 X44.2085 Y54.1551 
G01 X44.3136 Y53.9978 
G01 X44.4474 Y53.8640 
G01 X44.6047 Y53.7589 
G01 X44.7795 Y53.6865 
G01 X44.9650 Y53.6496 
G01 X46.4750 Y53.6496 
G01 X46.6605 Y53.6865 
G01 X46.8353 Y53.7589 
G01 X46.9926 Y53.8640 
G01 X47.1264 Y53.9978 
G01 X47.2315 Y54.1551 
G01 X47.3039 Y54.3299 
G01 X47.3408 Y54.5154 
G01 X47.3408 Y54.7046 
G01 X47.3039 Y54.8901 
G01 X47.2315 Y55.0649 
G01 X47.1264 Y55.2222 
G01 X46.9926 Y55.3560 
G01 X46.8353 Y55.4611 
G01 X46.6605 Y55.5335 
G01 X46.4750 Y55.5704 
G01 X46.4310 Y55.5704 
G01 X46.4310 Y56.1896 
G01 X46.4750 Y56.1896 
G01 X46.6605 Y56.2265 
G01 X46.8353 Y56.2989 
G01 X46.9926 Y56.4040 
G01 X47.1264 Y56.5378 
G01 X47.2315 Y56.6951 
G01 X47.3039 Y56.8699 
G01 X47.3408 Y57.0554 
G01 X47.3408 Y57.2446 
G01 X47.3039 Y57.4301 
G01 X47.2315 Y57.6049 
G01 X47.1264 Y57.7622 
G01 X46.9926 Y57.8960 
G01 X46.8353 Y58.0011 
G01 X46.6605 Y58.0735 
G01 X46.4750 Y58.1104 
G00 Z2.5400 
G00 X46.4750 Y45.4104 
G01 Z-0.1778 F254.00 
G01 X46.4310 Y45.4104 F508.00 
G01 X46.4310 Y46.0296 
G01 X46.4750 Y46.0296 
G01 X46.6605 Y46.0665 
G01 X46.8353 Y46.1389 
G01 X46.9926 Y46.2440 
G01 X47.1264 Y46.3778 
G01 X47.2315 Y46.5351 
G01 X47.3039 Y46.7099 
G01 X47.3408 Y46.8954 
G01 X47.3408 Y47.0846 
G01 X47.3039 Y47.2701 
G01 X47.2315 Y47.4449 
G01 X47.1264 Y47.6022 
G01 X46.9926 Y47.7360 
G01 X46.8353 Y47.8411 
G01 X46.6605 Y47.9135 
G01 X46.4750 Y47.9504 
G01 X44.9650 Y47.9504 
G01 X44.7795 Y47.9135 
G01 X44.6047 Y47.8411 
G01 X44.4474 Y47.7360 
G01 X44.3136 Y47.6022 
G01 X44.2085 Y47.4449 
G01 X44.1361 Y47.2701 
G01 X44.0992 Y47.0846 
G01 X44.0992 Y46.8954 
G01 X44.1361 Y46.7099 
G01 X44.2085 Y46.5351 
G01 X44.3136 Y46.3778 
G01 X44.4474 Y46.2440 
G01 X44.6047 Y46.1389 
G01 X44.7795 Y46.0665 
G01 X44.9650 Y46.0296 
G01 X45.0690 Y46.0296 
G01 X45.0690 Y45.4104 
G01 X44.9650 Y45.4104 
G01 X44.7795 Y45.3735 
G01 X44.6047 Y45.3011 
G01 X44.4474 Y45.1960 
G01 X44.3136 Y45.0622 
G01 X44.2085 Y44.9049 
G01 X44.1361 Y44.7301 
G01 X44.0992 Y44.5446 
G01 X44.0992 Y44.3554 
G01 X44.1361 Y44.1699 
G01 X44.2085 Y43.9951 
G01 X44.3136 Y43.8378 
G01 X44.4474 Y43.7040 
G01 X44.6047 Y43.5989 
G01 X44.7795 Y43.5265 
G01 X44.9650 Y43.4896 
G01 X46.4750 Y43.4896 
G01 X46.6605 Y43.5265 
G01 X46.8353 Y43.5989 
G01 X46.9926 Y43.7040 
G01 X47.1264 Y43.8378 
G01 X47.2315 Y43.9951 
G01 X47.3039 Y44.1699 
G01 X47.3408 Y44.3554 
G01 X47.3408 Y44.5446 
G01 X47.3039 Y44.7301 
G01 X47.2315 Y44.9049 
G01 X47.1264 Y45.0622 
G01 X46.9926 Y45.1960 
G01 X46.8353 Y45.3011 
G01 X46.6605 Y45.3735 
G01 X46.4750 Y45.4104 
G00 Z2.5400 
G00 X46.4750 Y37.7904 
G01 Z-0.1778 F254.00 
G01 X44.9650 Y37.7904 F508.00 
G01 X44.7795 Y37.7535 
G01 X44.6047 Y37.6811 
G01 X44.4474 Y37.5760 
G01 X44.3136 Y37.4422 
G01 X44.2085 Y37.2849 
G01 X44.1361 Y37.1101 
G01 X44.0992 Y36.9246 
G01 X44.0992 Y36.7354 
G01 X44.1361 Y36.5499 
G01 X44.2085 Y36.3751 
G01 X44.3136 Y36.2178 
G01 X44.4474 Y36.0840 
G01 X44.6047 Y35.9789 
G01 X44.7795 Y35.9065 
G01 X44.9650 Y35.8696 
G01 X46.4750 Y35.8696 
G01 X46.6605 Y35.9065 
G01 X46.8353 Y35.9789 
G01 X46.9926 Y36.0840 
G01 X47.1264 Y36.2178 
G01 X47.2315 Y36.3751 
G01 X47.3039 Y36.5499 
G01 X47.3408 Y36.7354 
G01 X47.3408 Y36.9246 
G01 X47.3039 Y37.1101 
G01 X47.2315 Y37.2849 
G01 X47.1264 Y37.4422 
G01 X46.9926 Y37.5760 
G01 X46.8353 Y37.6811 
G01 X46.6605 Y37.7535 
G01 X46.4750 Y37.7904 
G00 Z2.5400 
G00 X54.8515 Y41.4551 
G01 Z-0.1778 F254.00 
G01 X54.9239 Y41.6299 F508.00 
G01 X54.9608 Y41.8154 
G01 X54.9608 Y42.0046 
G01 X54.9239 Y42.1901 
G01 X54.8515 Y42.3649 
G01 X54.7464 Y42.5222 
G01 X54.6126 Y42.6560 
G01 X54.4553 Y42.7611 
G01 X54.2805 Y42.8335 
G01 X54.0950 Y42.8704 
G01 X52.5850 Y42.8704 
G01 X52.3995 Y42.8335 
G01 X52.2247 Y42.7611 
G01 X52.0674 Y42.6560 
G01 X51.9336 Y42.5222 
G01 X51.8285 Y42.3649 
G01 X51.7561 Y42.1901 
G01 X51.7192 Y42.0046 
G01 X51.7192 Y41.8154 
G01 X51.7561 Y41.6299 
G01 X51.8285 Y41.4551 
G01 X51.9336 Y41.2978 
G01 X52.0674 Y41.1640 
G01 X52.2247 Y41.0589 
G01 X52.3995 Y40.9865 
G01 X52.5850 Y40.9496 
G01 X52.8190 Y40.9496 
G01 X52.8190 Y40.3304 
G01 X52.5850 Y40.3304 
G01 X52.3995 Y40.2935 
G01 X52.2247 Y40.2211 
G01 X52.0674 Y40.1160 
G01 X51.9336 Y39.9822 
G01 X51.8285 Y39.8249 
G01 X51.7561 Y39.6501 
G01 X51.7192 Y39.4646 
G01 X51.7192 Y39.2754 
G01 X51.7561 Y39.0899 
G01 X51.8285 Y38.9151 
G01 X51.9336 Y38.7578 
G01 X52.0674 Y38.6240 
G01 X52.2247 Y38.5189 
G01 X52.3995 Y38.4465 
G01 X52.5850 Y38.4096 
G01 X54.0950 Y38.4096 
G01 X54.2805 Y38.4465 
G01 X54.4553 Y38.5189 
G01 X54.6126 Y38.6240 
G01 X54.7464 Y38.7578 
G01 X54.8515 Y38.9151 
G01 X54.9239 Y39.0899 
G01 X54.9608 Y39.2754 
G01 X54.9608 Y39.4646 
G01 X54.9239 Y39.6501 
G01 X54.8515 Y39.8249 
G01 X54.7464 Y39.9822 
G01 X54.6596 Y40.0690 
G01 X65.0690 Y40.0690 
G01 X65.0690 Y27.0321 
G01 X61.8159 Y23.7790 
G01 X61.7210 Y23.6841 
G01 X61.6465 Y23.5726 
G01 X61.5952 Y23.4486 
G01 X61.5690 Y23.3171 
G01 X61.5690 Y22.2821 
G01 X55.3262 Y16.0392 
G01 X55.2643 Y16.0269 
G01 X55.1173 Y15.9660 
G01 X54.9849 Y15.8776 
G01 X54.8724 Y15.7651 
G01 X54.7840 Y15.6327 
G01 X54.7231 Y15.4857 
G01 X54.6920 Y15.3296 
G01 X54.6920 Y15.1704 
G01 X54.7231 Y15.0143 
G01 X54.7840 Y14.8673 
G01 X54.8724 Y14.7349 
G01 X54.9849 Y14.6224 
G01 X55.1173 Y14.5340 
G01 X55.2643 Y14.4731 
G01 X55.4204 Y14.4420 
G01 X55.5796 Y14.4420 
G01 X55.7357 Y14.4731 
G01 X55.8827 Y14.5340 
G01 X56.0151 Y14.6224 
G01 X56.1276 Y14.7349 
G01 X56.2160 Y14.8673 
G01 X56.2769 Y15.0143 
G01 X56.2893 Y15.0762 
G01 X62.7790 Y21.5659 
G01 X62.8535 Y21.6774 
G01 X62.9048 Y21.8014 
G01 X62.9310 Y21.9329 
G01 X62.9310 Y22.9679 
G01 X66.2790 Y26.3159 
G01 X66.3535 Y26.4274 
G01 X66.4048 Y26.5514 
G01 X66.4310 Y26.6829 
G01 X66.4310 Y40.8171 
G01 X66.4048 Y40.9486 
G01 X66.3535 Y41.0726 
G01 X66.2790 Y41.1841 
G01 X66.1841 Y41.2790 
G01 X66.0726 Y41.3535 
G01 X65.9486 Y41.4048 
G01 X65.8171 Y41.4310 
G01 X54.8354 Y41.4310 
G01 X54.8515 Y41.4551 
G00 Z2.5400 
G00 X54.0950 Y47.9504 
G01 Z-0.1778 F254.00 
G01 X52.5850 Y47.9504 F508.00 
G01 X52.3995 Y47.9135 
G01 X52.2247 Y47.8411 
G01 X52.0674 Y47.7360 
G01 X51.9336 Y47.6022 
G01 X51.8285 Y47.4449 
G01 X51.7561 Y47.2701 
G01 X51.7192 Y47.0846 
G01 X51.7192 Y46.8954 
G01 X51.7561 Y46.7099 
G01 X51.8285 Y46.5351 
G01 X51.9336 Y46.3778 
G01 X52.0674 Y46.2440 
G01 X52.2247 Y46.1389 
G01 X52.3995 Y46.0665 
G01 X52.5850 Y46.0296 
G01 X52.8190 Y46.0296 
G01 X52.8190 Y45.4104 
G01 X52.5850 Y45.4104 
G01 X52.3995 Y45.3735 
G01 X52.2247 Y45.3011 
G01 X52.0674 Y45.1960 
G01 X51.9336 Y45.0622 
G01 X51.8285 Y44.9049 
G01 X51.7561 Y44.7301 
G01 X51.7192 Y44.5446 
G01 X51.7192 Y44.3554 
G01 X51.7561 Y44.1699 
G01 X51.8285 Y43.9951 
G01 X51.9336 Y43.8378 
G01 X52.0674 Y43.7040 
G01 X52.2247 Y43.5989 
G01 X52.3995 Y43.5265 
G01 X52.5850 Y43.4896 
G01 X54.0950 Y43.4896 
G01 X54.2805 Y43.5265 
G01 X54.4553 Y43.5989 
G01 X54.6126 Y43.7040 
G01 X54.7464 Y43.8378 
G01 X54.8515 Y43.9951 
G01 X54.9239 Y44.1699 
G01 X54.9608 Y44.3554 
G01 X54.9608 Y44.5446 
G01 X54.9239 Y44.7301 
G01 X54.8515 Y44.9049 
G01 X54.7464 Y45.0622 
G01 X54.6126 Y45.1960 
G01 X54.4553 Y45.3011 
G01 X54.2805 Y45.3735 
G01 X54.1810 Y45.3933 
G01 X54.1810 Y46.0467 
G01 X54.2805 Y46.0665 
G01 X54.4553 Y46.1389 
G01 X54.6126 Y46.2440 
G01 X54.7464 Y46.3778 
G01 X54.8515 Y46.5351 
G01 X54.9239 Y46.7099 
G01 X54.9608 Y46.8954 
G01 X54.9608 Y47.0846 
G01 X54.9239 Y47.2701 
G01 X54.8515 Y47.4449 
G01 X54.7464 Y47.6022 
G01 X54.6126 Y47.7360 
G01 X54.4553 Y47.8411 
G01 X54.2805 Y47.9135 
G01 X54.0950 Y47.9504 
G00 Z2.5400 
G00 X54.0950 Y53.0304 
G01 Z-0.1778 F254.00 
G01 X52.5850 Y53.0304 F508.00 
G01 X52.3995 Y52.9935 
G01 X52.2247 Y52.9211 
G01 X52.0674 Y52.8160 
G01 X51.9336 Y52.6822 
G01 X51.8285 Y52.5249 
G01 X51.7561 Y52.3501 
G01 X51.7192 Y52.1646 
G01 X51.7192 Y51.9754 
G01 X51.7561 Y51.7899 
G01 X51.8285 Y51.6151 
G01 X51.9336 Y51.4578 
G01 X52.0674 Y51.3240 
G01 X52.2247 Y51.2189 
G01 X52.3995 Y51.1465 
G01 X52.5850 Y51.1096 
G01 X52.8190 Y51.1096 
G01 X52.8190 Y50.4904 
G01 X52.5850 Y50.4904 
G01 X52.3995 Y50.4535 
G01 X52.2247 Y50.3811 
G01 X52.0674 Y50.2760 
G01 X51.9336 Y50.1422 
G01 X51.8285 Y49.9849 
G01 X51.7561 Y49.8101 
G01 X51.7192 Y49.6246 
G01 X51.7192 Y49.4354 
G01 X51.7561 Y49.2499 
G01 X51.8285 Y49.0751 
G01 X51.9336 Y48.9178 
G01 X52.0674 Y48.7840 
G01 X52.2247 Y48.6789 
G01 X52.3995 Y48.6065 
G01 X52.5850 Y48.5696 
G01 X54.0950 Y48.5696 
G01 X54.2805 Y48.6065 
G01 X54.4553 Y48.6789 
G01 X54.6126 Y48.7840 
G01 X54.7464 Y48.9178 
G01 X54.8515 Y49.0751 
G01 X54.9239 Y49.2499 
G01 X54.9608 Y49.4354 
G01 X54.9608 Y49.6246 
G01 X54.9239 Y49.8101 
G01 X54.8515 Y49.9849 
G01 X54.7464 Y50.1422 
G01 X54.6126 Y50.2760 
G01 X54.4553 Y50.3811 
G01 X54.2805 Y50.4535 
G01 X54.1810 Y50.4733 
G01 X54.1810 Y51.1267 
G01 X54.2805 Y51.1465 
G01 X54.4553 Y51.2189 
G01 X54.6126 Y51.3240 
G01 X54.7464 Y51.4578 
G01 X54.8515 Y51.6151 
G01 X54.9239 Y51.7899 
G01 X54.9608 Y51.9754 
G01 X54.9608 Y52.1646 
G01 X54.9239 Y52.3501 
G01 X54.8515 Y52.5249 
G01 X54.7464 Y52.6822 
G01 X54.6126 Y52.8160 
G01 X54.4553 Y52.9211 
G01 X54.2805 Y52.9935 
G01 X54.0950 Y53.0304 
G00 Z2.5400 
G00 X52.5850 Y55.5704 
G01 Z-0.1778 F254.00 
G01 X52.3995 Y55.5335 F508.00 
G01 X52.2247 Y55.4611 
G01 X52.0674 Y55.3560 
G01 X51.9336 Y55.2222 
G01 X51.8285 Y55.0649 
G01 X51.7561 Y54.8901 
G01 X51.7192 Y54.7046 
G01 X51.7192 Y54.5154 
G01 X51.7561 Y54.3299 
G01 X51.8285 Y54.1551 
G01 X51.9336 Y53.9978 
G01 X52.0674 Y53.8640 
G01 X52.2247 Y53.7589 
G01 X52.3995 Y53.6865 
G01 X52.5850 Y53.6496 
G01 X54.0950 Y53.6496 
G01 X54.2805 Y53.6865 
G01 X54.4553 Y53.7589 
G01 X54.6126 Y53.8640 
G01 X54.7464 Y53.9978 
G01 X54.8515 Y54.1551 
G01 X54.9239 Y54.3299 
G01 X54.9608 Y54.5154 
G01 X54.9608 Y54.7046 
G01 X54.9239 Y54.8901 
G01 X54.8515 Y55.0649 
G01 X54.7464 Y55.2222 
G01 X54.6126 Y55.3560 
G01 X54.4553 Y55.4611 
G01 X54.2805 Y55.5335 
G01 X54.1810 Y55.5533 
G01 X54.1810 Y56.2067 
G01 X54.2805 Y56.2265 
G01 X54.4553 Y56.2989 
G01 X54.6126 Y56.4040 
G01 X54.7464 Y56.5378 
G01 X54.8515 Y56.6951 
G01 X54.9239 Y56.8699 
G01 X54.9608 Y57.0554 
G01 X54.9608 Y57.2446 
G01 X54.9239 Y57.4301 
G01 X54.8515 Y57.6049 
G01 X54.7464 Y57.7622 
G01 X54.6126 Y57.8960 
G01 X54.4553 Y58.0011 
G01 X54.2805 Y58.0735 
G01 X54.0950 Y58.1104 
G01 X52.5850 Y58.1104 
G01 X52.3995 Y58.0735 
G01 X52.2247 Y58.0011 
G01 X52.0674 Y57.8960 
G01 X51.9336 Y57.7622 
G01 X51.8285 Y57.6049 
G01 X51.7561 Y57.4301 
G01 X51.7192 Y57.2446 
G01 X51.7192 Y57.0554 
G01 X51.7561 Y56.8699 
G01 X51.8285 Y56.6951 
G01 X51.9336 Y56.5378 
G01 X52.0674 Y56.4040 
G01 X52.2247 Y56.2989 
G01 X52.3995 Y56.2265 
G01 X52.5850 Y56.1896 
G01 X52.8190 Y56.1896 
G01 X52.8190 Y55.5704 
G01 X52.5850 Y55.5704 
G00 Z2.5400 
G00 X44.3046 Y80.3196 
G01 Z-0.1778 F254.00 
G01 X45.8146 Y80.3196 F508.00 
G01 X46.0001 Y80.3565 
G01 X46.1749 Y80.4289 
G01 X46.3322 Y80.5340 
G01 X46.4660 Y80.6678 
G01 X46.5711 Y80.8251 
G01 X46.6435 Y80.9999 
G01 X46.6804 Y81.1854 
G01 X46.6804 Y81.3746 
G01 X46.6435 Y81.5601 
G01 X46.5711 Y81.7349 
G01 X46.4660 Y81.8922 
G01 X46.3322 Y82.0260 
G01 X46.1749 Y82.1311 
G01 X46.0001 Y82.2035 
G01 X45.8146 Y82.2404 
G01 X44.3046 Y82.2404 
G01 X44.1191 Y82.2035 
G01 X43.9443 Y82.1311 
G01 X43.7870 Y82.0260 
G01 X43.6920 Y81.9310 
G01 X38.8072 Y81.9310 
G01 X38.4978 Y82.2404 
G01 X37.7022 Y82.2404 
G01 X37.1396 Y81.6778 
G01 X37.1396 Y80.8822 
G01 X37.7022 Y80.3196 
G01 X38.4978 Y80.3196 
G01 X38.7472 Y80.5690 
G01 X43.7520 Y80.5690 
G01 X43.7870 Y80.5340 
G01 X43.9443 Y80.4289 
G01 X44.1191 Y80.3565 
G01 X44.3046 Y80.3196 
G00 Z2.5400 
G00 X44.3046 Y77.7796 
G01 Z-0.1778 F254.00 
G01 X45.8146 Y77.7796 F508.00 
G01 X46.0001 Y77.8165 
G01 X46.1749 Y77.8889 
G01 X46.3322 Y77.9940 
G01 X46.4660 Y78.1278 
G01 X46.5711 Y78.2851 
G01 X46.6435 Y78.4599 
G01 X46.6804 Y78.6454 
G01 X46.6804 Y78.8346 
G01 X46.6435 Y79.0201 
G01 X46.5711 Y79.1949 
G01 X46.4660 Y79.3522 
G01 X46.3322 Y79.4860 
G01 X46.1749 Y79.5911 
G01 X46.0001 Y79.6635 
G01 X45.8146 Y79.7004 
G01 X44.3046 Y79.7004 
G01 X44.1191 Y79.6635 
G01 X43.9443 Y79.5911 
G01 X43.7870 Y79.4860 
G01 X43.6532 Y79.3522 
G01 X43.5481 Y79.1949 
G01 X43.4757 Y79.0201 
G01 X43.4388 Y78.8346 
G01 X43.4388 Y78.6454 
G01 X43.4757 Y78.4599 
G01 X43.5481 Y78.2851 
G01 X43.6532 Y78.1278 
G01 X43.7870 Y77.9940 
G01 X43.9443 Y77.8889 
G01 X44.1191 Y77.8165 
G01 X44.3046 Y77.7796 
G00 Z2.5400 
G00 X44.3046 Y62.5396 
G01 Z-0.1778 F254.00 
G01 X45.8146 Y62.5396 F508.00 
G01 X46.0001 Y62.5765 
G01 X46.1749 Y62.6489 
G01 X46.3322 Y62.7540 
G01 X46.4660 Y62.8878 
G01 X46.5711 Y63.0451 
G01 X46.6435 Y63.2199 
G01 X46.6804 Y63.4054 
G01 X46.6804 Y63.5946 
G01 X46.6435 Y63.7801 
G01 X46.5711 Y63.9549 
G01 X46.4660 Y64.1122 
G01 X46.3322 Y64.2460 
G01 X46.1749 Y64.3511 
G01 X46.0001 Y64.4235 
G01 X45.8146 Y64.4604 
G01 X44.3046 Y64.4604 
G01 X44.1191 Y64.4235 
G01 X43.9443 Y64.3511 
G01 X43.7870 Y64.2460 
G01 X43.6532 Y64.1122 
G01 X43.5481 Y63.9549 
G01 X43.4757 Y63.7801 
G01 X43.4388 Y63.5946 
G01 X43.4388 Y63.4054 
G01 X43.4757 Y63.2199 
G01 X43.5481 Y63.0451 
G01 X43.6532 Y62.8878 
G01 X43.7870 Y62.7540 
G01 X43.9443 Y62.6489 
G01 X44.1191 Y62.5765 
G01 X44.3046 Y62.5396 
G00 Z2.5400 
G00 X44.3046 Y72.6996 
G01 Z-0.1778 F254.00 
G01 X45.8146 Y72.6996 F508.00 
G01 X46.0001 Y72.7365 
G01 X46.1749 Y72.8089 
G01 X46.3322 Y72.9140 
G01 X46.4660 Y73.0478 
G01 X46.5711 Y73.2051 
G01 X46.6435 Y73.3799 
G01 X46.6804 Y73.5654 
G01 X46.6804 Y73.7546 
G01 X46.6435 Y73.9401 
G01 X46.5711 Y74.1149 
G01 X46.4660 Y74.2722 
G01 X46.3322 Y74.4060 
G01 X46.1749 Y74.5111 
G01 X46.0001 Y74.5835 
G01 X45.8146 Y74.6204 
G01 X44.3046 Y74.6204 
G01 X44.1191 Y74.5835 
G01 X43.9443 Y74.5111 
G01 X43.7870 Y74.4060 
G01 X43.6532 Y74.2722 
G01 X43.5481 Y74.1149 
G01 X43.4757 Y73.9401 
G01 X43.4388 Y73.7546 
G01 X43.4388 Y73.5654 
G01 X43.4757 Y73.3799 
G01 X43.5481 Y73.2051 
G01 X43.6532 Y73.0478 
G01 X43.7870 Y72.9140 
G01 X43.9443 Y72.8089 
G01 X44.1191 Y72.7365 
G01 X44.3046 Y72.6996 
G00 Z2.5400 
G00 X44.3046 Y67.6196 
G01 Z-0.1778 F254.00 
G01 X45.8146 Y67.6196 F508.00 
G01 X46.0001 Y67.6565 
G01 X46.1749 Y67.7289 
G01 X46.3322 Y67.8340 
G01 X46.4660 Y67.9678 
G01 X46.5711 Y68.1251 
G01 X46.6435 Y68.2999 
G01 X46.6804 Y68.4854 
G01 X46.6804 Y68.6746 
G01 X46.6435 Y68.8601 
G01 X46.5711 Y69.0349 
G01 X46.4660 Y69.1922 
G01 X46.3322 Y69.3260 
G01 X46.1749 Y69.4311 
G01 X46.0001 Y69.5035 
G01 X45.8146 Y69.5404 
G01 X44.3046 Y69.5404 
G01 X44.1191 Y69.5035 
G01 X43.9443 Y69.4311 
G01 X43.7870 Y69.3260 
G01 X43.6532 Y69.1922 
G01 X43.5481 Y69.0349 
G01 X43.4757 Y68.8601 
G01 X43.4388 Y68.6746 
G01 X43.4388 Y68.4854 
G01 X43.4757 Y68.2999 
G01 X43.5481 Y68.1251 
G01 X43.6532 Y67.9678 
G01 X43.7870 Y67.8340 
G01 X43.9443 Y67.7289 
G01 X44.1191 Y67.6565 
G01 X44.3046 Y67.6196 
G00 Z2.5400 
G00 X44.3046 Y70.1596 
G01 Z-0.1778 F254.00 
G01 X45.8146 Y70.1596 F508.00 
G01 X46.0001 Y70.1965 
G01 X46.1749 Y70.2689 
G01 X46.3322 Y70.3740 
G01 X46.4660 Y70.5078 
G01 X46.5711 Y70.6651 
G01 X46.6435 Y70.8399 
G01 X46.6804 Y71.0254 
G01 X46.6804 Y71.2146 
G01 X46.6435 Y71.4001 
G01 X46.5711 Y71.5749 
G01 X46.4660 Y71.7322 
G01 X46.3322 Y71.8660 
G01 X46.1749 Y71.9711 
G01 X46.0001 Y72.0435 
G01 X45.8146 Y72.0804 
G01 X44.3046 Y72.0804 
G01 X44.1191 Y72.0435 
G01 X43.9443 Y71.9711 
G01 X43.8843 Y71.9310 
G01 X38.6472 Y71.9310 
G01 X38.4978 Y72.0804 
G01 X37.7022 Y72.0804 
G01 X37.1396 Y71.5178 
G01 X37.1396 Y70.7222 
G01 X37.7022 Y70.1596 
G01 X38.4978 Y70.1596 
G01 X38.9072 Y70.5690 
G01 X43.6123 Y70.5690 
G01 X43.6532 Y70.5078 
G01 X43.7870 Y70.3740 
G01 X43.9443 Y70.2689 
G01 X44.1191 Y70.1965 
G01 X44.3046 Y70.1596 
G00 Z2.5400 
G00 X54.7554 Y67.0004 
G01 Z-0.1778 F254.00 
G01 X53.2454 Y67.0004 F508.00 
G01 X53.0599 Y66.9635 
G01 X52.8851 Y66.8911 
G01 X52.7278 Y66.7860 
G01 X52.5940 Y66.6522 
G01 X52.4889 Y66.4949 
G01 X52.4165 Y66.3201 
G01 X52.3796 Y66.1346 
G01 X52.3796 Y65.9454 
G01 X52.4165 Y65.7599 
G01 X52.4889 Y65.5851 
G01 X52.5940 Y65.4278 
G01 X52.7278 Y65.2940 
G01 X52.8851 Y65.1889 
G01 X53.0599 Y65.1165 
G01 X53.2454 Y65.0796 
G01 X54.7554 Y65.0796 
G01 X54.9409 Y65.1165 
G01 X55.1157 Y65.1889 
G01 X55.2730 Y65.2940 
G01 X55.4068 Y65.4278 
G01 X55.5119 Y65.5851 
G01 X55.5843 Y65.7599 
G01 X55.6212 Y65.9454 
G01 X55.6212 Y66.1346 
G01 X55.5843 Y66.3201 
G01 X55.5119 Y66.4949 
G01 X55.4068 Y66.6522 
G01 X55.2730 Y66.7860 
G01 X55.1157 Y66.8911 
G01 X54.9409 Y66.9635 
G01 X54.7554 Y67.0004 
G00 Z2.5400 
G00 X54.7554 Y72.0804 
G01 Z-0.1778 F254.00 
G01 X53.2454 Y72.0804 F508.00 
G01 X53.0599 Y72.0435 
G01 X52.8851 Y71.9711 
G01 X52.7278 Y71.8660 
G01 X52.5940 Y71.7322 
G01 X52.4889 Y71.5749 
G01 X52.4165 Y71.4001 
G01 X52.3796 Y71.2146 
G01 X52.3796 Y71.0254 
G01 X52.4165 Y70.8399 
G01 X52.4889 Y70.6651 
G01 X52.5940 Y70.5078 
G01 X52.7278 Y70.3740 
G01 X52.8851 Y70.2689 
G01 X53.0599 Y70.1965 
G01 X53.2454 Y70.1596 
G01 X54.7554 Y70.1596 
G01 X54.9409 Y70.1965 
G01 X55.1157 Y70.2689 
G01 X55.2730 Y70.3740 
G01 X55.4068 Y70.5078 
G01 X55.4477 Y70.5690 
G01 X59.3171 Y70.5690 
G01 X59.4486 Y70.5952 
G01 X59.5726 Y70.6465 
G01 X59.6841 Y70.7210 
G01 X59.7790 Y70.8159 
G01 X59.8535 Y70.9274 
G01 X59.9048 Y71.0514 
G01 X59.9310 Y71.1829 
G01 X59.9310 Y77.8148 
G01 X59.9660 Y77.8673 
G01 X60.0269 Y78.0143 
G01 X60.0580 Y78.1704 
G01 X60.0580 Y78.3296 
G01 X60.0269 Y78.4857 
G01 X59.9660 Y78.6327 
G01 X59.8776 Y78.7651 
G01 X59.7651 Y78.8776 
G01 X59.6327 Y78.9660 
G01 X59.4857 Y79.0269 
G01 X59.3296 Y79.0580 
G01 X59.1704 Y79.0580 
G01 X59.0143 Y79.0269 
G01 X58.8673 Y78.9660 
G01 X58.7349 Y78.8776 
G01 X58.6224 Y78.7651 
G01 X58.5340 Y78.6327 
G01 X58.4731 Y78.4857 
G01 X58.4420 Y78.3296 
G01 X58.4420 Y78.1704 
G01 X58.4731 Y78.0143 
G01 X58.5340 Y77.8673 
G01 X58.5690 Y77.8148 
G01 X58.5690 Y71.9310 
G01 X55.1757 Y71.9310 
G01 X55.1157 Y71.9711 
G01 X54.9409 Y72.0435 
G01 X54.7554 Y72.0804 
G00 Z2.5400 
G00 X54.7554 Y77.1604 
G01 Z-0.1778 F254.00 
G01 X53.2454 Y77.1604 F508.00 
G01 X53.0599 Y77.1235 
G01 X52.8851 Y77.0511 
G01 X52.7278 Y76.9460 
G01 X52.5940 Y76.8122 
G01 X52.4889 Y76.6549 
G01 X52.4165 Y76.4801 
G01 X52.3796 Y76.2946 
G01 X52.3796 Y76.1054 
G01 X52.4165 Y75.9199 
G01 X52.4889 Y75.7451 
G01 X52.5940 Y75.5878 
G01 X52.7278 Y75.4540 
G01 X52.8851 Y75.3489 
G01 X53.0599 Y75.2765 
G01 X53.2454 Y75.2396 
G01 X54.7554 Y75.2396 
G01 X54.9409 Y75.2765 
G01 X55.1157 Y75.3489 
G01 X55.2730 Y75.4540 
G01 X55.4068 Y75.5878 
G01 X55.5119 Y75.7451 
G01 X55.5843 Y75.9199 
G01 X55.6212 Y76.1054 
G01 X55.6212 Y76.2946 
G01 X55.5843 Y76.4801 
G01 X55.5119 Y76.6549 
G01 X55.4068 Y76.8122 
G01 X55.2730 Y76.9460 
G01 X55.1157 Y77.0511 
G01 X54.9409 Y77.1235 
G01 X54.7554 Y77.1604 
G00 Z2.5400 
G00 X54.7554 Y79.7004 
G01 Z-0.1778 F254.00 
G01 X53.2454 Y79.7004 F508.00 
G01 X53.0599 Y79.6635 
G01 X52.8851 Y79.5911 
G01 X52.7278 Y79.4860 
G01 X52.5940 Y79.3522 
G01 X52.4889 Y79.1949 
G01 X52.4831 Y79.1810 
G01 X51.9310 Y79.1810 
G01 X51.9310 Y89.3190 
G01 X55.7525 Y89.3190 
G01 X55.8314 Y89.2617 
G01 X55.9803 Y89.1858 
G01 X56.1393 Y89.1342 
G01 X56.3044 Y89.1080 
G01 X57.9956 Y89.1080 
G01 X58.1607 Y89.1342 
G01 X58.3197 Y89.1858 
G01 X58.4686 Y89.2617 
G01 X58.6038 Y89.3599 
G01 X58.7220 Y89.4782 
G01 X58.7881 Y89.5690 
G01 X60.3171 Y89.5690 
G01 X60.4486 Y89.5952 
G01 X60.5726 Y89.6465 
G01 X60.6841 Y89.7210 
G01 X60.7790 Y89.8159 
G01 X60.8535 Y89.9274 
G01 X60.9048 Y90.0514 
G01 X60.9310 Y90.1829 
G01 X60.9310 Y93.5671 
G01 X60.9048 Y93.6986 
G01 X60.8535 Y93.8226 
G01 X60.7790 Y93.9341 
G01 X59.0290 Y95.6841 
G01 X58.9341 Y95.7790 
G01 X58.8226 Y95.8535 
G01 X58.7706 Y95.8750 
G01 X58.7220 Y95.9418 
G01 X58.6038 Y96.0600 
G01 X58.4686 Y96.1583 
G01 X58.3197 Y96.2342 
G01 X58.1607 Y96.2858 
G01 X57.9956 Y96.3120 
G01 X56.3044 Y96.3120 
G01 X56.1393 Y96.2858 
G01 X55.9803 Y96.2342 
G01 X55.8314 Y96.1583 
G01 X55.6962 Y96.0600 
G01 X55.5780 Y95.9418 
G01 X55.4797 Y95.8066 
G01 X55.4038 Y95.6577 
G01 X55.3522 Y95.4987 
G01 X55.3260 Y95.3336 
G01 X55.3260 Y95.1664 
G01 X55.3522 Y95.0013 
G01 X55.4038 Y94.8423 
G01 X55.4797 Y94.6934 
G01 X55.5780 Y94.5582 
G01 X55.6962 Y94.4400 
G01 X55.8314 Y94.3417 
G01 X55.9803 Y94.2658 
G01 X56.1393 Y94.2142 
G01 X56.3044 Y94.1880 
G01 X57.9956 Y94.1880 
G01 X58.1607 Y94.2142 
G01 X58.3197 Y94.2658 
G01 X58.4531 Y94.3338 
G01 X59.5690 Y93.2179 
G01 X59.5690 Y90.9310 
G01 X58.6529 Y90.9310 
G01 X58.6038 Y90.9800 
G01 X58.4686 Y91.0783 
G01 X58.3197 Y91.1542 
G01 X58.1607 Y91.2058 
G01 X57.9956 Y91.2320 
G01 X56.3044 Y91.2320 
G01 X56.1393 Y91.2058 
G01 X55.9803 Y91.1542 
G01 X55.8314 Y91.0783 
G01 X55.6962 Y90.9800 
G01 X55.5780 Y90.8618 
G01 X55.4797 Y90.7266 
G01 X55.4565 Y90.6810 
G01 X51.1829 Y90.6810 
G01 X51.0514 Y90.6548 
G01 X50.9274 Y90.6035 
G01 X50.8159 Y90.5290 
G01 X50.7210 Y90.4341 
G01 X50.6465 Y90.3226 
G01 X50.5952 Y90.1986 
G01 X50.5690 Y90.0671 
G01 X50.5690 Y67.4329 
G01 X50.5952 Y67.3014 
G01 X50.6164 Y67.2500 
G01 X50.5952 Y67.1986 
G01 X50.5690 Y67.0671 
G01 X50.5690 Y63.7821 
G01 X49.9710 Y63.1841 
G01 X49.8965 Y63.0726 
G01 X49.8452 Y62.9486 
G01 X49.8190 Y62.8171 
G01 X49.8190 Y38.4329 
G01 X49.8452 Y38.3014 
G01 X49.8965 Y38.1774 
G01 X49.9710 Y38.0659 
G01 X50.0659 Y37.9710 
G01 X51.7869 Y36.2500 
G01 X50.7210 Y35.1841 
G01 X50.6465 Y35.0726 
G01 X50.5952 Y34.9486 
G01 X50.5690 Y34.8171 
G01 X50.5690 Y10.7821 
G01 X48.6699 Y8.8829 
G01 X48.5894 Y8.9091 
G01 X48.3873 Y8.9411 
G01 X48.1827 Y8.9411 
G01 X47.9806 Y8.9091 
G01 X47.7860 Y8.8459 
G01 X47.6037 Y8.7530 
G01 X47.4381 Y8.6327 
G01 X47.2934 Y8.4880 
G01 X47.1731 Y8.3224 
G01 X47.0802 Y8.1401 
G01 X47.0170 Y7.9455 
G01 X46.9850 Y7.7434 
G01 X46.9850 Y7.5388 
G01 X47.0170 Y7.3367 
G01 X47.0802 Y7.1421 
G01 X47.1731 Y6.9598 
G01 X47.2934 Y6.7942 
G01 X47.4381 Y6.6495 
G01 X47.6037 Y6.5292 
G01 X47.7860 Y6.4363 
G01 X47.9806 Y6.3731 
G01 X48.1827 Y6.3411 
G01 X48.3873 Y6.3411 
G01 X48.5894 Y6.3731 
G01 X48.7840 Y6.4363 
G01 X48.9663 Y6.5292 
G01 X49.1319 Y6.6495 
G01 X49.2766 Y6.7942 
G01 X49.3969 Y6.9598 
G01 X49.4898 Y7.1421 
G01 X49.5530 Y7.3367 
G01 X49.5850 Y7.5388 
G01 X49.5850 Y7.7434 
G01 X49.5674 Y7.8544 
G01 X51.6841 Y9.9710 
G01 X51.7790 Y10.0659 
G01 X51.8535 Y10.1774 
G01 X51.9048 Y10.3014 
G01 X51.9310 Y10.4329 
G01 X51.9310 Y34.4679 
G01 X53.3327 Y35.8696 
G01 X54.0950 Y35.8696 
G01 X54.2805 Y35.9065 
G01 X54.4553 Y35.9789 
G01 X54.6126 Y36.0840 
G01 X54.7464 Y36.2178 
G01 X54.8515 Y36.3751 
G01 X54.9239 Y36.5499 
G01 X54.9608 Y36.7354 
G01 X54.9608 Y36.9246 
G01 X54.9239 Y37.1101 
G01 X54.8515 Y37.2849 
G01 X54.7464 Y37.4422 
G01 X54.6126 Y37.5760 
G01 X54.4553 Y37.6811 
G01 X54.2805 Y37.7535 
G01 X54.0950 Y37.7904 
G01 X52.5850 Y37.7904 
G01 X52.3995 Y37.7535 
G01 X52.2652 Y37.6979 
G01 X51.1810 Y38.7821 
G01 X51.1810 Y62.4679 
G01 X51.5321 Y62.8190 
G01 X52.6628 Y62.8190 
G01 X52.7278 Y62.7540 
G01 X52.8851 Y62.6489 
G01 X53.0599 Y62.5765 
G01 X53.2454 Y62.5396 
G01 X54.7554 Y62.5396 
G01 X54.9409 Y62.5765 
G01 X55.1157 Y62.6489 
G01 X55.2730 Y62.7540 
G01 X55.4068 Y62.8878 
G01 X55.5119 Y63.0451 
G01 X55.5843 Y63.2199 
G01 X55.6212 Y63.4054 
G01 X55.6212 Y63.5946 
G01 X55.5843 Y63.7801 
G01 X55.5119 Y63.9549 
G01 X55.4068 Y64.1122 
G01 X55.2730 Y64.2460 
G01 X55.1157 Y64.3511 
G01 X54.9409 Y64.4235 
G01 X54.7554 Y64.4604 
G01 X53.2454 Y64.4604 
G01 X53.0599 Y64.4235 
G01 X52.8851 Y64.3511 
G01 X52.7278 Y64.2460 
G01 X52.6628 Y64.1810 
G01 X51.9310 Y64.1810 
G01 X51.9310 Y66.7179 
G01 X51.9341 Y66.7210 
G01 X52.0290 Y66.8159 
G01 X52.9253 Y67.7122 
G01 X53.0599 Y67.6565 
G01 X53.2454 Y67.6196 
G01 X54.7554 Y67.6196 
G01 X54.9409 Y67.6565 
G01 X55.1157 Y67.7289 
G01 X55.2730 Y67.8340 
G01 X55.4068 Y67.9678 
G01 X55.5119 Y68.1251 
G01 X55.5843 Y68.2999 
G01 X55.6212 Y68.4854 
G01 X55.6212 Y68.6746 
G01 X55.5843 Y68.8601 
G01 X55.5119 Y69.0349 
G01 X55.4068 Y69.1922 
G01 X55.2730 Y69.3260 
G01 X55.1157 Y69.4311 
G01 X54.9409 Y69.5035 
G01 X54.7554 Y69.5404 
G01 X53.2454 Y69.5404 
G01 X53.0599 Y69.5035 
G01 X52.8851 Y69.4311 
G01 X52.7278 Y69.3260 
G01 X52.5940 Y69.1922 
G01 X52.5717 Y69.1589 
G01 X52.5514 Y69.1548 
G01 X52.4274 Y69.1035 
G01 X52.3159 Y69.0290 
G01 X52.2210 Y68.9341 
G01 X51.9310 Y68.6441 
G01 X51.9310 Y72.8190 
G01 X52.8700 Y72.8190 
G01 X52.8851 Y72.8089 
G01 X53.0599 Y72.7365 
G01 X53.2454 Y72.6996 
G01 X54.7554 Y72.6996 
G01 X54.9409 Y72.7365 
G01 X55.1157 Y72.8089 
G01 X55.2730 Y72.9140 
G01 X55.4068 Y73.0478 
G01 X55.5119 Y73.2051 
G01 X55.5843 Y73.3799 
G01 X55.6212 Y73.5654 
G01 X55.6212 Y73.7546 
G01 X55.5843 Y73.9401 
G01 X55.5119 Y74.1149 
G01 X55.4068 Y74.2722 
G01 X55.2730 Y74.4060 
G01 X55.1157 Y74.5111 
G01 X54.9409 Y74.5835 
G01 X54.7554 Y74.6204 
G01 X53.2454 Y74.6204 
G01 X53.0599 Y74.5835 
G01 X52.8851 Y74.5111 
G01 X52.7278 Y74.4060 
G01 X52.5940 Y74.2722 
G01 X52.5331 Y74.1810 
G01 X51.9310 Y74.1810 
G01 X51.9310 Y77.8190 
G01 X53.0538 Y77.8190 
G01 X53.0599 Y77.8165 
G01 X53.2454 Y77.7796 
G01 X54.7554 Y77.7796 
G01 X54.9409 Y77.8165 
G01 X55.1157 Y77.8889 
G01 X55.2730 Y77.9940 
G01 X55.4068 Y78.1278 
G01 X55.5119 Y78.2851 
G01 X55.5843 Y78.4599 
G01 X55.6212 Y78.6454 
G01 X55.6212 Y78.8346 
G01 X55.5843 Y79.0201 
G01 X55.5119 Y79.1949 
G01 X55.4068 Y79.3522 
G01 X55.2730 Y79.4860 
G01 X55.1157 Y79.5911 
G01 X54.9409 Y79.6635 
G01 X54.7554 Y79.7004 
G00 Z2.5400 
G00 X54.7554 Y82.2404 
G01 Z-0.1778 F254.00 
G01 X53.2454 Y82.2404 F508.00 
G01 X53.0599 Y82.2035 
G01 X52.8851 Y82.1311 
G01 X52.7278 Y82.0260 
G01 X52.5940 Y81.8922 
G01 X52.4889 Y81.7349 
G01 X52.4165 Y81.5601 
G01 X52.3796 Y81.3746 
G01 X52.3796 Y81.1854 
G01 X52.4165 Y80.9999 
G01 X52.4889 Y80.8251 
G01 X52.5940 Y80.6678 
G01 X52.7278 Y80.5340 
G01 X52.8851 Y80.4289 
G01 X53.0599 Y80.3565 
G01 X53.2454 Y80.3196 
G01 X54.7554 Y80.3196 
G01 X54.9409 Y80.3565 
G01 X55.1157 Y80.4289 
G01 X55.2730 Y80.5340 
G01 X55.4068 Y80.6678 
G01 X55.5119 Y80.8251 
G01 X55.5843 Y80.9999 
G01 X55.6212 Y81.1854 
G01 X55.6212 Y81.3746 
G01 X55.5843 Y81.5601 
G01 X55.5119 Y81.7349 
G01 X55.4068 Y81.8922 
G01 X55.2730 Y82.0260 
G01 X55.1157 Y82.1311 
G01 X54.9409 Y82.2035 
G01 X54.7554 Y82.2404 
G00 Z2.5400 
G00 X17.8350 Y83.7388 
G01 Z-0.1778 F254.00 
G01 X17.8350 Y83.9434 F508.00 
G01 X17.8030 Y84.1455 
G01 X17.7398 Y84.3401 
G01 X17.6469 Y84.5224 
G01 X17.5266 Y84.6880 
G01 X17.4310 Y84.7836 
G01 X17.4310 Y87.9786 
G01 X17.5266 Y88.0742 
G01 X17.6469 Y88.2398 
G01 X17.7398 Y88.4221 
G01 X17.8030 Y88.6167 
G01 X17.8350 Y88.8188 
G01 X17.8350 Y89.0234 
G01 X17.8030 Y89.2255 
G01 X17.7398 Y89.4201 
G01 X17.6469 Y89.6024 
G01 X17.5266 Y89.7680 
G01 X17.3819 Y89.9127 
G01 X17.2163 Y90.0330 
G01 X17.0340 Y90.1259 
G01 X16.8394 Y90.1891 
G01 X16.6373 Y90.2211 
G01 X16.4327 Y90.2211 
G01 X16.2306 Y90.1891 
G01 X16.0360 Y90.1259 
G01 X15.8537 Y90.0330 
G01 X15.6881 Y89.9127 
G01 X15.5434 Y89.7680 
G01 X15.4231 Y89.6024 
G01 X15.3302 Y89.4201 
G01 X15.2670 Y89.2255 
G01 X15.2350 Y89.0234 
G01 X15.2350 Y88.8188 
G01 X15.2670 Y88.6167 
G01 X15.3302 Y88.4221 
G01 X15.4231 Y88.2398 
G01 X15.5434 Y88.0742 
G01 X15.6881 Y87.9295 
G01 X15.8537 Y87.8092 
G01 X16.0360 Y87.7163 
G01 X16.0690 Y87.7056 
G01 X16.0690 Y85.0566 
G01 X16.0360 Y85.0459 
G01 X15.8537 Y84.9530 
G01 X15.6881 Y84.8327 
G01 X15.5434 Y84.6880 
G01 X15.4231 Y84.5224 
G01 X15.3302 Y84.3401 
G01 X15.2670 Y84.1455 
G01 X15.2350 Y83.9434 
G01 X15.2350 Y83.7388 
G01 X15.2670 Y83.5367 
G01 X15.3302 Y83.3421 
G01 X15.4231 Y83.1598 
G01 X15.5434 Y82.9942 
G01 X15.6881 Y82.8495 
G01 X15.8537 Y82.7292 
G01 X16.0360 Y82.6363 
G01 X16.2306 Y82.5731 
G01 X16.4327 Y82.5411 
G01 X16.6373 Y82.5411 
G01 X16.8394 Y82.5731 
G01 X16.9333 Y82.6036 
G01 X18.3190 Y81.2179 
G01 X18.3190 Y61.0321 
G01 X16.9576 Y59.6707 
G01 X16.8394 Y59.7091 
G01 X16.6373 Y59.7411 
G01 X16.4327 Y59.7411 
G01 X16.2306 Y59.7091 
G01 X16.0360 Y59.6459 
G01 X15.8537 Y59.5530 
G01 X15.6881 Y59.4327 
G01 X15.5434 Y59.2880 
G01 X15.4231 Y59.1224 
G01 X15.3302 Y58.9401 
G01 X15.2670 Y58.7455 
G01 X15.2350 Y58.5434 
G01 X15.2350 Y58.3388 
G01 X15.2670 Y58.1367 
G01 X15.3302 Y57.9421 
G01 X15.4231 Y57.7598 
G01 X15.5434 Y57.5942 
G01 X15.6881 Y57.4495 
G01 X15.8537 Y57.3292 
G01 X16.0360 Y57.2363 
G01 X16.2306 Y57.1731 
G01 X16.4327 Y57.1411 
G01 X16.6373 Y57.1411 
G01 X16.8394 Y57.1731 
G01 X17.0340 Y57.2363 
G01 X17.2163 Y57.3292 
G01 X17.3819 Y57.4495 
G01 X17.5266 Y57.5942 
G01 X17.6469 Y57.7598 
G01 X17.7398 Y57.9421 
G01 X17.8030 Y58.1367 
G01 X17.8350 Y58.3388 
G01 X17.8350 Y58.5434 
G01 X17.8243 Y58.6112 
G01 X19.4341 Y60.2210 
G01 X19.5290 Y60.3159 
G01 X19.6035 Y60.4274 
G01 X19.6548 Y60.5514 
G01 X19.6810 Y60.6829 
G01 X19.6810 Y81.5671 
G01 X19.6548 Y81.6986 
G01 X19.6035 Y81.8226 
G01 X19.5290 Y81.9341 
G01 X17.8199 Y83.6432 
G01 X17.8350 Y83.7388 
G00 Z2.5400 
G00 X17.8350 Y78.6588 
G01 Z-0.1778 F254.00 
G01 X17.8350 Y78.8634 F508.00 
G01 X17.8030 Y79.0655 
G01 X17.7398 Y79.2601 
G01 X17.6469 Y79.4424 
G01 X17.5266 Y79.6080 
G01 X17.3819 Y79.7527 
G01 X17.2163 Y79.8730 
G01 X17.0340 Y79.9659 
G01 X16.8394 Y80.0291 
G01 X16.6373 Y80.0611 
G01 X16.4327 Y80.0611 
G01 X16.2306 Y80.0291 
G01 X16.0360 Y79.9659 
G01 X15.8537 Y79.8730 
G01 X15.6881 Y79.7527 
G01 X15.5434 Y79.6080 
G01 X15.4231 Y79.4424 
G01 X15.3302 Y79.2601 
G01 X15.2670 Y79.0655 
G01 X15.2350 Y78.8634 
G01 X15.2350 Y78.6588 
G01 X15.2670 Y78.4567 
G01 X15.3302 Y78.2621 
G01 X15.4231 Y78.0798 
G01 X15.5434 Y77.9142 
G01 X15.6881 Y77.7695 
G01 X15.8537 Y77.6492 
G01 X16.0360 Y77.5563 
G01 X16.2306 Y77.4931 
G01 X16.4327 Y77.4611 
G01 X16.6373 Y77.4611 
G01 X16.8394 Y77.4931 
G01 X17.0340 Y77.5563 
G01 X17.2163 Y77.6492 
G01 X17.3819 Y77.7695 
G01 X17.5266 Y77.9142 
G01 X17.6469 Y78.0798 
G01 X17.7398 Y78.2621 
G01 X17.8030 Y78.4567 
G01 X17.8350 Y78.6588 
G00 Z2.5400 
G00 X17.8350 Y73.5788 
G01 Z-0.1778 F254.00 
G01 X17.8350 Y73.7834 F508.00 
G01 X17.8030 Y73.9855 
G01 X17.7398 Y74.1801 
G01 X17.6469 Y74.3624 
G01 X17.5266 Y74.5280 
G01 X17.3819 Y74.6727 
G01 X17.2163 Y74.7930 
G01 X17.0340 Y74.8859 
G01 X16.8394 Y74.9491 
G01 X16.6373 Y74.9811 
G01 X16.4327 Y74.9811 
G01 X16.2306 Y74.9491 
G01 X16.0360 Y74.8859 
G01 X15.8537 Y74.7930 
G01 X15.6881 Y74.6727 
G01 X15.5434 Y74.5280 
G01 X15.4231 Y74.3624 
G01 X15.3302 Y74.1801 
G01 X15.2670 Y73.9855 
G01 X15.2350 Y73.7834 
G01 X15.2350 Y73.5788 
G01 X15.2670 Y73.3767 
G01 X15.3302 Y73.1821 
G01 X15.4231 Y72.9998 
G01 X15.5434 Y72.8342 
G01 X15.6881 Y72.6895 
G01 X15.8537 Y72.5692 
G01 X16.0360 Y72.4763 
G01 X16.2306 Y72.4131 
G01 X16.4327 Y72.3811 
G01 X16.6373 Y72.3811 
G01 X16.8394 Y72.4131 
G01 X17.0340 Y72.4763 
G01 X17.2163 Y72.5692 
G01 X17.3819 Y72.6895 
G01 X17.5266 Y72.8342 
G01 X17.6469 Y72.9998 
G01 X17.7398 Y73.1821 
G01 X17.8030 Y73.3767 
G01 X17.8350 Y73.5788 
G00 Z2.5400 
G00 X17.8350 Y68.4988 
G01 Z-0.1778 F254.00 
G01 X17.8350 Y68.7034 F508.00 
G01 X17.8030 Y68.9055 
G01 X17.7398 Y69.1001 
G01 X17.6469 Y69.2824 
G01 X17.5266 Y69.4480 
G01 X17.3819 Y69.5927 
G01 X17.2163 Y69.7130 
G01 X17.0340 Y69.8059 
G01 X16.8394 Y69.8691 
G01 X16.6373 Y69.9011 
G01 X16.4327 Y69.9011 
G01 X16.2306 Y69.8691 
G01 X16.0360 Y69.8059 
G01 X15.8537 Y69.7130 
G01 X15.6881 Y69.5927 
G01 X15.5434 Y69.4480 
G01 X15.4231 Y69.2824 
G01 X15.3302 Y69.1001 
G01 X15.2670 Y68.9055 
G01 X15.2350 Y68.7034 
G01 X15.2350 Y68.4988 
G01 X15.2670 Y68.2967 
G01 X15.3302 Y68.1021 
G01 X15.4231 Y67.9198 
G01 X15.5434 Y67.7542 
G01 X15.6881 Y67.6095 
G01 X15.8537 Y67.4892 
G01 X16.0360 Y67.3963 
G01 X16.2306 Y67.3331 
G01 X16.4327 Y67.3011 
G01 X16.6373 Y67.3011 
G01 X16.8394 Y67.3331 
G01 X17.0340 Y67.3963 
G01 X17.2163 Y67.4892 
G01 X17.3819 Y67.6095 
G01 X17.5266 Y67.7542 
G01 X17.6469 Y67.9198 
G01 X17.7398 Y68.1021 
G01 X17.8030 Y68.2967 
G01 X17.8350 Y68.4988 
G00 Z2.5400 
G00 X17.8350 Y63.4188 
G01 Z-0.1778 F254.00 
G01 X17.8350 Y63.6234 F508.00 
G01 X17.8030 Y63.8255 
G01 X17.7398 Y64.0201 
G01 X17.6469 Y64.2024 
G01 X17.5266 Y64.3680 
G01 X17.3819 Y64.5127 
G01 X17.2163 Y64.6330 
G01 X17.0340 Y64.7259 
G01 X16.8394 Y64.7891 
G01 X16.6373 Y64.8211 
G01 X16.4327 Y64.8211 
G01 X16.2306 Y64.7891 
G01 X16.0360 Y64.7259 
G01 X15.8537 Y64.6330 
G01 X15.6881 Y64.5127 
G01 X15.5434 Y64.3680 
G01 X15.4231 Y64.2024 
G01 X15.3302 Y64.0201 
G01 X15.2670 Y63.8255 
G01 X15.2350 Y63.6234 
G01 X15.2350 Y63.4188 
G01 X15.2670 Y63.2167 
G01 X15.3302 Y63.0221 
G01 X15.4231 Y62.8398 
G01 X15.5434 Y62.6742 
G01 X15.6881 Y62.5295 
G01 X15.8537 Y62.4092 
G01 X16.0360 Y62.3163 
G01 X16.2306 Y62.2531 
G01 X16.4327 Y62.2211 
G01 X16.6373 Y62.2211 
G01 X16.8394 Y62.2531 
G01 X17.0340 Y62.3163 
G01 X17.2163 Y62.4092 
G01 X17.3819 Y62.5295 
G01 X17.5266 Y62.6742 
G01 X17.6469 Y62.8398 
G01 X17.7398 Y63.0221 
G01 X17.8030 Y63.2167 
G01 X17.8350 Y63.4188 
G00 Z2.5400 
G00 X17.8350 Y53.2588 
G01 Z-0.1778 F254.00 
G01 X17.8350 Y53.4634 F508.00 
G01 X17.8030 Y53.6655 
G01 X17.7398 Y53.8601 
G01 X17.6469 Y54.0424 
G01 X17.5266 Y54.2080 
G01 X17.3819 Y54.3527 
G01 X17.2163 Y54.4730 
G01 X17.0340 Y54.5659 
G01 X16.8394 Y54.6291 
G01 X16.6373 Y54.6611 
G01 X16.4327 Y54.6611 
G01 X16.2306 Y54.6291 
G01 X16.0360 Y54.5659 
G01 X15.8537 Y54.4730 
G01 X15.6881 Y54.3527 
G01 X15.5434 Y54.2080 
G01 X15.4231 Y54.0424 
G01 X15.3302 Y53.8601 
G01 X15.2670 Y53.6655 
G01 X15.2350 Y53.4634 
G01 X15.2350 Y53.2588 
G01 X15.2670 Y53.0567 
G01 X15.3302 Y52.8621 
G01 X15.4231 Y52.6798 
G01 X15.5434 Y52.5142 
G01 X15.6881 Y52.3695 
G01 X15.8537 Y52.2492 
G01 X16.0360 Y52.1563 
G01 X16.2306 Y52.0931 
G01 X16.4327 Y52.0611 
G01 X16.6373 Y52.0611 
G01 X16.8394 Y52.0931 
G01 X17.0340 Y52.1563 
G01 X17.2163 Y52.2492 
G01 X17.3819 Y52.3695 
G01 X17.5266 Y52.5142 
G01 X17.6469 Y52.6798 
G01 X17.7398 Y52.8621 
G01 X17.8030 Y53.0567 
G01 X17.8350 Y53.2588 
G00 Z2.5400 
G00 X17.8350 Y48.1788 
G01 Z-0.1778 F254.00 
G01 X17.8350 Y48.3834 F508.00 
G01 X17.8030 Y48.5855 
G01 X17.7398 Y48.7801 
G01 X17.6469 Y48.9624 
G01 X17.5266 Y49.1280 
G01 X17.3819 Y49.2727 
G01 X17.2163 Y49.3930 
G01 X17.0340 Y49.4859 
G01 X16.8394 Y49.5491 
G01 X16.6373 Y49.5811 
G01 X16.4327 Y49.5811 
G01 X16.2306 Y49.5491 
G01 X16.0360 Y49.4859 
G01 X15.8537 Y49.3930 
G01 X15.6881 Y49.2727 
G01 X15.5434 Y49.1280 
G01 X15.4231 Y48.9624 
G01 X15.3302 Y48.7801 
G01 X15.2670 Y48.5855 
G01 X15.2350 Y48.3834 
G01 X15.2350 Y48.1788 
G01 X15.2670 Y47.9767 
G01 X15.3302 Y47.7821 
G01 X15.4231 Y47.5998 
G01 X15.5434 Y47.4342 
G01 X15.6881 Y47.2895 
G01 X15.8537 Y47.1692 
G01 X16.0360 Y47.0763 
G01 X16.2306 Y47.0131 
G01 X16.4327 Y46.9811 
G01 X16.6373 Y46.9811 
G01 X16.8394 Y47.0131 
G01 X17.0340 Y47.0763 
G01 X17.2163 Y47.1692 
G01 X17.3819 Y47.2895 
G01 X17.5266 Y47.4342 
G01 X17.6469 Y47.5998 
G01 X17.7398 Y47.7821 
G01 X17.8030 Y47.9767 
G01 X17.8350 Y48.1788 
G00 Z2.5400 
G00 X127.8456 Y95.0420 
G01 Z-0.1778 F254.00 
G01 X126.1544 Y95.0420 F508.00 
G01 X125.9893 Y95.0158 
G01 X125.8303 Y94.9642 
G01 X125.6814 Y94.8883 
G01 X125.5462 Y94.7900 
G01 X125.4280 Y94.6718 
G01 X125.3297 Y94.5366 
G01 X125.2538 Y94.3877 
G01 X125.2022 Y94.2287 
G01 X125.1760 Y94.0636 
G01 X125.1760 Y93.8964 
G01 X125.2022 Y93.7313 
G01 X125.2538 Y93.5723 
G01 X125.3297 Y93.4234 
G01 X125.4280 Y93.2882 
G01 X125.5462 Y93.1700 
G01 X125.6814 Y93.0717 
G01 X125.8303 Y92.9958 
G01 X125.9893 Y92.9442 
G01 X126.1544 Y92.9180 
G01 X127.8456 Y92.9180 
G01 X128.0107 Y92.9442 
G01 X128.1697 Y92.9958 
G01 X128.3186 Y93.0717 
G01 X128.4538 Y93.1700 
G01 X128.5720 Y93.2882 
G01 X128.6703 Y93.4234 
G01 X128.7462 Y93.5723 
G01 X128.7978 Y93.7313 
G01 X128.8240 Y93.8964 
G01 X128.8240 Y94.0636 
G01 X128.7978 Y94.2287 
G01 X128.7462 Y94.3877 
G01 X128.6703 Y94.5366 
G01 X128.5720 Y94.6718 
G01 X128.4538 Y94.7900 
G01 X128.3186 Y94.8883 
G01 X128.1697 Y94.9642 
G01 X128.0107 Y95.0158 
G01 X127.8456 Y95.0420 
G00 Z2.5400 
G00 X127.8456 Y89.9620 
G01 Z-0.1778 F254.00 
G01 X126.1544 Y89.9620 F508.00 
G01 X125.9893 Y89.9358 
G01 X125.8303 Y89.8842 
G01 X125.6814 Y89.8083 
G01 X125.5462 Y89.7100 
G01 X125.4280 Y89.5918 
G01 X125.3297 Y89.4566 
G01 X125.2538 Y89.3077 
G01 X125.2022 Y89.1487 
G01 X125.1760 Y88.9836 
G01 X125.1760 Y88.8164 
G01 X125.2022 Y88.6513 
G01 X125.2538 Y88.4923 
G01 X125.3297 Y88.3434 
G01 X125.4280 Y88.2082 
G01 X125.5462 Y88.0900 
G01 X125.6814 Y87.9917 
G01 X125.8303 Y87.9158 
G01 X125.9893 Y87.8642 
G01 X126.1544 Y87.8380 
G01 X127.8456 Y87.8380 
G01 X128.0107 Y87.8642 
G01 X128.1697 Y87.9158 
G01 X128.3186 Y87.9917 
G01 X128.4538 Y88.0900 
G01 X128.5720 Y88.2082 
G01 X128.6526 Y88.3190 
G01 X130.0671 Y88.3190 
G01 X130.1986 Y88.3452 
G01 X130.3226 Y88.3965 
G01 X130.4341 Y88.4710 
G01 X130.5290 Y88.5659 
G01 X130.6035 Y88.6774 
G01 X130.6548 Y88.8014 
G01 X130.6810 Y88.9329 
G01 X130.6810 Y95.0671 
G01 X130.6548 Y95.1986 
G01 X130.6035 Y95.3226 
G01 X130.5290 Y95.4341 
G01 X127.5290 Y98.4341 
G01 X127.4341 Y98.5290 
G01 X127.3226 Y98.6035 
G01 X127.1986 Y98.6548 
G01 X127.0671 Y98.6810 
G01 X83.9329 Y98.6810 
G01 X83.8014 Y98.6548 
G01 X83.6774 Y98.6035 
G01 X83.5659 Y98.5290 
G01 X83.4710 Y98.4341 
G01 X83.3965 Y98.3226 
G01 X83.3452 Y98.1986 
G01 X83.3190 Y98.0671 
G01 X83.3190 Y73.0321 
G01 X82.3331 Y72.0462 
G01 X82.3042 Y72.0750 
G01 X82.1431 Y72.1921 
G01 X81.9657 Y72.2825 
G01 X81.7763 Y72.3440 
G01 X81.5796 Y72.3752 
G01 X81.3804 Y72.3752 
G01 X81.1837 Y72.3440 
G01 X80.9943 Y72.2825 
G01 X80.8169 Y72.1921 
G01 X80.6558 Y72.0750 
G01 X80.5150 Y71.9342 
G01 X80.3979 Y71.7731 
G01 X80.3075 Y71.5957 
G01 X80.2460 Y71.4063 
G01 X80.2148 Y71.2096 
G01 X80.2148 Y71.0104 
G01 X80.2460 Y70.8137 
G01 X80.3075 Y70.6243 
G01 X80.3979 Y70.4469 
G01 X80.5150 Y70.2858 
G01 X80.6558 Y70.1450 
G01 X80.8169 Y70.0279 
G01 X80.9943 Y69.9375 
G01 X81.1837 Y69.8760 
G01 X81.3804 Y69.8448 
G01 X81.5796 Y69.8448 
G01 X81.7763 Y69.8760 
G01 X81.9657 Y69.9375 
G01 X82.1431 Y70.0279 
G01 X82.3042 Y70.1450 
G01 X82.4450 Y70.2858 
G01 X82.5621 Y70.4469 
G01 X82.6308 Y70.5817 
G01 X82.6986 Y70.5952 
G01 X82.8226 Y70.6465 
G01 X82.9341 Y70.7210 
G01 X83.0290 Y70.8159 
G01 X84.5290 Y72.3159 
G01 X84.6035 Y72.4274 
G01 X84.6548 Y72.5514 
G01 X84.6810 Y72.6829 
G01 X84.6810 Y97.3190 
G01 X126.7179 Y97.3190 
G01 X129.3190 Y94.7179 
G01 X129.3190 Y89.6810 
G01 X128.4829 Y89.6810 
G01 X128.4538 Y89.7100 
G01 X128.3186 Y89.8083 
G01 X128.1697 Y89.8842 
G01 X128.0107 Y89.9358 
G01 X127.8456 Y89.9620 
G00 Z2.5400 
G00 X127.8456 Y87.4220 
G01 Z-0.1778 F254.00 
G01 X126.1544 Y87.4220 F508.00 
G01 X125.9893 Y87.3958 
G01 X125.8303 Y87.3442 
G01 X125.6814 Y87.2683 
G01 X125.5462 Y87.1700 
G01 X125.4280 Y87.0518 
G01 X125.3297 Y86.9166 
G01 X125.2538 Y86.7677 
G01 X125.2022 Y86.6087 
G01 X125.1760 Y86.4436 
G01 X125.1760 Y86.2764 
G01 X125.2022 Y86.1113 
G01 X125.2538 Y85.9523 
G01 X125.3297 Y85.8034 
G01 X125.4280 Y85.6682 
G01 X125.5462 Y85.5500 
G01 X125.6814 Y85.4517 
G01 X125.8303 Y85.3758 
G01 X125.9893 Y85.3242 
G01 X126.1544 Y85.2980 
G01 X127.8456 Y85.2980 
G01 X128.0107 Y85.3242 
G01 X128.1697 Y85.3758 
G01 X128.3186 Y85.4517 
G01 X128.4538 Y85.5500 
G01 X128.5720 Y85.6682 
G01 X128.6703 Y85.8034 
G01 X128.7462 Y85.9523 
G01 X128.7978 Y86.1113 
G01 X128.8240 Y86.2764 
G01 X128.8240 Y86.4436 
G01 X128.7978 Y86.6087 
G01 X128.7462 Y86.7677 
G01 X128.6703 Y86.9166 
G01 X128.5720 Y87.0518 
G01 X128.4538 Y87.1700 
G01 X128.3186 Y87.2683 
G01 X128.1697 Y87.3442 
G01 X128.0107 Y87.3958 
G01 X127.8456 Y87.4220 
G00 Z2.5400 
G00 X127.8456 Y84.8820 
G01 Z-0.1778 F254.00 
G01 X126.1544 Y84.8820 F508.00 
G01 X125.9893 Y84.8558 
G01 X125.8303 Y84.8042 
G01 X125.6814 Y84.7283 
G01 X125.5462 Y84.6300 
G01 X125.4280 Y84.5118 
G01 X125.3297 Y84.3766 
G01 X125.2538 Y84.2277 
G01 X125.2022 Y84.0687 
G01 X125.1760 Y83.9036 
G01 X125.1760 Y83.7364 
G01 X125.2022 Y83.5713 
G01 X125.2538 Y83.4123 
G01 X125.3297 Y83.2634 
G01 X125.4280 Y83.1282 
G01 X125.5462 Y83.0100 
G01 X125.6814 Y82.9117 
G01 X125.8303 Y82.8358 
G01 X125.9893 Y82.7842 
G01 X126.1544 Y82.7580 
G01 X127.8456 Y82.7580 
G01 X128.0107 Y82.7842 
G01 X128.1697 Y82.8358 
G01 X128.3186 Y82.9117 
G01 X128.4538 Y83.0100 
G01 X128.5720 Y83.1282 
G01 X128.6703 Y83.2634 
G01 X128.7462 Y83.4123 
G01 X128.7978 Y83.5713 
G01 X128.8240 Y83.7364 
G01 X128.8240 Y83.9036 
G01 X128.7978 Y84.0687 
G01 X128.7462 Y84.2277 
G01 X128.6703 Y84.3766 
G01 X128.5720 Y84.5118 
G01 X128.4538 Y84.6300 
G01 X128.3186 Y84.7283 
G01 X128.1697 Y84.8042 
G01 X128.0107 Y84.8558 
G01 X127.8456 Y84.8820 
G00 Z2.5400 
G00 X127.8456 Y79.8020 
G01 Z-0.1778 F254.00 
G01 X126.1544 Y79.8020 F508.00 
G01 X125.9893 Y79.7758 
G01 X125.8303 Y79.7242 
G01 X125.6814 Y79.6483 
G01 X125.5462 Y79.5500 
G01 X125.4280 Y79.4318 
G01 X125.3297 Y79.2966 
G01 X125.2538 Y79.1477 
G01 X125.2022 Y78.9887 
G01 X125.1760 Y78.8236 
G01 X125.1760 Y78.6564 
G01 X125.2022 Y78.4913 
G01 X125.2538 Y78.3323 
G01 X125.3297 Y78.1834 
G01 X125.4280 Y78.0482 
G01 X125.5462 Y77.9300 
G01 X125.6814 Y77.8317 
G01 X125.8303 Y77.7558 
G01 X125.9893 Y77.7041 
G01 X126.1544 Y77.6780 
G01 X127.8456 Y77.6780 
G01 X128.0107 Y77.7041 
G01 X128.1697 Y77.7558 
G01 X128.3186 Y77.8317 
G01 X128.4538 Y77.9300 
G01 X128.5720 Y78.0482 
G01 X128.6703 Y78.1834 
G01 X128.7462 Y78.3323 
G01 X128.7978 Y78.4913 
G01 X128.8240 Y78.6564 
G01 X128.8240 Y78.8236 
G01 X128.7978 Y78.9887 
G01 X128.7462 Y79.1477 
G01 X128.6703 Y79.2966 
G01 X128.5720 Y79.4318 
G01 X128.4538 Y79.5500 
G01 X128.3186 Y79.6483 
G01 X128.1697 Y79.7242 
G01 X128.0107 Y79.7758 
G01 X127.8456 Y79.8020 
G00 Z2.5400 
G00 X127.8456 Y69.6420 
G01 Z-0.1778 F254.00 
G01 X126.1544 Y69.6420 F508.00 
G01 X125.9893 Y69.6158 
G01 X125.8303 Y69.5642 
G01 X125.6814 Y69.4883 
G01 X125.5462 Y69.3900 
G01 X125.4280 Y69.2718 
G01 X125.3297 Y69.1366 
G01 X125.2538 Y68.9877 
G01 X125.2022 Y68.8287 
G01 X125.1760 Y68.6636 
G01 X125.1760 Y68.4964 
G01 X125.2022 Y68.3313 
G01 X125.2538 Y68.1723 
G01 X125.3297 Y68.0234 
G01 X125.4280 Y67.8882 
G01 X125.5462 Y67.7700 
G01 X125.6814 Y67.6717 
G01 X125.8303 Y67.5958 
G01 X125.9893 Y67.5442 
G01 X126.1544 Y67.5180 
G01 X127.8456 Y67.5180 
G01 X128.0107 Y67.5442 
G01 X128.1697 Y67.5958 
G01 X128.3186 Y67.6717 
G01 X128.4538 Y67.7700 
G01 X128.5720 Y67.8882 
G01 X128.6703 Y68.0234 
G01 X128.7462 Y68.1723 
G01 X128.7978 Y68.3313 
G01 X128.8240 Y68.4964 
G01 X128.8240 Y68.6636 
G01 X128.7978 Y68.8287 
G01 X128.7462 Y68.9877 
G01 X128.6703 Y69.1366 
G01 X128.5720 Y69.2718 
G01 X128.4538 Y69.3900 
G01 X128.3186 Y69.4883 
G01 X128.1697 Y69.5642 
G01 X128.0107 Y69.6158 
G01 X127.8456 Y69.6420 
G00 Z2.5400 
G00 X127.8456 Y67.1020 
G01 Z-0.1778 F254.00 
G01 X126.1544 Y67.1020 F508.00 
G01 X125.9893 Y67.0758 
G01 X125.8303 Y67.0242 
G01 X125.6814 Y66.9483 
G01 X125.6576 Y66.9310 
G01 X115.4310 Y66.9310 
G01 X115.4310 Y81.3171 
G01 X115.4048 Y81.4486 
G01 X115.3535 Y81.5726 
G01 X115.2790 Y81.6841 
G01 X107.7790 Y89.1841 
G01 X107.6841 Y89.2790 
G01 X107.5726 Y89.3535 
G01 X107.4486 Y89.4048 
G01 X107.4030 Y89.4139 
G01 X107.3321 Y89.5531 
G01 X107.2150 Y89.7142 
G01 X107.0742 Y89.8550 
G01 X106.9131 Y89.9721 
G01 X106.7357 Y90.0625 
G01 X106.5463 Y90.1240 
G01 X106.3496 Y90.1552 
G01 X106.1504 Y90.1552 
G01 X105.9537 Y90.1240 
G01 X105.7643 Y90.0625 
G01 X105.5869 Y89.9721 
G01 X105.4258 Y89.8550 
G01 X105.2850 Y89.7142 
G01 X105.1679 Y89.5531 
G01 X105.0775 Y89.3757 
G01 X105.0160 Y89.1863 
G01 X104.9848 Y88.9896 
G01 X104.9848 Y88.7904 
G01 X105.0160 Y88.5937 
G01 X105.0775 Y88.4043 
G01 X105.1679 Y88.2269 
G01 X105.2850 Y88.0658 
G01 X105.4258 Y87.9250 
G01 X105.5869 Y87.8079 
G01 X105.7643 Y87.7175 
G01 X105.9537 Y87.6560 
G01 X106.1504 Y87.6248 
G01 X106.3496 Y87.6248 
G01 X106.5463 Y87.6560 
G01 X106.7357 Y87.7175 
G01 X106.9131 Y87.8079 
G01 X107.0742 Y87.9250 
G01 X107.0931 Y87.9438 
G01 X114.0690 Y80.9679 
G01 X114.0690 Y66.1829 
G01 X114.0952 Y66.0514 
G01 X114.1465 Y65.9274 
G01 X114.2210 Y65.8159 
G01 X114.3159 Y65.7210 
G01 X114.4274 Y65.6465 
G01 X114.5514 Y65.5952 
G01 X114.6829 Y65.5690 
G01 X125.2861 Y65.5690 
G01 X125.3297 Y65.4834 
G01 X125.4280 Y65.3482 
G01 X125.5462 Y65.2300 
G01 X125.6814 Y65.1317 
G01 X125.8303 Y65.0558 
G01 X125.9893 Y65.0042 
G01 X126.1544 Y64.9780 
G01 X127.8456 Y64.9780 
G01 X128.0107 Y65.0042 
G01 X128.1697 Y65.0558 
G01 X128.3186 Y65.1317 
G01 X128.4538 Y65.2300 
G01 X128.5720 Y65.3482 
G01 X128.6703 Y65.4834 
G01 X128.7462 Y65.6323 
G01 X128.7978 Y65.7913 
G01 X128.8240 Y65.9564 
G01 X128.8240 Y66.1236 
G01 X128.7978 Y66.2887 
G01 X128.7462 Y66.4477 
G01 X128.6703 Y66.5966 
G01 X128.5720 Y66.7318 
G01 X128.4538 Y66.8500 
G01 X128.3186 Y66.9483 
G01 X128.1697 Y67.0242 
G01 X128.0107 Y67.0758 
G01 X127.8456 Y67.1020 
G00 Z2.5400 
G00 X127.8456 Y62.0220 
G01 Z-0.1778 F254.00 
G01 X126.1544 Y62.0220 F508.00 
G01 X125.9893 Y61.9958 
G01 X125.8303 Y61.9442 
G01 X125.6814 Y61.8683 
G01 X125.5462 Y61.7700 
G01 X125.4280 Y61.6518 
G01 X125.3297 Y61.5166 
G01 X125.2538 Y61.3677 
G01 X125.2022 Y61.2087 
G01 X125.1760 Y61.0436 
G01 X125.1760 Y60.8764 
G01 X125.2022 Y60.7113 
G01 X125.2538 Y60.5523 
G01 X125.3297 Y60.4034 
G01 X125.4280 Y60.2682 
G01 X125.5462 Y60.1500 
G01 X125.6814 Y60.0517 
G01 X125.8303 Y59.9758 
G01 X125.9893 Y59.9242 
G01 X126.1544 Y59.8980 
G01 X127.8456 Y59.8980 
G01 X128.0107 Y59.9242 
G01 X128.1697 Y59.9758 
G01 X128.3186 Y60.0517 
G01 X128.4538 Y60.1500 
G01 X128.5720 Y60.2682 
G01 X128.6703 Y60.4034 
G01 X128.7462 Y60.5523 
G01 X128.7978 Y60.7113 
G01 X128.8240 Y60.8764 
G01 X128.8240 Y61.0436 
G01 X128.7978 Y61.2087 
G01 X128.7462 Y61.3677 
G01 X128.6703 Y61.5166 
G01 X128.5720 Y61.6518 
G01 X128.4538 Y61.7700 
G01 X128.3186 Y61.8683 
G01 X128.1697 Y61.9442 
G01 X128.0107 Y61.9958 
G01 X127.8456 Y62.0220 
G00 Z2.5400 
G00 X127.8456 Y59.4820 
G01 Z-0.1778 F254.00 
G01 X126.1544 Y59.4820 F508.00 
G01 X125.9893 Y59.4558 
G01 X125.8303 Y59.4042 
G01 X125.6814 Y59.3283 
G01 X125.5462 Y59.2300 
G01 X125.4971 Y59.1810 
G01 X113.4310 Y59.1810 
G01 X113.4310 Y72.3148 
G01 X113.4660 Y72.3673 
G01 X113.5269 Y72.5143 
G01 X113.5580 Y72.6704 
G01 X113.5580 Y72.8296 
G01 X113.5269 Y72.9857 
G01 X113.4660 Y73.1327 
G01 X113.3776 Y73.2651 
G01 X113.2651 Y73.3776 
G01 X113.1327 Y73.4660 
G01 X112.9857 Y73.5269 
G01 X112.8296 Y73.5580 
G01 X112.6704 Y73.5580 
G01 X112.5143 Y73.5269 
G01 X112.3673 Y73.4660 
G01 X112.2349 Y73.3776 
G01 X112.1224 Y73.2651 
G01 X112.0340 Y73.1327 
G01 X111.9731 Y72.9857 
G01 X111.9420 Y72.8296 
G01 X111.9420 Y72.6704 
G01 X111.9731 Y72.5143 
G01 X112.0340 Y72.3673 
G01 X112.0690 Y72.3148 
G01 X112.0690 Y58.4329 
G01 X112.0952 Y58.3014 
G01 X112.1465 Y58.1774 
G01 X112.2210 Y58.0659 
G01 X112.3159 Y57.9710 
G01 X112.4274 Y57.8965 
G01 X112.5514 Y57.8452 
G01 X112.6829 Y57.8190 
G01 X125.3620 Y57.8190 
G01 X125.4280 Y57.7282 
G01 X125.5462 Y57.6100 
G01 X125.6814 Y57.5117 
G01 X125.8303 Y57.4358 
G01 X125.9893 Y57.3842 
G01 X126.1544 Y57.3580 
G01 X127.8456 Y57.3580 
G01 X128.0107 Y57.3842 
G01 X128.1697 Y57.4358 
G01 X128.3186 Y57.5117 
G01 X128.4538 Y57.6100 
G01 X128.5720 Y57.7282 
G01 X128.6703 Y57.8634 
G01 X128.7462 Y58.0123 
G01 X128.7978 Y58.1713 
G01 X128.8240 Y58.3364 
G01 X128.8240 Y58.5036 
G01 X128.7978 Y58.6687 
G01 X128.7462 Y58.8277 
G01 X128.6703 Y58.9766 
G01 X128.5720 Y59.1118 
G01 X128.4538 Y59.2300 
G01 X128.3186 Y59.3283 
G01 X128.1697 Y59.4042 
G01 X128.0107 Y59.4558 
G01 X127.8456 Y59.4820 
G00 Z2.5400 
G00 X127.8456 Y56.9420 
G01 Z-0.1778 F254.00 
G01 X126.1544 Y56.9420 F508.00 
G01 X125.9893 Y56.9158 
G01 X125.8303 Y56.8642 
G01 X125.6814 Y56.7883 
G01 X125.5462 Y56.6900 
G01 X125.4280 Y56.5718 
G01 X125.3297 Y56.4366 
G01 X125.2538 Y56.2877 
G01 X125.2022 Y56.1287 
G01 X125.1760 Y55.9636 
G01 X125.1760 Y55.7964 
G01 X125.2022 Y55.6313 
G01 X125.2538 Y55.4723 
G01 X125.3297 Y55.3234 
G01 X125.4280 Y55.1882 
G01 X125.5462 Y55.0700 
G01 X125.6814 Y54.9717 
G01 X125.8303 Y54.8958 
G01 X125.9893 Y54.8442 
G01 X126.1544 Y54.8180 
G01 X127.8456 Y54.8180 
G01 X128.0107 Y54.8442 
G01 X128.1697 Y54.8958 
G01 X128.3186 Y54.9717 
G01 X128.4538 Y55.0700 
G01 X128.5720 Y55.1882 
G01 X128.6671 Y55.3190 
G01 X130.0671 Y55.3190 
G01 X130.1986 Y55.3452 
G01 X130.3226 Y55.3965 
G01 X130.4341 Y55.4710 
G01 X130.5290 Y55.5659 
G01 X130.6035 Y55.6774 
G01 X130.6548 Y55.8014 
G01 X130.6810 Y55.9329 
G01 X130.6810 Y62.0671 
G01 X130.6548 Y62.1986 
G01 X130.6336 Y62.2500 
G01 X130.6548 Y62.3014 
G01 X130.6810 Y62.4329 
G01 X130.6810 Y81.3171 
G01 X130.6548 Y81.4486 
G01 X130.6035 Y81.5726 
G01 X130.5290 Y81.6841 
G01 X130.4341 Y81.7790 
G01 X130.3226 Y81.8535 
G01 X130.1986 Y81.9048 
G01 X130.0671 Y81.9310 
G01 X128.6017 Y81.9310 
G01 X128.5720 Y81.9718 
G01 X128.4538 Y82.0900 
G01 X128.3186 Y82.1883 
G01 X128.1697 Y82.2642 
G01 X128.0107 Y82.3158 
G01 X127.8456 Y82.3420 
G01 X126.1544 Y82.3420 
G01 X125.9893 Y82.3158 
G01 X125.8303 Y82.2642 
G01 X125.6814 Y82.1883 
G01 X125.5462 Y82.0900 
G01 X125.4280 Y81.9718 
G01 X125.3297 Y81.8366 
G01 X125.2538 Y81.6877 
G01 X125.2022 Y81.5287 
G01 X125.1760 Y81.3636 
G01 X125.1760 Y81.1964 
G01 X125.2022 Y81.0313 
G01 X125.2538 Y80.8723 
G01 X125.3297 Y80.7234 
G01 X125.4280 Y80.5882 
G01 X125.5462 Y80.4699 
G01 X125.6814 Y80.3717 
G01 X125.8303 Y80.2958 
G01 X125.9893 Y80.2442 
G01 X126.1544 Y80.2180 
G01 X127.8456 Y80.2180 
G01 X128.0107 Y80.2442 
G01 X128.1697 Y80.2958 
G01 X128.3186 Y80.3717 
G01 X128.4538 Y80.4699 
G01 X128.5529 Y80.5690 
G01 X129.3190 Y80.5690 
G01 X129.3190 Y63.6441 
G01 X129.0290 Y63.9341 
G01 X128.9341 Y64.0290 
G01 X128.8226 Y64.1035 
G01 X128.6986 Y64.1548 
G01 X128.5821 Y64.1780 
G01 X128.5720 Y64.1918 
G01 X128.4538 Y64.3100 
G01 X128.3186 Y64.4083 
G01 X128.1697 Y64.4842 
G01 X128.0107 Y64.5358 
G01 X127.8456 Y64.5620 
G01 X126.1544 Y64.5620 
G01 X125.9893 Y64.5358 
G01 X125.8303 Y64.4842 
G01 X125.6814 Y64.4083 
G01 X125.5462 Y64.3100 
G01 X125.4280 Y64.1918 
G01 X125.3297 Y64.0566 
G01 X125.2538 Y63.9077 
G01 X125.2022 Y63.7487 
G01 X125.1760 Y63.5836 
G01 X125.1760 Y63.4164 
G01 X125.2022 Y63.2513 
G01 X125.2538 Y63.0923 
G01 X125.3297 Y62.9434 
G01 X125.4280 Y62.8082 
G01 X125.5462 Y62.6900 
G01 X125.6814 Y62.5917 
G01 X125.8303 Y62.5158 
G01 X125.9893 Y62.4642 
G01 X126.1544 Y62.4380 
G01 X127.8456 Y62.4380 
G01 X128.0107 Y62.4642 
G01 X128.1697 Y62.5158 
G01 X128.3186 Y62.5917 
G01 X128.3919 Y62.6450 
G01 X129.2210 Y61.8159 
G01 X129.3159 Y61.7210 
G01 X129.3190 Y61.7179 
G01 X129.3190 Y56.6810 
G01 X128.4629 Y56.6810 
G01 X128.4538 Y56.6900 
G01 X128.3186 Y56.7883 
G01 X128.1697 Y56.8642 
G01 X128.0107 Y56.9158 
G01 X127.8456 Y56.9420 
G00 Z2.5400 
G00 X57.9956 Y93.7720 
G01 Z-0.1778 F254.00 
G01 X56.3044 Y93.7720 F508.00 
G01 X56.1393 Y93.7458 
G01 X55.9803 Y93.6942 
G01 X55.8314 Y93.6183 
G01 X55.6962 Y93.5200 
G01 X55.5780 Y93.4018 
G01 X55.4797 Y93.2666 
G01 X55.4038 Y93.1177 
G01 X55.3522 Y92.9587 
G01 X55.3260 Y92.7936 
G01 X55.3260 Y92.6264 
G01 X55.3522 Y92.4613 
G01 X55.4038 Y92.3023 
G01 X55.4797 Y92.1534 
G01 X55.5780 Y92.0182 
G01 X55.6962 Y91.9000 
G01 X55.8314 Y91.8017 
G01 X55.9803 Y91.7258 
G01 X56.1393 Y91.6741 
G01 X56.3044 Y91.6480 
G01 X57.9956 Y91.6480 
G01 X58.1607 Y91.6741 
G01 X58.3197 Y91.7258 
G01 X58.4686 Y91.8017 
G01 X58.6038 Y91.9000 
G01 X58.7220 Y92.0182 
G01 X58.8203 Y92.1534 
G01 X58.8962 Y92.3023 
G01 X58.9478 Y92.4613 
G01 X58.9740 Y92.6264 
G01 X58.9740 Y92.7936 
G01 X58.9478 Y92.9587 
G01 X58.8962 Y93.1177 
G01 X58.8203 Y93.2666 
G01 X58.7220 Y93.4018 
G01 X58.6038 Y93.5200 
G01 X58.4686 Y93.6183 
G01 X58.3197 Y93.6942 
G01 X58.1607 Y93.7458 
G01 X57.9956 Y93.7720 
G00 Z2.5400 
G00 X57.9956 Y88.6920 
G01 Z-0.1778 F254.00 
G01 X56.3044 Y88.6920 F508.00 
G01 X56.1393 Y88.6658 
G01 X55.9803 Y88.6142 
G01 X55.8314 Y88.5383 
G01 X55.6962 Y88.4400 
G01 X55.5780 Y88.3218 
G01 X55.4797 Y88.1866 
G01 X55.4038 Y88.0377 
G01 X55.3522 Y87.8787 
G01 X55.3260 Y87.7136 
G01 X55.3260 Y87.5464 
G01 X55.3522 Y87.3813 
G01 X55.4038 Y87.2223 
G01 X55.4797 Y87.0734 
G01 X55.5780 Y86.9382 
G01 X55.6962 Y86.8200 
G01 X55.8314 Y86.7217 
G01 X55.9803 Y86.6458 
G01 X56.1393 Y86.5941 
G01 X56.3044 Y86.5680 
G01 X57.2189 Y86.5680 
G01 X60.5690 Y83.2179 
G01 X60.5690 Y68.1829 
G01 X60.5952 Y68.0514 
G01 X60.6465 Y67.9274 
G01 X60.7210 Y67.8159 
G01 X73.7107 Y54.8262 
G01 X73.7231 Y54.7643 
G01 X73.7840 Y54.6173 
G01 X73.8724 Y54.4849 
G01 X73.9849 Y54.3724 
G01 X74.1173 Y54.2840 
G01 X74.2643 Y54.2231 
G01 X74.4204 Y54.1920 
G01 X74.5796 Y54.1920 
G01 X74.7357 Y54.2231 
G01 X74.8827 Y54.2840 
G01 X75.0151 Y54.3724 
G01 X75.1276 Y54.4849 
G01 X75.2160 Y54.6173 
G01 X75.2769 Y54.7643 
G01 X75.3080 Y54.9204 
G01 X75.3080 Y55.0796 
G01 X75.2769 Y55.2357 
G01 X75.2160 Y55.3827 
G01 X75.1276 Y55.5151 
G01 X75.0151 Y55.6276 
G01 X74.8827 Y55.7160 
G01 X74.7357 Y55.7769 
G01 X74.6738 Y55.7893 
G01 X61.9310 Y68.5321 
G01 X61.9310 Y83.5671 
G01 X61.9048 Y83.6986 
G01 X61.8535 Y83.8226 
G01 X61.7790 Y83.9341 
G01 X61.6841 Y84.0290 
G01 X58.7443 Y86.9688 
G01 X58.8203 Y87.0734 
G01 X58.8962 Y87.2223 
G01 X58.9478 Y87.3813 
G01 X58.9740 Y87.5464 
G01 X58.9740 Y87.7136 
G01 X58.9478 Y87.8787 
G01 X58.8962 Y88.0377 
G01 X58.8203 Y88.1866 
G01 X58.7220 Y88.3218 
G01 X58.6038 Y88.4400 
G01 X58.4686 Y88.5383 
G01 X58.3197 Y88.6142 
G01 X58.1607 Y88.6658 
G01 X57.9956 Y88.6920 
G00 Z2.5400 
G00 X107.5152 Y53.2304 
G01 Z-0.1778 F254.00 
G01 X107.5152 Y53.4296 F508.00 
G01 X107.4840 Y53.6263 
G01 X107.4225 Y53.8157 
G01 X107.3321 Y53.9931 
G01 X107.2150 Y54.1542 
G01 X107.0742 Y54.2950 
G01 X106.9131 Y54.4121 
G01 X106.7357 Y54.5025 
G01 X106.5463 Y54.5640 
G01 X106.3496 Y54.5952 
G01 X106.1504 Y54.5952 
G01 X105.9537 Y54.5640 
G01 X105.7643 Y54.5025 
G01 X105.5869 Y54.4121 
G01 X105.4258 Y54.2950 
G01 X105.2850 Y54.1542 
G01 X105.1679 Y53.9931 
G01 X105.0775 Y53.8157 
G01 X105.0160 Y53.6263 
G01 X104.9848 Y53.4296 
G01 X104.9848 Y53.2304 
G01 X105.0160 Y53.0337 
G01 X105.0775 Y52.8443 
G01 X105.1679 Y52.6669 
G01 X105.2850 Y52.5058 
G01 X105.4258 Y52.3650 
G01 X105.5869 Y52.2479 
G01 X105.7643 Y52.1575 
G01 X105.9537 Y52.0960 
G01 X106.1504 Y52.0648 
G01 X106.3496 Y52.0648 
G01 X106.5463 Y52.0960 
G01 X106.7357 Y52.1575 
G01 X106.9131 Y52.2479 
G01 X107.0742 Y52.3650 
G01 X107.2150 Y52.5058 
G01 X107.3321 Y52.6669 
G01 X107.4225 Y52.8443 
G01 X107.4840 Y53.0337 
G01 X107.5152 Y53.2304 
G00 Z2.5400 
G00 X107.5152 Y55.7704 
G01 Z-0.1778 F254.00 
G01 X107.5152 Y55.9696 F508.00 
G01 X107.4840 Y56.1663 
G01 X107.4225 Y56.3557 
G01 X107.3321 Y56.5331 
G01 X107.2150 Y56.6942 
G01 X107.0742 Y56.8350 
G01 X106.9131 Y56.9521 
G01 X106.7357 Y57.0425 
G01 X106.5463 Y57.1040 
G01 X106.3496 Y57.1352 
G01 X106.1504 Y57.1352 
G01 X105.9537 Y57.1040 
G01 X105.7643 Y57.0425 
G01 X105.5869 Y56.9521 
G01 X105.4258 Y56.8350 
G01 X105.2850 Y56.6942 
G01 X105.1679 Y56.5331 
G01 X105.0775 Y56.3557 
G01 X105.0160 Y56.1663 
G01 X104.9848 Y55.9696 
G01 X104.9848 Y55.7704 
G01 X105.0160 Y55.5737 
G01 X105.0775 Y55.3843 
G01 X105.1679 Y55.2069 
G01 X105.2850 Y55.0458 
G01 X105.4258 Y54.9050 
G01 X105.5869 Y54.7879 
G01 X105.7643 Y54.6975 
G01 X105.9537 Y54.6360 
G01 X106.1504 Y54.6048 
G01 X106.3496 Y54.6048 
G01 X106.5463 Y54.6360 
G01 X106.7357 Y54.6975 
G01 X106.9131 Y54.7879 
G01 X107.0742 Y54.9050 
G01 X107.2150 Y55.0458 
G01 X107.3321 Y55.2069 
G01 X107.4225 Y55.3843 
G01 X107.4840 Y55.5737 
G01 X107.5152 Y55.7704 
G00 Z2.5400 
G00 X107.5152 Y58.3104 
G01 Z-0.1778 F254.00 
G01 X107.5152 Y58.5096 F508.00 
G01 X107.4840 Y58.7063 
G01 X107.4225 Y58.8957 
G01 X107.3321 Y59.0731 
G01 X107.2150 Y59.2342 
G01 X107.0742 Y59.3750 
G01 X106.9131 Y59.4921 
G01 X106.7357 Y59.5825 
G01 X106.5463 Y59.6440 
G01 X106.3496 Y59.6752 
G01 X106.1504 Y59.6752 
G01 X105.9537 Y59.6440 
G01 X105.7643 Y59.5825 
G01 X105.5869 Y59.4921 
G01 X105.4258 Y59.3750 
G01 X105.2850 Y59.2342 
G01 X105.1679 Y59.0731 
G01 X105.0775 Y58.8957 
G01 X105.0160 Y58.7063 
G01 X104.9848 Y58.5096 
G01 X104.9848 Y58.3104 
G01 X105.0160 Y58.1137 
G01 X105.0775 Y57.9243 
G01 X105.1679 Y57.7469 
G01 X105.2850 Y57.5858 
G01 X105.4258 Y57.4450 
G01 X105.5869 Y57.3279 
G01 X105.7643 Y57.2375 
G01 X105.9537 Y57.1760 
G01 X106.1504 Y57.1448 
G01 X106.3496 Y57.1448 
G01 X106.5463 Y57.1760 
G01 X106.7357 Y57.2375 
G01 X106.9131 Y57.3279 
G01 X107.0742 Y57.4450 
G01 X107.2150 Y57.5858 
G01 X107.3321 Y57.7469 
G01 X107.4225 Y57.9243 
G01 X107.4840 Y58.1137 
G01 X107.5152 Y58.3104 
G00 Z2.5400 
G00 X107.5152 Y60.8504 
G01 Z-0.1778 F254.00 
G01 X107.5152 Y61.0496 F508.00 
G01 X107.4840 Y61.2463 
G01 X107.4225 Y61.4357 
G01 X107.3321 Y61.6131 
G01 X107.2150 Y61.7742 
G01 X107.0742 Y61.9150 
G01 X106.9131 Y62.0321 
G01 X106.7357 Y62.1225 
G01 X106.5463 Y62.1840 
G01 X106.3496 Y62.2152 
G01 X106.1504 Y62.2152 
G01 X105.9537 Y62.1840 
G01 X105.7643 Y62.1225 
G01 X105.5869 Y62.0321 
G01 X105.4258 Y61.9150 
G01 X105.2850 Y61.7742 
G01 X105.2172 Y61.6810 
G01 X105.1829 Y61.6810 
G01 X105.0514 Y61.6548 
G01 X104.9274 Y61.6035 
G01 X104.8159 Y61.5290 
G01 X104.7210 Y61.4341 
G01 X103.2210 Y59.9341 
G01 X103.1465 Y59.8226 
G01 X103.0952 Y59.6986 
G01 X103.0690 Y59.5671 
G01 X103.0690 Y57.7821 
G01 X94.8262 Y49.5393 
G01 X94.7643 Y49.5269 
G01 X94.6173 Y49.4660 
G01 X94.4849 Y49.3776 
G01 X94.3724 Y49.2651 
G01 X94.2840 Y49.1327 
G01 X94.2231 Y48.9857 
G01 X94.1920 Y48.8296 
G01 X94.1920 Y48.6704 
G01 X94.2231 Y48.5143 
G01 X94.2840 Y48.3673 
G01 X94.3724 Y48.2349 
G01 X94.4849 Y48.1224 
G01 X94.6173 Y48.0340 
G01 X94.7643 Y47.9731 
G01 X94.9204 Y47.9420 
G01 X95.0796 Y47.9420 
G01 X95.2357 Y47.9731 
G01 X95.3827 Y48.0340 
G01 X95.5151 Y48.1224 
G01 X95.6276 Y48.2349 
G01 X95.7160 Y48.3673 
G01 X95.7769 Y48.5143 
G01 X95.7893 Y48.5762 
G01 X104.1841 Y56.9710 
G01 X104.2790 Y57.0659 
G01 X104.3535 Y57.1774 
G01 X104.4048 Y57.3014 
G01 X104.4310 Y57.4329 
G01 X104.4310 Y59.2179 
G01 X105.3119 Y60.0988 
G01 X105.4258 Y59.9850 
G01 X105.5869 Y59.8679 
G01 X105.7643 Y59.7775 
G01 X105.9537 Y59.7160 
G01 X106.1504 Y59.6848 
G01 X106.3496 Y59.6848 
G01 X106.5463 Y59.7160 
G01 X106.7357 Y59.7775 
G01 X106.9131 Y59.8679 
G01 X107.0742 Y59.9850 
G01 X107.2150 Y60.1258 
G01 X107.3321 Y60.2869 
G01 X107.4225 Y60.4643 
G01 X107.4840 Y60.6537 
G01 X107.5152 Y60.8504 
G00 Z2.5400 
G00 X107.2150 Y64.3142 
G01 Z-0.1778 F254.00 
G01 X107.0742 Y64.4550 F508.00 
G01 X106.9131 Y64.5721 
G01 X106.7357 Y64.6625 
G01 X106.5463 Y64.7240 
G01 X106.3496 Y64.7552 
G01 X106.1504 Y64.7552 
G01 X105.9537 Y64.7240 
G01 X105.7643 Y64.6625 
G01 X105.5869 Y64.5721 
G01 X105.4258 Y64.4550 
G01 X105.2850 Y64.3142 
G01 X105.1679 Y64.1531 
G01 X105.0775 Y63.9757 
G01 X105.0160 Y63.7863 
G01 X104.9848 Y63.5896 
G01 X104.9848 Y63.3904 
G01 X105.0160 Y63.1937 
G01 X105.0775 Y63.0043 
G01 X105.1679 Y62.8269 
G01 X105.2850 Y62.6658 
G01 X105.4258 Y62.5250 
G01 X105.5869 Y62.4079 
G01 X105.7643 Y62.3175 
G01 X105.9537 Y62.2560 
G01 X106.1504 Y62.2248 
G01 X106.3496 Y62.2248 
G01 X106.5463 Y62.2560 
G01 X106.7357 Y62.3175 
G01 X106.9131 Y62.4079 
G01 X107.0742 Y62.5250 
G01 X107.1681 Y62.6188 
G01 X108.0690 Y61.7179 
G01 X108.0690 Y52.5321 
G01 X105.0762 Y49.5393 
G01 X105.0143 Y49.5269 
G01 X104.8673 Y49.4660 
G01 X104.7349 Y49.3776 
G01 X104.6224 Y49.2651 
G01 X104.5340 Y49.1327 
G01 X104.4731 Y48.9857 
G01 X104.4420 Y48.8296 
G01 X104.4420 Y48.6704 
G01 X104.4731 Y48.5143 
G01 X104.5340 Y48.3673 
G01 X104.6224 Y48.2349 
G01 X104.7349 Y48.1224 
G01 X104.8673 Y48.0340 
G01 X105.0143 Y47.9731 
G01 X105.1704 Y47.9420 
G01 X105.3296 Y47.9420 
G01 X105.4857 Y47.9731 
G01 X105.6327 Y48.0340 
G01 X105.7651 Y48.1224 
G01 X105.8776 Y48.2349 
G01 X105.9660 Y48.3673 
G01 X106.0269 Y48.5143 
G01 X106.0393 Y48.5762 
G01 X109.1841 Y51.7210 
G01 X109.2790 Y51.8159 
G01 X109.3535 Y51.9274 
G01 X109.4048 Y52.0514 
G01 X109.4310 Y52.1829 
G01 X109.4310 Y62.0671 
G01 X109.4048 Y62.1986 
G01 X109.3535 Y62.3226 
G01 X109.2790 Y62.4341 
G01 X109.1841 Y62.5290 
G01 X107.7790 Y63.9341 
G01 X107.6841 Y64.0290 
G01 X107.5726 Y64.1035 
G01 X107.4486 Y64.1548 
G01 X107.3171 Y64.1810 
G01 X107.3118 Y64.1810 
G01 X107.2150 Y64.3142 
G00 Z2.5400 
G00 X107.5152 Y65.9304 
G01 Z-0.1778 F254.00 
G01 X107.5152 Y66.1296 F508.00 
G01 X107.4840 Y66.3263 
G01 X107.4225 Y66.5157 
G01 X107.3321 Y66.6931 
G01 X107.2150 Y66.8542 
G01 X107.0742 Y66.9950 
G01 X106.9131 Y67.1121 
G01 X106.7357 Y67.2025 
G01 X106.5463 Y67.2640 
G01 X106.3496 Y67.2952 
G01 X106.1504 Y67.2952 
G01 X105.9537 Y67.2640 
G01 X105.7643 Y67.2025 
G01 X105.5869 Y67.1121 
G01 X105.4258 Y66.9950 
G01 X105.2850 Y66.8542 
G01 X105.1679 Y66.6931 
G01 X105.1593 Y66.6763 
G01 X105.0514 Y66.6548 
G01 X104.9274 Y66.6035 
G01 X104.8159 Y66.5290 
G01 X104.7210 Y66.4341 
G01 X77.9710 Y39.6841 
G01 X77.8965 Y39.5726 
G01 X77.8452 Y39.4486 
G01 X77.8190 Y39.3171 
G01 X77.8190 Y23.7821 
G01 X60.2210 Y6.1841 
G01 X60.1465 Y6.0726 
G01 X60.0952 Y5.9486 
G01 X60.0690 Y5.8171 
G01 X60.0690 Y5.6810 
G01 X47.7821 Y5.6810 
G01 X40.9310 Y12.5321 
G01 X40.9310 Y48.5690 
G01 X45.4738 Y48.5690 
G01 X45.5145 Y48.5659 
G01 X45.5407 Y48.5690 
G01 X45.5671 Y48.5690 
G01 X45.5701 Y48.5696 
G01 X46.4750 Y48.5696 
G01 X46.6605 Y48.6065 
G01 X46.8353 Y48.6789 
G01 X46.9926 Y48.7840 
G01 X47.1264 Y48.9178 
G01 X47.2315 Y49.0751 
G01 X47.3039 Y49.2499 
G01 X47.3408 Y49.4354 
G01 X47.3408 Y49.6246 
G01 X47.3039 Y49.8101 
G01 X47.2315 Y49.9849 
G01 X47.1264 Y50.1422 
G01 X46.9926 Y50.2760 
G01 X46.8353 Y50.3811 
G01 X46.6605 Y50.4535 
G01 X46.4750 Y50.4904 
G01 X46.4310 Y50.4904 
G01 X46.4310 Y51.1096 
G01 X46.4750 Y51.1096 
G01 X46.6605 Y51.1465 
G01 X46.8353 Y51.2189 
G01 X46.9926 Y51.3240 
G01 X47.1264 Y51.4578 
G01 X47.2315 Y51.6151 
G01 X47.3039 Y51.7899 
G01 X47.3408 Y51.9754 
G01 X47.3408 Y52.1646 
G01 X47.3039 Y52.3501 
G01 X47.2315 Y52.5249 
G01 X47.1264 Y52.6822 
G01 X46.9926 Y52.8160 
G01 X46.8353 Y52.9211 
G01 X46.6605 Y52.9935 
G01 X46.4750 Y53.0304 
G01 X44.9650 Y53.0304 
G01 X44.7795 Y52.9935 
G01 X44.6047 Y52.9211 
G01 X44.4474 Y52.8160 
G01 X44.3136 Y52.6822 
G01 X44.2085 Y52.5249 
G01 X44.1361 Y52.3501 
G01 X44.0992 Y52.1646 
G01 X44.0992 Y51.9754 
G01 X44.1361 Y51.7899 
G01 X44.2085 Y51.6151 
G01 X44.3136 Y51.4578 
G01 X44.4474 Y51.3240 
G01 X44.6047 Y51.2189 
G01 X44.7795 Y51.1465 
G01 X44.9650 Y51.1096 
G01 X45.0690 Y51.1096 
G01 X45.0690 Y50.4904 
G01 X44.9650 Y50.4904 
G01 X44.7795 Y50.4535 
G01 X44.6047 Y50.3811 
G01 X44.4474 Y50.2760 
G01 X44.3136 Y50.1422 
G01 X44.2085 Y49.9849 
G01 X44.1862 Y49.9310 
G01 X40.1829 Y49.9310 
G01 X40.0514 Y49.9048 
G01 X39.9274 Y49.8535 
G01 X39.8159 Y49.7790 
G01 X39.7210 Y49.6841 
G01 X39.6465 Y49.5726 
G01 X39.5952 Y49.4486 
G01 X39.5690 Y49.3171 
G01 X39.5690 Y12.1829 
G01 X39.5952 Y12.0514 
G01 X39.6465 Y11.9274 
G01 X39.7210 Y11.8159 
G01 X46.9710 Y4.5659 
G01 X47.0659 Y4.4710 
G01 X47.1774 Y4.3965 
G01 X47.3014 Y4.3452 
G01 X47.4329 Y4.3190 
G01 X60.8171 Y4.3190 
G01 X60.9486 Y4.3452 
G01 X61.0726 Y4.3965 
G01 X61.1841 Y4.4710 
G01 X61.2790 Y4.5659 
G01 X61.3535 Y4.6774 
G01 X61.4048 Y4.8014 
G01 X61.4310 Y4.9329 
G01 X61.4310 Y5.4679 
G01 X78.9341 Y22.9710 
G01 X79.0290 Y23.0659 
G01 X79.1035 Y23.1774 
G01 X79.1548 Y23.3014 
G01 X79.1810 Y23.4329 
G01 X79.1810 Y38.9679 
G01 X105.3519 Y65.1388 
G01 X105.4258 Y65.0650 
G01 X105.5869 Y64.9479 
G01 X105.7643 Y64.8575 
G01 X105.9537 Y64.7960 
G01 X106.1504 Y64.7648 
G01 X106.3496 Y64.7648 
G01 X106.5463 Y64.7960 
G01 X106.7357 Y64.8575 
G01 X106.9131 Y64.9479 
G01 X107.0742 Y65.0650 
G01 X107.2150 Y65.2058 
G01 X107.3321 Y65.3669 
G01 X107.4225 Y65.5443 
G01 X107.4840 Y65.7337 
G01 X107.5152 Y65.9304 
G00 Z2.5400 
G00 X107.5152 Y68.4704 
G01 Z-0.1778 F254.00 
G01 X107.5152 Y68.6696 F508.00 
G01 X107.4840 Y68.8663 
G01 X107.4225 Y69.0557 
G01 X107.3321 Y69.2331 
G01 X107.2150 Y69.3942 
G01 X107.0742 Y69.5350 
G01 X106.9131 Y69.6521 
G01 X106.7357 Y69.7425 
G01 X106.5463 Y69.8040 
G01 X106.3496 Y69.8352 
G01 X106.1504 Y69.8352 
G01 X105.9537 Y69.8040 
G01 X105.7643 Y69.7425 
G01 X105.5869 Y69.6521 
G01 X105.4258 Y69.5350 
G01 X105.2850 Y69.3942 
G01 X105.1679 Y69.2331 
G01 X105.0775 Y69.0557 
G01 X105.0160 Y68.8663 
G01 X104.9848 Y68.6696 
G01 X104.9848 Y68.4704 
G01 X105.0160 Y68.2737 
G01 X105.0775 Y68.0843 
G01 X105.1679 Y67.9069 
G01 X105.2850 Y67.7458 
G01 X105.4258 Y67.6050 
G01 X105.5869 Y67.4879 
G01 X105.7643 Y67.3975 
G01 X105.9537 Y67.3360 
G01 X106.1504 Y67.3048 
G01 X106.3496 Y67.3048 
G01 X106.5463 Y67.3360 
G01 X106.7357 Y67.3975 
G01 X106.9131 Y67.4879 
G01 X107.0742 Y67.6050 
G01 X107.2150 Y67.7458 
G01 X107.3321 Y67.9069 
G01 X107.4225 Y68.0843 
G01 X107.4840 Y68.2737 
G01 X107.5152 Y68.4704 
G00 Z2.5400 
G00 X107.5152 Y71.0104 
G01 Z-0.1778 F254.00 
G01 X107.5152 Y71.2096 F508.00 
G01 X107.4840 Y71.4063 
G01 X107.4225 Y71.5957 
G01 X107.3321 Y71.7731 
G01 X107.2150 Y71.9342 
G01 X107.0742 Y72.0750 
G01 X106.9131 Y72.1921 
G01 X106.7357 Y72.2825 
G01 X106.5463 Y72.3440 
G01 X106.3496 Y72.3752 
G01 X106.1504 Y72.3752 
G01 X105.9537 Y72.3440 
G01 X105.7643 Y72.2825 
G01 X105.5869 Y72.1921 
G01 X105.4258 Y72.0750 
G01 X105.2850 Y71.9342 
G01 X105.1679 Y71.7731 
G01 X105.0775 Y71.5957 
G01 X105.0160 Y71.4063 
G01 X104.9848 Y71.2096 
G01 X104.9848 Y71.0104 
G01 X105.0160 Y70.8137 
G01 X105.0775 Y70.6243 
G01 X105.1679 Y70.4469 
G01 X105.2850 Y70.2858 
G01 X105.4258 Y70.1450 
G01 X105.5869 Y70.0279 
G01 X105.7643 Y69.9375 
G01 X105.9537 Y69.8760 
G01 X106.1504 Y69.8448 
G01 X106.3496 Y69.8448 
G01 X106.5463 Y69.8760 
G01 X106.7357 Y69.9375 
G01 X106.9131 Y70.0279 
G01 X107.0742 Y70.1450 
G01 X107.2150 Y70.2858 
G01 X107.3321 Y70.4469 
G01 X107.4225 Y70.6243 
G01 X107.4840 Y70.8137 
G01 X107.5152 Y71.0104 
G00 Z2.5400 
G00 X107.5152 Y73.5504 
G01 Z-0.1778 F254.00 
G01 X107.5152 Y73.7496 F508.00 
G01 X107.4840 Y73.9463 
G01 X107.4225 Y74.1357 
G01 X107.3321 Y74.3131 
G01 X107.2150 Y74.4742 
G01 X107.0742 Y74.6150 
G01 X106.9131 Y74.7321 
G01 X106.7357 Y74.8225 
G01 X106.5463 Y74.8840 
G01 X106.3496 Y74.9152 
G01 X106.1504 Y74.9152 
G01 X105.9537 Y74.8840 
G01 X105.7643 Y74.8225 
G01 X105.5869 Y74.7321 
G01 X105.4258 Y74.6150 
G01 X105.2850 Y74.4742 
G01 X105.1679 Y74.3131 
G01 X105.0775 Y74.1357 
G01 X105.0160 Y73.9463 
G01 X104.9848 Y73.7496 
G01 X104.9848 Y73.5504 
G01 X105.0160 Y73.3537 
G01 X105.0775 Y73.1643 
G01 X105.1679 Y72.9869 
G01 X105.2850 Y72.8258 
G01 X105.4258 Y72.6850 
G01 X105.5869 Y72.5679 
G01 X105.7643 Y72.4775 
G01 X105.9537 Y72.4160 
G01 X106.1504 Y72.3848 
G01 X106.3496 Y72.3848 
G01 X106.5463 Y72.4160 
G01 X106.7357 Y72.4775 
G01 X106.9131 Y72.5679 
G01 X107.0742 Y72.6850 
G01 X107.2150 Y72.8258 
G01 X107.3321 Y72.9869 
G01 X107.4225 Y73.1643 
G01 X107.4840 Y73.3537 
G01 X107.5152 Y73.5504 
G00 Z2.5400 
G00 X107.3321 Y76.8531 
G01 Z-0.1778 F254.00 
G01 X107.2150 Y77.0142 F508.00 
G01 X107.0742 Y77.1550 
G01 X106.9131 Y77.2721 
G01 X106.7357 Y77.3625 
G01 X106.5463 Y77.4240 
G01 X106.3496 Y77.4552 
G01 X106.1504 Y77.4552 
G01 X105.9537 Y77.4240 
G01 X105.7643 Y77.3625 
G01 X105.5869 Y77.2721 
G01 X105.4258 Y77.1550 
G01 X105.2850 Y77.0142 
G01 X105.1679 Y76.8531 
G01 X105.0775 Y76.6757 
G01 X105.0160 Y76.4863 
G01 X104.9848 Y76.2896 
G01 X104.9848 Y76.0904 
G01 X105.0160 Y75.8937 
G01 X105.0775 Y75.7043 
G01 X105.1679 Y75.5269 
G01 X105.2850 Y75.3658 
G01 X105.4258 Y75.2250 
G01 X105.5869 Y75.1079 
G01 X105.7643 Y75.0175 
G01 X105.9537 Y74.9560 
G01 X106.1504 Y74.9248 
G01 X106.3496 Y74.9248 
G01 X106.5463 Y74.9560 
G01 X106.7357 Y75.0175 
G01 X106.9131 Y75.1079 
G01 X107.0671 Y75.2198 
G01 X110.0690 Y72.2179 
G01 X110.0690 Y53.4329 
G01 X110.0952 Y53.3014 
G01 X110.1465 Y53.1774 
G01 X110.2210 Y53.0659 
G01 X110.3159 Y52.9710 
G01 X110.4274 Y52.8965 
G01 X110.5514 Y52.8452 
G01 X110.6829 Y52.8190 
G01 X125.3116 Y52.8190 
G01 X125.3297 Y52.7834 
G01 X125.4280 Y52.6482 
G01 X125.5462 Y52.5299 
G01 X125.6814 Y52.4317 
G01 X125.8303 Y52.3558 
G01 X125.9893 Y52.3041 
G01 X126.1544 Y52.2780 
G01 X127.8456 Y52.2780 
G01 X128.0107 Y52.3041 
G01 X128.1697 Y52.3558 
G01 X128.3186 Y52.4317 
G01 X128.4538 Y52.5299 
G01 X128.5720 Y52.6482 
G01 X128.6703 Y52.7834 
G01 X128.7462 Y52.9323 
G01 X128.7978 Y53.0913 
G01 X128.8240 Y53.2564 
G01 X128.8240 Y53.4236 
G01 X128.7978 Y53.5887 
G01 X128.7462 Y53.7477 
G01 X128.6703 Y53.8966 
G01 X128.5720 Y54.0318 
G01 X128.4538 Y54.1500 
G01 X128.3186 Y54.2483 
G01 X128.1697 Y54.3242 
G01 X128.0107 Y54.3758 
G01 X127.8456 Y54.4020 
G01 X126.1544 Y54.4020 
G01 X125.9893 Y54.3758 
G01 X125.8303 Y54.3242 
G01 X125.6814 Y54.2483 
G01 X125.5888 Y54.1810 
G01 X111.4310 Y54.1810 
G01 X111.4310 Y72.5671 
G01 X111.4048 Y72.6986 
G01 X111.3535 Y72.8226 
G01 X111.2790 Y72.9341 
G01 X107.5290 Y76.6841 
G01 X107.4341 Y76.7790 
G01 X107.3367 Y76.8440 
G01 X107.3321 Y76.8531 
G00 Z2.5400 
G00 X107.5152 Y78.6304 
G01 Z-0.1778 F254.00 
G01 X107.5152 Y78.8296 F508.00 
G01 X107.4840 Y79.0263 
G01 X107.4225 Y79.2157 
G01 X107.3321 Y79.3931 
G01 X107.2150 Y79.5542 
G01 X107.0742 Y79.6950 
G01 X106.9131 Y79.8121 
G01 X106.7357 Y79.9025 
G01 X106.5463 Y79.9640 
G01 X106.3496 Y79.9952 
G01 X106.1504 Y79.9952 
G01 X105.9537 Y79.9640 
G01 X105.7643 Y79.9025 
G01 X105.5869 Y79.8121 
G01 X105.4258 Y79.6950 
G01 X105.2850 Y79.5542 
G01 X105.1679 Y79.3931 
G01 X105.0775 Y79.2157 
G01 X105.0160 Y79.0263 
G01 X104.9848 Y78.8296 
G01 X104.9848 Y78.6304 
G01 X105.0160 Y78.4337 
G01 X105.0775 Y78.2443 
G01 X105.1679 Y78.0669 
G01 X105.2850 Y77.9058 
G01 X105.4258 Y77.7650 
G01 X105.5869 Y77.6479 
G01 X105.7643 Y77.5575 
G01 X105.9537 Y77.4960 
G01 X106.1504 Y77.4648 
G01 X106.3496 Y77.4648 
G01 X106.5463 Y77.4960 
G01 X106.7357 Y77.5575 
G01 X106.9131 Y77.6479 
G01 X107.0742 Y77.7650 
G01 X107.2150 Y77.9058 
G01 X107.3321 Y78.0669 
G01 X107.4225 Y78.2443 
G01 X107.4840 Y78.4337 
G01 X107.5152 Y78.6304 
G00 Z2.5400 
G00 X107.5152 Y81.1704 
G01 Z-0.1778 F254.00 
G01 X107.5152 Y81.3696 F508.00 
G01 X107.4840 Y81.5663 
G01 X107.4225 Y81.7557 
G01 X107.3321 Y81.9331 
G01 X107.2150 Y82.0942 
G01 X107.0742 Y82.2350 
G01 X106.9131 Y82.3521 
G01 X106.7357 Y82.4425 
G01 X106.5463 Y82.5040 
G01 X106.3496 Y82.5352 
G01 X106.1504 Y82.5352 
G01 X105.9537 Y82.5040 
G01 X105.7643 Y82.4425 
G01 X105.5869 Y82.3521 
G01 X105.4258 Y82.2350 
G01 X105.2850 Y82.0942 
G01 X105.1679 Y81.9331 
G01 X105.0775 Y81.7557 
G01 X105.0160 Y81.5663 
G01 X104.9848 Y81.3696 
G01 X104.9848 Y81.1704 
G01 X105.0160 Y80.9737 
G01 X105.0775 Y80.7843 
G01 X105.1679 Y80.6069 
G01 X105.2850 Y80.4458 
G01 X105.4258 Y80.3050 
G01 X105.5869 Y80.1879 
G01 X105.7643 Y80.0975 
G01 X105.9537 Y80.0360 
G01 X106.1504 Y80.0048 
G01 X106.3496 Y80.0048 
G01 X106.5463 Y80.0360 
G01 X106.7357 Y80.0975 
G01 X106.9131 Y80.1879 
G01 X107.0742 Y80.3050 
G01 X107.2150 Y80.4458 
G01 X107.3321 Y80.6069 
G01 X107.4225 Y80.7843 
G01 X107.4840 Y80.9737 
G01 X107.5152 Y81.1704 
G00 Z2.5400 
G00 X107.5152 Y83.7104 
G01 Z-0.1778 F254.00 
G01 X107.5152 Y83.9096 F508.00 
G01 X107.4840 Y84.1063 
G01 X107.4225 Y84.2957 
G01 X107.3321 Y84.4731 
G01 X107.2150 Y84.6342 
G01 X107.0742 Y84.7750 
G01 X106.9131 Y84.8921 
G01 X106.7357 Y84.9825 
G01 X106.5463 Y85.0440 
G01 X106.3496 Y85.0752 
G01 X106.1504 Y85.0752 
G01 X105.9537 Y85.0440 
G01 X105.7643 Y84.9825 
G01 X105.5869 Y84.8921 
G01 X105.4258 Y84.7750 
G01 X105.2850 Y84.6342 
G01 X105.1679 Y84.4731 
G01 X105.0775 Y84.2957 
G01 X105.0160 Y84.1063 
G01 X104.9848 Y83.9096 
G01 X104.9848 Y83.7104 
G01 X105.0160 Y83.5137 
G01 X105.0775 Y83.3243 
G01 X105.1679 Y83.1469 
G01 X105.2850 Y82.9858 
G01 X105.4258 Y82.8450 
G01 X105.5869 Y82.7279 
G01 X105.7643 Y82.6375 
G01 X105.9537 Y82.5760 
G01 X106.1504 Y82.5448 
G01 X106.3496 Y82.5448 
G01 X106.5463 Y82.5760 
G01 X106.7357 Y82.6375 
G01 X106.9131 Y82.7279 
G01 X107.0742 Y82.8450 
G01 X107.2150 Y82.9858 
G01 X107.3321 Y83.1469 
G01 X107.4225 Y83.3243 
G01 X107.4840 Y83.5137 
G01 X107.5152 Y83.7104 
G00 Z2.5400 
G00 X107.5152 Y86.2504 
G01 Z-0.1778 F254.00 
G01 X107.5152 Y86.4496 F508.00 
G01 X107.4840 Y86.6463 
G01 X107.4225 Y86.8357 
G01 X107.3321 Y87.0131 
G01 X107.2150 Y87.1742 
G01 X107.0742 Y87.3150 
G01 X106.9131 Y87.4321 
G01 X106.7357 Y87.5225 
G01 X106.5463 Y87.5840 
G01 X106.3496 Y87.6152 
G01 X106.1504 Y87.6152 
G01 X105.9537 Y87.5840 
G01 X105.7643 Y87.5225 
G01 X105.5869 Y87.4321 
G01 X105.4258 Y87.3150 
G01 X105.2850 Y87.1742 
G01 X105.1679 Y87.0131 
G01 X105.0775 Y86.8357 
G01 X105.0160 Y86.6463 
G01 X104.9848 Y86.4496 
G01 X104.9848 Y86.2504 
G01 X105.0160 Y86.0537 
G01 X105.0775 Y85.8643 
G01 X105.1679 Y85.6869 
G01 X105.2850 Y85.5258 
G01 X105.4258 Y85.3850 
G01 X105.5869 Y85.2679 
G01 X105.7643 Y85.1775 
G01 X105.9537 Y85.1160 
G01 X106.1504 Y85.0848 
G01 X106.3496 Y85.0848 
G01 X106.5463 Y85.1160 
G01 X106.7357 Y85.1775 
G01 X106.9131 Y85.2679 
G01 X107.0742 Y85.3850 
G01 X107.2150 Y85.5258 
G01 X107.3321 Y85.6869 
G01 X107.4225 Y85.8643 
G01 X107.4840 Y86.0537 
G01 X107.5152 Y86.2504 
G00 Z2.5400 
G00 X82.7452 Y88.7904 
G01 Z-0.1778 F254.00 
G01 X82.7452 Y88.9896 F508.00 
G01 X82.7140 Y89.1863 
G01 X82.6525 Y89.3757 
G01 X82.5621 Y89.5531 
G01 X82.4450 Y89.7142 
G01 X82.3042 Y89.8550 
G01 X82.1431 Y89.9721 
G01 X81.9657 Y90.0625 
G01 X81.7763 Y90.1240 
G01 X81.5796 Y90.1552 
G01 X81.3804 Y90.1552 
G01 X81.1837 Y90.1240 
G01 X80.9943 Y90.0625 
G01 X80.8169 Y89.9721 
G01 X80.6558 Y89.8550 
G01 X80.5150 Y89.7142 
G01 X80.3979 Y89.5531 
G01 X80.3075 Y89.3757 
G01 X80.2460 Y89.1863 
G01 X80.2148 Y88.9896 
G01 X80.2148 Y88.7904 
G01 X80.2460 Y88.5937 
G01 X80.3075 Y88.4043 
G01 X80.3979 Y88.2269 
G01 X80.5150 Y88.0658 
G01 X80.6558 Y87.9250 
G01 X80.8169 Y87.8079 
G01 X80.9943 Y87.7175 
G01 X81.1837 Y87.6560 
G01 X81.3804 Y87.6248 
G01 X81.5796 Y87.6248 
G01 X81.7763 Y87.6560 
G01 X81.9657 Y87.7175 
G01 X82.1431 Y87.8079 
G01 X82.3042 Y87.9250 
G01 X82.4450 Y88.0658 
G01 X82.5621 Y88.2269 
G01 X82.6525 Y88.4043 
G01 X82.7140 Y88.5937 
G01 X82.7452 Y88.7904 
G00 Z2.5400 
G00 X82.7452 Y86.2504 
G01 Z-0.1778 F254.00 
G01 X82.7452 Y86.4496 F508.00 
G01 X82.7140 Y86.6463 
G01 X82.6525 Y86.8357 
G01 X82.5621 Y87.0131 
G01 X82.4450 Y87.1742 
G01 X82.3042 Y87.3150 
G01 X82.1431 Y87.4321 
G01 X81.9657 Y87.5225 
G01 X81.7763 Y87.5840 
G01 X81.5796 Y87.6152 
G01 X81.3804 Y87.6152 
G01 X81.1837 Y87.5840 
G01 X80.9943 Y87.5225 
G01 X80.8169 Y87.4321 
G01 X80.6558 Y87.3150 
G01 X80.5150 Y87.1742 
G01 X80.3979 Y87.0131 
G01 X80.3075 Y86.8357 
G01 X80.2460 Y86.6463 
G01 X80.2148 Y86.4496 
G01 X80.2148 Y86.2504 
G01 X80.2460 Y86.0537 
G01 X80.3075 Y85.8643 
G01 X80.3979 Y85.6869 
G01 X80.5150 Y85.5258 
G01 X80.6558 Y85.3850 
G01 X80.8169 Y85.2679 
G01 X80.9943 Y85.1775 
G01 X81.1837 Y85.1160 
G01 X81.3804 Y85.0848 
G01 X81.5796 Y85.0848 
G01 X81.7763 Y85.1160 
G01 X81.9657 Y85.1775 
G01 X82.1431 Y85.2679 
G01 X82.3042 Y85.3850 
G01 X82.4450 Y85.5258 
G01 X82.5621 Y85.6869 
G01 X82.6525 Y85.8643 
G01 X82.7140 Y86.0537 
G01 X82.7452 Y86.2504 
G00 Z2.5400 
G00 X82.7452 Y83.7104 
G01 Z-0.1778 F254.00 
G01 X82.7452 Y83.9096 F508.00 
G01 X82.7140 Y84.1063 
G01 X82.6525 Y84.2957 
G01 X82.5621 Y84.4731 
G01 X82.4450 Y84.6342 
G01 X82.3042 Y84.7750 
G01 X82.1431 Y84.8921 
G01 X81.9657 Y84.9825 
G01 X81.7763 Y85.0440 
G01 X81.5796 Y85.0752 
G01 X81.3804 Y85.0752 
G01 X81.1837 Y85.0440 
G01 X80.9943 Y84.9825 
G01 X80.8169 Y84.8921 
G01 X80.6558 Y84.7750 
G01 X80.5150 Y84.6342 
G01 X80.3979 Y84.4731 
G01 X80.3075 Y84.2957 
G01 X80.2460 Y84.1063 
G01 X80.2148 Y83.9096 
G01 X80.2148 Y83.7104 
G01 X80.2460 Y83.5137 
G01 X80.3075 Y83.3243 
G01 X80.3979 Y83.1469 
G01 X80.5150 Y82.9858 
G01 X80.6558 Y82.8450 
G01 X80.8169 Y82.7279 
G01 X80.9943 Y82.6375 
G01 X81.1837 Y82.5760 
G01 X81.3804 Y82.5448 
G01 X81.5796 Y82.5448 
G01 X81.7763 Y82.5760 
G01 X81.9657 Y82.6375 
G01 X82.1431 Y82.7279 
G01 X82.3042 Y82.8450 
G01 X82.4450 Y82.9858 
G01 X82.5621 Y83.1469 
G01 X82.6525 Y83.3243 
G01 X82.7140 Y83.5137 
G01 X82.7452 Y83.7104 
G00 Z2.5400 
G00 X82.7452 Y81.1704 
G01 Z-0.1778 F254.00 
G01 X82.7452 Y81.3696 F508.00 
G01 X82.7140 Y81.5663 
G01 X82.6525 Y81.7557 
G01 X82.5621 Y81.9331 
G01 X82.4450 Y82.0942 
G01 X82.3042 Y82.2350 
G01 X82.1431 Y82.3521 
G01 X81.9657 Y82.4425 
G01 X81.7763 Y82.5040 
G01 X81.5796 Y82.5352 
G01 X81.3804 Y82.5352 
G01 X81.1837 Y82.5040 
G01 X80.9943 Y82.4425 
G01 X80.8169 Y82.3521 
G01 X80.6558 Y82.2350 
G01 X80.5150 Y82.0942 
G01 X80.3979 Y81.9331 
G01 X80.3075 Y81.7557 
G01 X80.2460 Y81.5663 
G01 X80.2148 Y81.3696 
G01 X80.2148 Y81.1704 
G01 X80.2460 Y80.9737 
G01 X80.3075 Y80.7843 
G01 X80.3979 Y80.6069 
G01 X80.5150 Y80.4458 
G01 X80.6558 Y80.3050 
G01 X80.8169 Y80.1879 
G01 X80.9943 Y80.0975 
G01 X81.1837 Y80.0360 
G01 X81.3804 Y80.0048 
G01 X81.5796 Y80.0048 
G01 X81.7763 Y80.0360 
G01 X81.9657 Y80.0975 
G01 X82.1431 Y80.1879 
G01 X82.3042 Y80.3050 
G01 X82.4450 Y80.4458 
G01 X82.5621 Y80.6069 
G01 X82.6525 Y80.7843 
G01 X82.7140 Y80.9737 
G01 X82.7452 Y81.1704 
G00 Z2.5400 
G00 X82.7452 Y78.6304 
G01 Z-0.1778 F254.00 
G01 X82.7452 Y78.8296 F508.00 
G01 X82.7140 Y79.0263 
G01 X82.6525 Y79.2157 
G01 X82.5621 Y79.3931 
G01 X82.4450 Y79.5542 
G01 X82.3042 Y79.6950 
G01 X82.1431 Y79.8121 
G01 X81.9657 Y79.9025 
G01 X81.7763 Y79.9640 
G01 X81.5796 Y79.9952 
G01 X81.3804 Y79.9952 
G01 X81.1837 Y79.9640 
G01 X80.9943 Y79.9025 
G01 X80.8169 Y79.8121 
G01 X80.6558 Y79.6950 
G01 X80.5150 Y79.5542 
G01 X80.3979 Y79.3931 
G01 X80.3075 Y79.2157 
G01 X80.2460 Y79.0263 
G01 X80.2148 Y78.8296 
G01 X80.2148 Y78.6304 
G01 X80.2460 Y78.4337 
G01 X80.3075 Y78.2443 
G01 X80.3979 Y78.0669 
G01 X80.5150 Y77.9058 
G01 X80.6558 Y77.7650 
G01 X80.8169 Y77.6479 
G01 X80.9943 Y77.5575 
G01 X81.1837 Y77.4960 
G01 X81.3804 Y77.4648 
G01 X81.5796 Y77.4648 
G01 X81.7763 Y77.4960 
G01 X81.9657 Y77.5575 
G01 X82.1431 Y77.6479 
G01 X82.3042 Y77.7650 
G01 X82.4450 Y77.9058 
G01 X82.5621 Y78.0669 
G01 X82.6525 Y78.2443 
G01 X82.7140 Y78.4337 
G01 X82.7452 Y78.6304 
G00 Z2.5400 
G00 X82.7452 Y76.0904 
G01 Z-0.1778 F254.00 
G01 X82.7452 Y76.2896 F508.00 
G01 X82.7140 Y76.4863 
G01 X82.6525 Y76.6757 
G01 X82.5621 Y76.8531 
G01 X82.4450 Y77.0142 
G01 X82.3042 Y77.1550 
G01 X82.1431 Y77.2721 
G01 X81.9657 Y77.3625 
G01 X81.7763 Y77.4240 
G01 X81.5796 Y77.4552 
G01 X81.3804 Y77.4552 
G01 X81.1837 Y77.4240 
G01 X80.9943 Y77.3625 
G01 X80.8169 Y77.2721 
G01 X80.6558 Y77.1550 
G01 X80.6069 Y77.1062 
G01 X79.6810 Y78.0321 
G01 X79.6810 Y79.0671 
G01 X79.6548 Y79.1986 
G01 X79.6035 Y79.3226 
G01 X79.5290 Y79.4341 
G01 X79.4341 Y79.5290 
G01 X77.2893 Y81.6738 
G01 X77.2769 Y81.7357 
G01 X77.2160 Y81.8827 
G01 X77.1276 Y82.0151 
G01 X77.0151 Y82.1276 
G01 X76.8827 Y82.2160 
G01 X76.7357 Y82.2769 
G01 X76.5796 Y82.3080 
G01 X76.4204 Y82.3080 
G01 X76.2643 Y82.2769 
G01 X76.1173 Y82.2160 
G01 X75.9849 Y82.1276 
G01 X75.8724 Y82.0151 
G01 X75.7840 Y81.8827 
G01 X75.7231 Y81.7357 
G01 X75.6920 Y81.5796 
G01 X75.6920 Y81.4204 
G01 X75.7231 Y81.2643 
G01 X75.7840 Y81.1173 
G01 X75.8724 Y80.9849 
G01 X75.9849 Y80.8724 
G01 X76.1173 Y80.7840 
G01 X76.2643 Y80.7231 
G01 X76.3262 Y80.7107 
G01 X78.3190 Y78.7179 
G01 X78.3190 Y77.6829 
G01 X78.3452 Y77.5514 
G01 X78.3965 Y77.4274 
G01 X78.4710 Y77.3159 
G01 X79.9710 Y75.8159 
G01 X80.0659 Y75.7210 
G01 X80.1774 Y75.6465 
G01 X80.3014 Y75.5952 
G01 X80.3701 Y75.5815 
G01 X80.3979 Y75.5269 
G01 X80.5150 Y75.3658 
G01 X80.6558 Y75.2250 
G01 X80.8169 Y75.1079 
G01 X80.9943 Y75.0175 
G01 X81.1837 Y74.9560 
G01 X81.3804 Y74.9248 
G01 X81.5796 Y74.9248 
G01 X81.7763 Y74.9560 
G01 X81.9657 Y75.0175 
G01 X82.1431 Y75.1079 
G01 X82.3042 Y75.2250 
G01 X82.4450 Y75.3658 
G01 X82.5621 Y75.5269 
G01 X82.6525 Y75.7043 
G01 X82.7140 Y75.8937 
G01 X82.7452 Y76.0904 
G00 Z2.5400 
G00 X82.7452 Y73.5504 
G01 Z-0.1778 F254.00 
G01 X82.7452 Y73.7496 F508.00 
G01 X82.7140 Y73.9463 
G01 X82.6525 Y74.1357 
G01 X82.5621 Y74.3131 
G01 X82.4450 Y74.4742 
G01 X82.3042 Y74.6150 
G01 X82.1431 Y74.7321 
G01 X81.9657 Y74.8225 
G01 X81.7763 Y74.8840 
G01 X81.5796 Y74.9152 
G01 X81.3804 Y74.9152 
G01 X81.1837 Y74.8840 
G01 X80.9943 Y74.8225 
G01 X80.8169 Y74.7321 
G01 X80.6558 Y74.6150 
G01 X80.5150 Y74.4742 
G01 X80.3979 Y74.3131 
G01 X80.3075 Y74.1357 
G01 X80.2460 Y73.9463 
G01 X80.2148 Y73.7496 
G01 X80.2148 Y73.5504 
G01 X80.2460 Y73.3537 
G01 X80.3075 Y73.1643 
G01 X80.3979 Y72.9869 
G01 X80.5150 Y72.8258 
G01 X80.6558 Y72.6850 
G01 X80.8169 Y72.5679 
G01 X80.9943 Y72.4775 
G01 X81.1837 Y72.4160 
G01 X81.3804 Y72.3848 
G01 X81.5796 Y72.3848 
G01 X81.7763 Y72.4160 
G01 X81.9657 Y72.4775 
G01 X82.1431 Y72.5679 
G01 X82.3042 Y72.6850 
G01 X82.4450 Y72.8258 
G01 X82.5621 Y72.9869 
G01 X82.6525 Y73.1643 
G01 X82.7140 Y73.3537 
G01 X82.7452 Y73.5504 
G00 Z2.5400 
G00 X82.3042 Y69.5350 
G01 Z-0.1778 F254.00 
G01 X82.1431 Y69.6521 F508.00 
G01 X81.9657 Y69.7425 
G01 X81.7763 Y69.8040 
G01 X81.5796 Y69.8352 
G01 X81.3804 Y69.8352 
G01 X81.1837 Y69.8040 
G01 X80.9943 Y69.7425 
G01 X80.8169 Y69.6521 
G01 X80.6558 Y69.5350 
G01 X80.5150 Y69.3942 
G01 X80.3979 Y69.2331 
G01 X80.3075 Y69.0557 
G01 X80.2460 Y68.8663 
G01 X80.2148 Y68.6696 
G01 X80.2148 Y68.4704 
G01 X80.2460 Y68.2737 
G01 X80.3075 Y68.0843 
G01 X80.3979 Y67.9069 
G01 X80.5150 Y67.7458 
G01 X80.6558 Y67.6050 
G01 X80.8169 Y67.4879 
G01 X80.9943 Y67.3975 
G01 X81.1837 Y67.3360 
G01 X81.3804 Y67.3048 
G01 X81.5796 Y67.3048 
G01 X81.7763 Y67.3360 
G01 X81.9657 Y67.3975 
G01 X82.1431 Y67.4879 
G01 X82.3042 Y67.6050 
G01 X82.4450 Y67.7458 
G01 X82.4982 Y67.8190 
G01 X82.5671 Y67.8190 
G01 X82.6986 Y67.8452 
G01 X82.8226 Y67.8965 
G01 X82.9341 Y67.9710 
G01 X83.0290 Y68.0659 
G01 X86.5290 Y71.5659 
G01 X86.6035 Y71.6774 
G01 X86.6548 Y71.8014 
G01 X86.6810 Y71.9329 
G01 X86.6810 Y90.8190 
G01 X125.3765 Y90.8190 
G01 X125.4280 Y90.7482 
G01 X125.5462 Y90.6300 
G01 X125.6814 Y90.5317 
G01 X125.8303 Y90.4558 
G01 X125.9893 Y90.4042 
G01 X126.1544 Y90.3780 
G01 X127.8456 Y90.3780 
G01 X128.0107 Y90.4042 
G01 X128.1697 Y90.4558 
G01 X128.3186 Y90.5317 
G01 X128.4538 Y90.6300 
G01 X128.5720 Y90.7482 
G01 X128.6703 Y90.8834 
G01 X128.7462 Y91.0323 
G01 X128.7978 Y91.1913 
G01 X128.8240 Y91.3564 
G01 X128.8240 Y91.5236 
G01 X128.7978 Y91.6887 
G01 X128.7462 Y91.8477 
G01 X128.6703 Y91.9966 
G01 X128.5720 Y92.1318 
G01 X128.4538 Y92.2500 
G01 X128.3186 Y92.3483 
G01 X128.1697 Y92.4242 
G01 X128.0107 Y92.4758 
G01 X127.8456 Y92.5020 
G01 X126.1544 Y92.5020 
G01 X125.9893 Y92.4758 
G01 X125.8303 Y92.4242 
G01 X125.6814 Y92.3483 
G01 X125.5462 Y92.2500 
G01 X125.4771 Y92.1810 
G01 X85.9329 Y92.1810 
G01 X85.8014 Y92.1548 
G01 X85.6774 Y92.1035 
G01 X85.5659 Y92.0290 
G01 X85.4710 Y91.9341 
G01 X85.3965 Y91.8226 
G01 X85.3452 Y91.6986 
G01 X85.3190 Y91.5671 
G01 X85.3190 Y72.2821 
G01 X82.4381 Y69.4012 
G01 X82.3042 Y69.5350 
G00 Z2.5400 
G00 X82.7452 Y65.9304 
G01 Z-0.1778 F254.00 
G01 X82.7452 Y66.1296 F508.00 
G01 X82.7140 Y66.3263 
G01 X82.6525 Y66.5157 
G01 X82.5621 Y66.6931 
G01 X82.4450 Y66.8542 
G01 X82.3042 Y66.9950 
G01 X82.1431 Y67.1121 
G01 X81.9657 Y67.2025 
G01 X81.7763 Y67.2640 
G01 X81.5796 Y67.2952 
G01 X81.3804 Y67.2952 
G01 X81.1837 Y67.2640 
G01 X80.9943 Y67.2025 
G01 X80.8169 Y67.1121 
G01 X80.6558 Y66.9950 
G01 X80.5619 Y66.9012 
G01 X75.1810 Y72.2821 
G01 X75.1810 Y97.5671 
G01 X75.1548 Y97.6986 
G01 X75.1035 Y97.8226 
G01 X75.0290 Y97.9341 
G01 X74.9341 Y98.0290 
G01 X74.8226 Y98.1035 
G01 X74.6986 Y98.1548 
G01 X74.5671 Y98.1810 
G01 X55.4329 Y98.1810 
G01 X55.3014 Y98.1548 
G01 X55.1774 Y98.1035 
G01 X55.0659 Y98.0290 
G01 X54.9710 Y97.9341 
G01 X47.9710 Y90.9341 
G01 X47.8965 Y90.8226 
G01 X47.8452 Y90.6986 
G01 X47.8190 Y90.5671 
G01 X47.8190 Y42.6810 
G01 X46.9552 Y42.6810 
G01 X46.8353 Y42.7611 
G01 X46.6605 Y42.8335 
G01 X46.4750 Y42.8704 
G01 X44.9650 Y42.8704 
G01 X44.7795 Y42.8335 
G01 X44.6047 Y42.7611 
G01 X44.4474 Y42.6560 
G01 X44.3136 Y42.5222 
G01 X44.2085 Y42.3649 
G01 X44.1361 Y42.1901 
G01 X44.0992 Y42.0046 
G01 X44.0992 Y41.8154 
G01 X44.1361 Y41.6299 
G01 X44.2085 Y41.4551 
G01 X44.3136 Y41.2978 
G01 X44.4474 Y41.1640 
G01 X44.6047 Y41.0589 
G01 X44.7795 Y40.9865 
G01 X44.9650 Y40.9496 
G01 X45.0690 Y40.9496 
G01 X45.0690 Y40.3304 
G01 X44.9650 Y40.3304 
G01 X44.7795 Y40.2935 
G01 X44.6047 Y40.2211 
G01 X44.4474 Y40.1160 
G01 X44.3136 Y39.9822 
G01 X44.2085 Y39.8249 
G01 X44.1361 Y39.6501 
G01 X44.0992 Y39.4646 
G01 X44.0992 Y39.2754 
G01 X44.1361 Y39.0899 
G01 X44.2085 Y38.9151 
G01 X44.3136 Y38.7578 
G01 X44.4474 Y38.6240 
G01 X44.6047 Y38.5189 
G01 X44.7795 Y38.4465 
G01 X44.9650 Y38.4096 
G01 X46.4750 Y38.4096 
G01 X46.6605 Y38.4465 
G01 X46.8353 Y38.5189 
G01 X46.9926 Y38.6240 
G01 X47.1264 Y38.7578 
G01 X47.2315 Y38.9151 
G01 X47.3039 Y39.0899 
G01 X47.3408 Y39.2754 
G01 X47.3408 Y39.4646 
G01 X47.3039 Y39.6501 
G01 X47.2315 Y39.8249 
G01 X47.1264 Y39.9822 
G01 X46.9926 Y40.1160 
G01 X46.8353 Y40.2211 
G01 X46.6605 Y40.2935 
G01 X46.4750 Y40.3304 
G01 X46.4310 Y40.3304 
G01 X46.4310 Y40.9496 
G01 X46.4750 Y40.9496 
G01 X46.6605 Y40.9865 
G01 X46.8353 Y41.0589 
G01 X46.9926 Y41.1640 
G01 X47.1264 Y41.2978 
G01 X47.1406 Y41.3190 
G01 X48.5671 Y41.3190 
G01 X48.6986 Y41.3452 
G01 X48.8226 Y41.3965 
G01 X48.9341 Y41.4710 
G01 X49.0290 Y41.5659 
G01 X49.1035 Y41.6774 
G01 X49.1548 Y41.8014 
G01 X49.1810 Y41.9329 
G01 X49.1810 Y90.2179 
G01 X55.7821 Y96.8190 
G01 X73.8190 Y96.8190 
G01 X73.8190 Y71.9329 
G01 X73.8452 Y71.8014 
G01 X73.8965 Y71.6774 
G01 X73.9710 Y71.5659 
G01 X79.9710 Y65.5659 
G01 X80.0659 Y65.4710 
G01 X80.1774 Y65.3965 
G01 X80.3014 Y65.3452 
G01 X80.4327 Y65.3191 
G01 X80.5150 Y65.2058 
G01 X80.6558 Y65.0650 
G01 X80.8169 Y64.9479 
G01 X80.9943 Y64.8575 
G01 X81.1837 Y64.7960 
G01 X81.3804 Y64.7648 
G01 X81.5796 Y64.7648 
G01 X81.7763 Y64.7960 
G01 X81.9657 Y64.8575 
G01 X82.1431 Y64.9479 
G01 X82.3042 Y65.0650 
G01 X82.4450 Y65.2058 
G01 X82.5621 Y65.3669 
G01 X82.6525 Y65.5443 
G01 X82.7140 Y65.7337 
G01 X82.7452 Y65.9304 
G00 Z2.5400 
G00 X82.7452 Y63.3904 
G01 Z-0.1778 F254.00 
G01 X82.7452 Y63.5896 F508.00 
G01 X82.7140 Y63.7863 
G01 X82.6525 Y63.9757 
G01 X82.5621 Y64.1531 
G01 X82.4450 Y64.3142 
G01 X82.3042 Y64.4550 
G01 X82.1431 Y64.5721 
G01 X81.9657 Y64.6625 
G01 X81.7763 Y64.7240 
G01 X81.5796 Y64.7552 
G01 X81.3804 Y64.7552 
G01 X81.1837 Y64.7240 
G01 X80.9943 Y64.6625 
G01 X80.8169 Y64.5721 
G01 X80.6558 Y64.4550 
G01 X80.5150 Y64.3142 
G01 X80.3979 Y64.1531 
G01 X80.3075 Y63.9757 
G01 X80.2460 Y63.7863 
G01 X80.2148 Y63.5896 
G01 X80.2148 Y63.3904 
G01 X80.2460 Y63.1937 
G01 X80.3075 Y63.0043 
G01 X80.3979 Y62.8269 
G01 X80.5150 Y62.6658 
G01 X80.6558 Y62.5250 
G01 X80.8169 Y62.4079 
G01 X80.9943 Y62.3175 
G01 X81.1837 Y62.2560 
G01 X81.3804 Y62.2248 
G01 X81.5796 Y62.2248 
G01 X81.7763 Y62.2560 
G01 X81.9657 Y62.3175 
G01 X82.1431 Y62.4079 
G01 X82.3042 Y62.5250 
G01 X82.4450 Y62.6658 
G01 X82.5621 Y62.8269 
G01 X82.6525 Y63.0043 
G01 X82.7140 Y63.1937 
G01 X82.7452 Y63.3904 
G00 Z2.5400 
G00 X82.7452 Y60.8504 
G01 Z-0.1778 F254.00 
G01 X82.7452 Y61.0496 F508.00 
G01 X82.7140 Y61.2463 
G01 X82.6525 Y61.4357 
G01 X82.5621 Y61.6131 
G01 X82.4450 Y61.7742 
G01 X82.3042 Y61.9150 
G01 X82.1431 Y62.0321 
G01 X81.9657 Y62.1225 
G01 X81.7763 Y62.1840 
G01 X81.5796 Y62.2152 
G01 X81.3804 Y62.2152 
G01 X81.1837 Y62.1840 
G01 X80.9943 Y62.1225 
G01 X80.8169 Y62.0321 
G01 X80.6558 Y61.9150 
G01 X80.5150 Y61.7742 
G01 X80.4472 Y61.6810 
G01 X76.4329 Y61.6810 
G01 X76.3014 Y61.6548 
G01 X76.1774 Y61.6035 
G01 X76.0659 Y61.5290 
G01 X75.9710 Y61.4341 
G01 X75.8965 Y61.3226 
G01 X75.8452 Y61.1986 
G01 X75.8190 Y61.0671 
G01 X75.8190 Y36.5321 
G01 X67.3159 Y28.0290 
G01 X67.2210 Y27.9341 
G01 X67.1465 Y27.8226 
G01 X67.0952 Y27.6986 
G01 X67.0690 Y27.5671 
G01 X67.0690 Y23.0321 
G01 X55.0762 Y11.0393 
G01 X55.0143 Y11.0269 
G01 X54.8673 Y10.9660 
G01 X54.7349 Y10.8776 
G01 X54.6224 Y10.7651 
G01 X54.5340 Y10.6327 
G01 X54.4731 Y10.4857 
G01 X54.4420 Y10.3296 
G01 X54.4420 Y10.1704 
G01 X54.4731 Y10.0143 
G01 X54.5340 Y9.8673 
G01 X54.6224 Y9.7349 
G01 X54.7349 Y9.6224 
G01 X54.8673 Y9.5340 
G01 X55.0143 Y9.4731 
G01 X55.1704 Y9.4420 
G01 X55.3296 Y9.4420 
G01 X55.4857 Y9.4731 
G01 X55.6327 Y9.5340 
G01 X55.7651 Y9.6224 
G01 X55.8776 Y9.7349 
G01 X55.9660 Y9.8673 
G01 X56.0269 Y10.0143 
G01 X56.0393 Y10.0762 
G01 X68.2790 Y22.3159 
G01 X68.3535 Y22.4274 
G01 X68.4048 Y22.5514 
G01 X68.4310 Y22.6829 
G01 X68.4310 Y27.2179 
G01 X77.0290 Y35.8159 
G01 X77.1035 Y35.9274 
G01 X77.1548 Y36.0514 
G01 X77.1810 Y36.1829 
G01 X77.1810 Y60.3190 
G01 X80.3815 Y60.3190 
G01 X80.3979 Y60.2869 
G01 X80.5150 Y60.1258 
G01 X80.6558 Y59.9850 
G01 X80.8169 Y59.8679 
G01 X80.9943 Y59.7775 
G01 X81.1837 Y59.7160 
G01 X81.3804 Y59.6848 
G01 X81.5796 Y59.6848 
G01 X81.7763 Y59.7160 
G01 X81.9657 Y59.7775 
G01 X82.1431 Y59.8679 
G01 X82.3042 Y59.9850 
G01 X82.4450 Y60.1258 
G01 X82.5621 Y60.2869 
G01 X82.6525 Y60.4643 
G01 X82.7140 Y60.6537 
G01 X82.7452 Y60.8504 
G00 Z2.5400 
G00 X82.7452 Y58.3104 
G01 Z-0.1778 F254.00 
G01 X82.7452 Y58.5096 F508.00 
G01 X82.7140 Y58.7063 
G01 X82.6525 Y58.8957 
G01 X82.5621 Y59.0731 
G01 X82.4450 Y59.2342 
G01 X82.3042 Y59.3750 
G01 X82.1431 Y59.4921 
G01 X81.9657 Y59.5825 
G01 X81.7763 Y59.6440 
G01 X81.5796 Y59.6752 
G01 X81.3804 Y59.6752 
G01 X81.1837 Y59.6440 
G01 X80.9943 Y59.5825 
G01 X80.8169 Y59.4921 
G01 X80.6558 Y59.3750 
G01 X80.5150 Y59.2342 
G01 X80.3979 Y59.0731 
G01 X80.3075 Y58.8957 
G01 X80.2460 Y58.7063 
G01 X80.2148 Y58.5096 
G01 X80.2148 Y58.3104 
G01 X80.2460 Y58.1137 
G01 X80.3075 Y57.9243 
G01 X80.3979 Y57.7469 
G01 X80.5150 Y57.5858 
G01 X80.6558 Y57.4450 
G01 X80.8169 Y57.3279 
G01 X80.9943 Y57.2375 
G01 X81.1837 Y57.1760 
G01 X81.3804 Y57.1448 
G01 X81.5796 Y57.1448 
G01 X81.7763 Y57.1760 
G01 X81.9657 Y57.2375 
G01 X82.1431 Y57.3279 
G01 X82.3042 Y57.4450 
G01 X82.4450 Y57.5858 
G01 X82.5621 Y57.7469 
G01 X82.6525 Y57.9243 
G01 X82.7140 Y58.1137 
G01 X82.7452 Y58.3104 
G00 Z2.5400 
G00 X82.7452 Y55.7704 
G01 Z-0.1778 F254.00 
G01 X82.7452 Y55.9696 F508.00 
G01 X82.7140 Y56.1663 
G01 X82.6525 Y56.3557 
G01 X82.5621 Y56.5331 
G01 X82.4450 Y56.6942 
G01 X82.3042 Y56.8350 
G01 X82.1431 Y56.9521 
G01 X81.9657 Y57.0425 
G01 X81.7763 Y57.1040 
G01 X81.5796 Y57.1352 
G01 X81.3804 Y57.1352 
G01 X81.1837 Y57.1040 
G01 X80.9943 Y57.0425 
G01 X80.8169 Y56.9521 
G01 X80.6558 Y56.8350 
G01 X80.5150 Y56.6942 
G01 X80.3979 Y56.5331 
G01 X80.3075 Y56.3557 
G01 X80.2460 Y56.1663 
G01 X80.2148 Y55.9696 
G01 X80.2148 Y55.7704 
G01 X80.2460 Y55.5737 
G01 X80.3075 Y55.3843 
G01 X80.3979 Y55.2069 
G01 X80.5150 Y55.0458 
G01 X80.6558 Y54.9050 
G01 X80.8169 Y54.7879 
G01 X80.9943 Y54.6975 
G01 X81.1837 Y54.6360 
G01 X81.3804 Y54.6048 
G01 X81.5796 Y54.6048 
G01 X81.7763 Y54.6360 
G01 X81.9657 Y54.6975 
G01 X82.1431 Y54.7879 
G01 X82.3042 Y54.9050 
G01 X82.4450 Y55.0458 
G01 X82.5621 Y55.2069 
G01 X82.6525 Y55.3843 
G01 X82.7140 Y55.5737 
G01 X82.7452 Y55.7704 
G00 Z2.5400 
G00 X82.7452 Y53.2304 
G01 Z-0.1778 F254.00 
G01 X82.7452 Y53.4296 F508.00 
G01 X82.7140 Y53.6263 
G01 X82.6525 Y53.8157 
G01 X82.5621 Y53.9931 
G01 X82.4450 Y54.1542 
G01 X82.3042 Y54.2950 
G01 X82.1431 Y54.4121 
G01 X81.9657 Y54.5025 
G01 X81.7763 Y54.5640 
G01 X81.5796 Y54.5952 
G01 X81.3804 Y54.5952 
G01 X81.1837 Y54.5640 
G01 X80.9943 Y54.5025 
G01 X80.8169 Y54.4121 
G01 X80.6558 Y54.2950 
G01 X80.5150 Y54.1542 
G01 X80.3979 Y53.9931 
G01 X80.3075 Y53.8157 
G01 X80.2460 Y53.6263 
G01 X80.2148 Y53.4296 
G01 X80.2148 Y53.2304 
G01 X80.2460 Y53.0337 
G01 X80.3075 Y52.8443 
G01 X80.3979 Y52.6669 
G01 X80.5150 Y52.5058 
G01 X80.6558 Y52.3650 
G01 X80.8169 Y52.2479 
G01 X80.9943 Y52.1575 
G01 X81.1837 Y52.0960 
G01 X81.3804 Y52.0648 
G01 X81.5796 Y52.0648 
G01 X81.7763 Y52.0960 
G01 X81.9657 Y52.1575 
G01 X82.1431 Y52.2479 
G01 X82.3042 Y52.3650 
G01 X82.4450 Y52.5058 
G01 X82.5621 Y52.6669 
G01 X82.6525 Y52.8443 
G01 X82.7140 Y53.0337 
G01 X82.7452 Y53.2304 
G00 Z2.5400 
G00 X43.4800 Y87.5064 
G01 Z-0.1778 F254.00 
G01 X43.4800 Y87.7536 F508.00 
G01 X43.4413 Y87.9976 
G01 X43.3650 Y88.2327 
G01 X43.2528 Y88.4529 
G01 X43.1075 Y88.6528 
G01 X42.9328 Y88.8275 
G01 X42.7329 Y88.9728 
G01 X42.5127 Y89.0850 
G01 X42.2776 Y89.1613 
G01 X42.0336 Y89.2000 
G01 X41.7864 Y89.2000 
G01 X41.5424 Y89.1613 
G01 X41.3073 Y89.0850 
G01 X41.0871 Y88.9728 
G01 X40.8872 Y88.8275 
G01 X40.7125 Y88.6528 
G01 X40.5672 Y88.4529 
G01 X40.4550 Y88.2327 
G01 X40.3787 Y87.9976 
G01 X40.3400 Y87.7536 
G01 X40.3400 Y87.5064 
G01 X40.3787 Y87.2624 
G01 X40.4550 Y87.0273 
G01 X40.5672 Y86.8071 
G01 X40.7125 Y86.6072 
G01 X40.8872 Y86.4325 
G01 X41.0871 Y86.2872 
G01 X41.3073 Y86.1750 
G01 X41.5424 Y86.0987 
G01 X41.7864 Y86.0600 
G01 X42.0336 Y86.0600 
G01 X42.2776 Y86.0987 
G01 X42.5127 Y86.1750 
G01 X42.7329 Y86.2872 
G01 X42.9328 Y86.4325 
G01 X43.1075 Y86.6072 
G01 X43.2528 Y86.8071 
G01 X43.3650 Y87.0273 
G01 X43.4413 Y87.2624 
G01 X43.4800 Y87.5064 
G00 Z2.5400 
G00 X43.4800 Y92.0597 
G01 Z-0.1778 F254.00 
G01 X43.4800 Y93.3603 F508.00 
G01 X42.5603 Y94.2800 
G01 X41.2597 Y94.2800 
G01 X40.4107 Y93.4310 
G01 X31.9793 Y93.4310 
G01 X31.1303 Y94.2800 
G01 X29.8297 Y94.2800 
G01 X28.9100 Y93.3603 
G01 X28.9100 Y92.0597 
G01 X29.8297 Y91.1400 
G01 X31.1303 Y91.1400 
G01 X32.0500 Y92.0597 
G01 X32.0500 Y92.0690 
G01 X40.3400 Y92.0690 
G01 X40.3400 Y92.0597 
G01 X41.2597 Y91.1400 
G01 X42.5603 Y91.1400 
G01 X43.4800 Y92.0597 
G00 Z2.5400 
G00 X28.9004 Y80.8822 
G01 Z-0.1778 F254.00 
G01 X28.9004 Y81.6778 F508.00 
G01 X28.4310 Y82.1472 
G01 X28.4310 Y83.0671 
G01 X28.4048 Y83.1986 
G01 X28.3535 Y83.3226 
G01 X28.2790 Y83.4341 
G01 X28.1841 Y83.5290 
G01 X27.7131 Y84.0000 
G01 X29.8855 Y86.1724 
G01 X30.1124 Y86.0987 
G01 X30.3564 Y86.0600 
G01 X30.6036 Y86.0600 
G01 X30.8476 Y86.0987 
G01 X31.0827 Y86.1750 
G01 X31.3029 Y86.2872 
G01 X31.5028 Y86.4325 
G01 X31.6775 Y86.6072 
G01 X31.8228 Y86.8071 
G01 X31.9350 Y87.0273 
G01 X32.0113 Y87.2624 
G01 X32.0500 Y87.5064 
G01 X32.0500 Y87.7536 
G01 X32.0113 Y87.9976 
G01 X31.9350 Y88.2327 
G01 X31.8228 Y88.4529 
G01 X31.6775 Y88.6528 
G01 X31.5028 Y88.8275 
G01 X31.3029 Y88.9728 
G01 X31.0827 Y89.0850 
G01 X30.8476 Y89.1613 
G01 X30.6036 Y89.2000 
G01 X30.3564 Y89.2000 
G01 X30.1124 Y89.1613 
G01 X29.8773 Y89.0850 
G01 X29.6571 Y88.9728 
G01 X29.4572 Y88.8275 
G01 X29.2825 Y88.6528 
G01 X29.1372 Y88.4529 
G01 X29.0250 Y88.2327 
G01 X28.9487 Y87.9976 
G01 X28.9100 Y87.7536 
G01 X28.9100 Y87.5064 
G01 X28.9487 Y87.2624 
G01 X28.9733 Y87.1864 
G01 X26.7500 Y84.9631 
G01 X17.8322 Y93.8809 
G01 X17.8350 Y93.8988 
G01 X17.8350 Y94.1034 
G01 X17.8030 Y94.3055 
G01 X17.7398 Y94.5001 
G01 X17.6469 Y94.6824 
G01 X17.5266 Y94.8480 
G01 X17.3819 Y94.9927 
G01 X17.2163 Y95.1130 
G01 X17.0340 Y95.2059 
G01 X16.8394 Y95.2691 
G01 X16.6373 Y95.3011 
G01 X16.4327 Y95.3011 
G01 X16.2306 Y95.2691 
G01 X16.0360 Y95.2059 
G01 X15.8537 Y95.1130 
G01 X15.6881 Y94.9927 
G01 X15.5434 Y94.8480 
G01 X15.4231 Y94.6824 
G01 X15.3302 Y94.5001 
G01 X15.2670 Y94.3055 
G01 X15.2350 Y94.1034 
G01 X15.2350 Y93.8988 
G01 X15.2670 Y93.6967 
G01 X15.3302 Y93.5021 
G01 X15.4231 Y93.3197 
G01 X15.5434 Y93.1542 
G01 X15.6881 Y93.0095 
G01 X15.8537 Y92.8892 
G01 X16.0360 Y92.7963 
G01 X16.2306 Y92.7331 
G01 X16.4327 Y92.7011 
G01 X16.6373 Y92.7011 
G01 X16.8394 Y92.7331 
G01 X17.0012 Y92.7857 
G01 X26.2210 Y83.5659 
G01 X26.3159 Y83.4710 
G01 X27.0690 Y82.7179 
G01 X27.0690 Y81.7672 
G01 X26.9796 Y81.6778 
G01 X26.9796 Y80.8822 
G01 X27.3190 Y80.5428 
G01 X27.3190 Y76.9372 
G01 X26.9796 Y76.5978 
G01 X26.9796 Y75.8022 
G01 X27.3190 Y75.4628 
G01 X27.3190 Y71.8572 
G01 X26.9796 Y71.5178 
G01 X26.9796 Y70.7222 
G01 X27.3190 Y70.3828 
G01 X27.3190 Y66.7772 
G01 X26.9796 Y66.4378 
G01 X26.9796 Y65.6422 
G01 X27.5422 Y65.0796 
G01 X28.3378 Y65.0796 
G01 X28.9004 Y65.6422 
G01 X28.9004 Y66.4378 
G01 X28.6810 Y66.6572 
G01 X28.6810 Y70.5028 
G01 X28.9004 Y70.7222 
G01 X28.9004 Y71.5178 
G01 X28.6810 Y71.7372 
G01 X28.6810 Y75.5828 
G01 X28.9004 Y75.8022 
G01 X28.9004 Y76.5978 
G01 X28.6810 Y76.8172 
G01 X28.6810 Y80.6628 
G01 X28.9004 Y80.8822 
G00 Z2.5400 
G00 X38.4978 Y77.1604 
G01 Z-0.1778 F254.00 
G01 X37.7022 Y77.1604 F508.00 
G01 X37.1396 Y76.5978 
G01 X37.1396 Y75.8022 
G01 X37.7022 Y75.2396 
G01 X38.4978 Y75.2396 
G01 X38.8272 Y75.5690 
G01 X43.6720 Y75.5690 
G01 X43.7870 Y75.4540 
G01 X43.9443 Y75.3489 
G01 X44.1191 Y75.2765 
G01 X44.3046 Y75.2396 
G01 X45.8146 Y75.2396 
G01 X46.0001 Y75.2765 
G01 X46.1749 Y75.3489 
G01 X46.3322 Y75.4540 
G01 X46.4660 Y75.5878 
G01 X46.5711 Y75.7451 
G01 X46.6435 Y75.9199 
G01 X46.6804 Y76.1054 
G01 X46.6804 Y76.2946 
G01 X46.6435 Y76.4801 
G01 X46.5711 Y76.6549 
G01 X46.4660 Y76.8122 
G01 X46.3322 Y76.9460 
G01 X46.1749 Y77.0511 
G01 X46.0001 Y77.1235 
G01 X45.8146 Y77.1604 
G01 X44.3046 Y77.1604 
G01 X44.1191 Y77.1235 
G01 X43.9443 Y77.0511 
G01 X43.7870 Y76.9460 
G01 X43.7720 Y76.9310 
G01 X38.7272 Y76.9310 
G01 X38.4978 Y77.1604 
G00 Z2.5400 
G00 X38.4978 Y67.0004 
G01 Z-0.1778 F254.00 
G01 X37.7022 Y67.0004 F508.00 
G01 X37.1396 Y66.4378 
G01 X37.1396 Y65.6422 
G01 X37.7022 Y65.0796 
G01 X38.4978 Y65.0796 
G01 X38.7372 Y65.3190 
G01 X43.7620 Y65.3190 
G01 X43.7870 Y65.2940 
